P3
200 150
255
188 209 232
188 209 232
188 209 232
188 209 232
188 209 232
188 209 232
188 209 232
188 209 232
188 209 232
188 209 232
188 209 232
188 209 232
188 209 232
188 209 232
188 209 232
188 209 232
188 209 232
188 209 232
188 209 232
188 209 232
188 209 232
188 209 232
188 209 232
188 209 232
188 209 232
188 209 232
188 209 232
188 209 232
188 209 232
188 209 232
188 209 232
188 209 232
188 209 232
188 209 232
188 209 232
188 209 232
188 209 232
188 209 232
188 209 232
188 209 232
188 209 232
188 209 232
188 209 232
188 209 232
188 209 232
188 209 232
188 209 232
188 209 232
188 209 232
188 209 232
188 209 232
188 209 232
188 209 232
189 209 232
189 209 232
189 209 232
189 210 232
189 210 232
189 210 232
189 210 232
189 210 232
189 210 232
189 210 232
189 210 232
189 210 232
189 210 232
189 210 232
189 210 232
189 210 232
189 210 232
189 210 232
189 210 232
189 210 232
189 210 232
189 210 232
189 210 232
189 210 232
189 210 232
189 210 232
189 210 232
189 210 232
189 210 232
189 210 232
189 210 232
189 210 232
189 210 232
189 210 232
189 210 232
189 210 232
189 210 232
189 210 232
189 210 232
189 210 232
189 210 232
189 210 232
189 210 232
189 210 232
189 210 232
189 210 232
189 210 232
189 210 232
189 210 232
189 210 232
189 210 232
189 210 232
189 210 232
189 210 232
189 210 232
189 210 232
189 210 232
189 210 232
189 210 232
189 210 232
189 210 232
189 210 232
189 210 232
189 210 232
189 210 232
189 210 232
189 210 232
189 210 232
189 210 232
189 210 232
189 210 232
189 210 232
189 210 232
189 210 232
189 210 232
189 210 232
189 210 232
189 210 232
189 210 232
189 210 232
189 210 232
189 210 232
189 210 232
189 210 232
189 210 232
189 210 232
189 210 232
189 210 232
189 210 232
189 210 232
189 210 232
189 209 232
189 209 232
189 209 232
188 209 232
188 209 232
188 209 232
188 209 232
188 209 232
188 209 232
188 209 232
188 209 232
188 209 232
188 209 232
188 209 232
188 209 232
188 209 232
188 209 232
188 209 232
188 209 232
188 209 232
188 209 232
188 209 232
188 209 232
188 209 232
188 209 232
188 209 232
188 209 232
188 209 232
188 209 232
188 209 232
188 209 232
188 209 232
188 209 232
188 209 232
188 209 232
188 209 232
188 209 232
188 209 232
188 209 232
188 209 232
188 209 232
188 209 232
188 209 232
188 209 232
188 209 232
188 209 232
188 209 232
188 209 232
188 209 232
188 209 232
188 209 232
188 209 232
188 209 232
188 209 232
188 209 232
188 209 232
188 209 231
188 209 231
188 209 231
188 209 231
188 209 231
188 209 231
188 209 231
188 209 231
188 209 232
188 209 232
188 209 232
188 209 232
188 209 232
188 209 232
188 209 232
188 209 232
188 209 232
188 209 232
188 209 232
188 209 232
188 209 232
188 209 232
188 209 232
188 209 232
188 209 232
188 209 232
188 209 232
188 209 232
188 209 232
188 209 232
188 209 232
188 209 232
188 209 232
188 209 232
188 209 232
188 209 232
188 209 232
188 209 232
188 209 232
188 209 232
188 209 232
188 209 232
188 209 232
188 209 232
188 209 232
188 209 232
188 209 232
188 209 232
188 209 232
188 209 232
188 209 232
188 209 232
188 209 232
188 209 232
188 209 232
188 209 232
188 209 232
188 209 232
188 209 232
188 209 232
188 209 232
188 209 232
188 209 232
188 209 232
188 209 232
188 209 232
188 209 232
188 209 232
188 209 232
188 209 232
188 209 232
188 209 232
188 209 232
188 209 232
188 209 232
188 209 232
188 209 232
188 209 232
189 209 232
189 209 232
189 209 232
189 209 232
189 209 232
189 210 232
189 210 232
189 210 232
189 210 232
189 210 232
189 210 232
189 210 232
189 210 232
189 210 232
189 210 232
189 210 232
189 210 232
189 210 232
189 210 232
189 210 232
189 210 232
189 210 232
189 210 232
189 210 232
189 210 232
189 210 232
189 210 232
189 210 232
189 210 232
189 210 232
189 210 232
189 210 232
189 210 232
189 210 232
189 210 232
189 210 232
189 210 232
189 210 232
189 210 232
189 209 232
189 209 232
189 209 232
189 209 232
189 209 232
188 209 232
188 209 232
188 209 232
188 209 232
188 209 232
188 209 232
188 209 232
188 209 232
188 209 232
188 209 232
188 209 232
188 209 232
188 209 232
188 209 232
188 209 232
188 209 232
188 209 232
188 209 232
188 209 232
188 209 232
188 209 232
188 209 232
188 209 232
188 209 232
188 209 232
188 209 232
188 209 232
188 209 232
188 209 232
188 209 232
188 209 232
188 209 232
188 209 232
188 209 232
188 209 232
188 209 232
188 209 232
188 209 232
188 209 232
188 209 232
188 209 232
188 209 232
188 209 232
188 209 232
188 209 232
188 209 232
188 209 232
188 209 232
188 209 232
188 209 232
188 209 232
188 209 232
188 209 232
188 209 232
188 209 232
188 209 232
188 209 232
188 209 232
188 209 232
188 209 232
188 209 232
188 209 232
188 209 232
188 209 232
188 209 232
188 209 232
188 209 232
188 209 232
188 209 232
188 209 232
188 209 231
188 209 231
188 209 231
188 209 231
188 209 231
188 209 231
188 209 231
188 209 231
187 208 231
187 208 231
187 208 231
187 208 231
187 208 231
187 209 231
187 209 231
187 209 231
187 209 231
187 209 231
188 209 231
188 209 231
188 209 231
188 209 231
188 209 231
188 209 231
188 209 231
188 209 231
188 209 231
188 209 231
188 209 231
188 209 232
188 209 232
188 209 232
188 209 232
188 209 232
188 209 232
188 209 232
188 209 232
188 209 232
188 209 232
188 209 232
188 209 232
188 209 232
188 209 232
188 209 232
188 209 232
188 209 232
188 209 232
188 209 232
188 209 232
188 209 232
188 209 232
188 209 232
188 209 232
188 209 232
188 209 232
188 209 232
188 209 232
188 209 232
188 209 232
188 209 232
188 209 232
188 209 232
188 209 232
188 209 232
188 209 232
188 209 232
188 209 232
188 209 232
188 209 232
188 209 232
188 209 232
188 209 232
188 209 232
188 209 232
188 209 232
188 209 232
188 209 232
188 209 232
188 209 232
188 209 232
188 209 232
188 209 232
188 209 232
188 209 232
188 209 232
188 209 232
188 209 232
188 209 232
188 209 232
188 209 232
188 209 232
188 209 232
188 209 232
188 209 232
188 209 232
188 209 232
188 209 232
188 209 232
188 209 232
188 209 232
188 209 232
188 209 232
188 209 232
188 209 232
188 209 232
188 209 232
188 209 232
188 209 232
188 209 232
188 209 232
188 209 232
188 209 232
188 209 232
188 209 232
188 209 232
188 209 232
188 209 232
188 209 232
188 209 232
188 209 232
188 209 232
188 209 232
188 209 232
188 209 232
188 209 232
188 209 232
188 209 232
188 209 232
188 209 232
188 209 232
188 209 232
188 209 232
188 209 232
188 209 232
188 209 232
188 209 232
188 209 232
188 209 232
188 209 232
188 209 232
188 209 232
188 209 232
188 209 232
188 209 232
188 209 232
188 209 232
188 209 232
188 209 232
188 209 232
188 209 232
188 209 232
188 209 232
188 209 232
188 209 232
188 209 232
188 209 232
188 209 232
188 209 232
188 209 232
188 209 232
188 209 232
188 209 232
188 209 232
188 209 232
188 209 232
188 209 232
188 209 232
188 209 232
188 209 232
188 209 232
188 209 232
188 209 232
188 209 232
188 209 232
188 209 232
188 209 232
188 209 232
188 209 232
188 209 232
188 209 232
188 209 232
188 209 232
188 209 232
188 209 232
188 209 232
188 209 232
188 209 232
188 209 231
188 209 231
188 209 231
188 209 231
188 209 231
188 209 231
188 209 231
188 209 231
188 209 231
188 209 231
188 209 231
187 209 231
187 209 231
187 209 231
187 209 231
187 209 231
187 208 231
187 208 231
187 208 231
187 208 231
187 208 231
187 208 231
187 208 231
187 208 231
187 208 231
187 208 231
187 208 231
187 208 231
187 208 231
187 208 231
187 208 231
187 208 231
187 208 231
187 208 231
187 208 231
187 208 231
187 208 231
187 208 231
187 208 231
187 209 231
187 209 231
187 209 231
187 209 231
187 209 231
188 209 231
188 209 231
188 209 231
188 209 231
188 209 231
188 209 231
188 209 231
188 209 231
188 209 231
188 209 231
188 209 231
188 209 231
188 209 232
188 209 232
188 209 232
188 209 232
188 209 232
188 209 232
188 209 232
188 209 232
188 209 232
188 209 232
188 209 232
188 209 232
188 209 232
188 209 232
188 209 232
188 209 232
188 209 232
188 209 232
188 209 232
188 209 232
188 209 232
188 209 232
188 209 232
188 209 232
188 209 232
188 209 232
188 209 232
188 209 232
188 209 232
188 209 232
188 209 232
188 209 232
188 209 232
188 209 232
188 209 232
188 209 232
188 209 232
188 209 232
188 209 232
188 209 232
188 209 232
188 209 232
188 209 232
188 209 232
188 209 232
188 209 232
188 209 232
188 209 232
188 209 232
188 209 232
188 209 232
188 209 232
188 209 232
188 209 232
188 209 232
188 209 232
188 209 232
188 209 232
188 209 232
188 209 232
188 209 232
188 209 232
188 209 232
188 209 232
188 209 232
188 209 232
188 209 232
188 209 232
188 209 232
188 209 232
188 209 232
188 209 232
188 209 232
188 209 232
188 209 232
188 209 232
188 209 232
188 209 232
188 209 232
188 209 232
188 209 232
188 209 232
188 209 232
188 209 232
188 209 232
188 209 232
188 209 232
188 209 232
188 209 232
188 209 232
188 209 232
188 209 232
188 209 232
188 209 232
188 209 232
188 209 232
188 209 232
188 209 232
188 209 232
188 209 232
188 209 232
188 209 232
188 209 232
188 209 232
188 209 232
188 209 232
188 209 232
188 209 232
188 209 232
188 209 232
188 209 232
188 209 232
188 209 232
188 209 232
188 209 232
188 209 232
188 209 232
188 209 232
188 209 232
188 209 232
188 209 232
188 209 232
188 209 232
188 209 232
188 209 232
188 209 232
188 209 232
188 209 232
188 209 232
188 209 232
188 209 231
188 209 231
188 209 231
188 209 231
188 209 231
188 209 231
188 209 231
188 209 231
188 209 231
188 209 231
188 209 231
188 209 231
187 209 231
187 209 231
187 209 231
187 209 231
187 209 231
187 208 231
187 208 231
187 208 231
187 208 231
187 208 231
187 208 231
187 208 231
187 208 231
187 208 231
187 208 231
187 208 231
187 208 231
187 208 231
187 208 231
187 208 231
187 208 231
187 208 231
187 208 231
187 208 231
187 208 231
187 208 231
187 208 231
187 208 231
187 208 231
187 208 231
187 208 231
187 208 231
187 208 231
187 208 231
187 208 231
187 208 231
187 208 231
187 208 231
187 208 231
187 208 231
187 208 231
187 208 231
187 208 231
187 208 231
187 208 231
187 208 231
187 208 231
187 208 231
187 208 231
187 208 231
187 208 231
187 208 231
187 208 231
187 208 231
187 208 231
187 209 231
187 209 231
187 209 231
187 209 231
187 209 231
187 209 231
188 209 231
188 209 231
188 209 231
188 209 231
188 209 231
188 209 231
188 209 231
188 209 231
188 209 231
188 209 231
188 209 231
188 209 231
188 209 231
188 209 231
188 209 231
188 209 232
188 209 232
188 209 232
188 209 232
188 209 232
188 209 232
188 209 232
188 209 232
188 209 232
188 209 232
188 209 232
188 209 232
188 209 232
188 209 232
188 209 232
188 209 232
188 209 232
188 209 232
188 209 232
188 209 232
188 209 232
188 209 232
188 209 232
188 209 232
188 209 232
188 209 232
188 209 232
188 209 232
188 209 232
188 209 232
188 209 232
188 209 232
188 209 232
188 209 232
188 209 232
188 209 232
188 209 232
188 209 232
188 209 232
188 209 232
188 209 232
188 209 232
188 209 232
188 209 232
188 209 232
188 209 232
188 209 232
188 209 232
188 209 232
188 209 232
188 209 232
188 209 232
188 209 232
188 209 232
188 209 232
188 209 232
188 209 232
188 209 232
188 209 232
188 209 232
188 209 232
188 209 232
188 209 232
188 209 232
188 209 232
188 209 232
188 209 232
188 209 232
188 209 232
188 209 232
188 209 232
188 209 232
188 209 232
188 209 232
188 209 232
188 209 232
188 209 232
188 209 232
188 209 232
188 209 232
188 209 232
188 209 232
188 209 232
188 209 232
188 209 232
188 209 232
188 209 232
188 209 232
188 209 232
188 209 232
188 209 232
188 209 232
188 209 232
188 209 232
188 209 231
188 209 231
188 209 231
188 209 231
188 209 231
188 209 231
188 209 231
188 209 231
188 209 231
188 209 231
188 209 231
188 209 231
188 209 231
188 209 231
188 209 231
187 209 231
187 209 231
187 209 231
187 209 231
187 209 231
187 209 231
187 208 231
187 208 231
187 208 231
187 208 231
187 208 231
187 208 231
187 208 231
187 208 231
187 208 231
187 208 231
187 208 231
187 208 231
187 208 231
187 208 231
187 208 231
187 208 231
187 208 231
187 208 231
187 208 231
187 208 231
187 208 231
187 208 231
187 208 231
187 208 231
187 208 231
187 208 231
187 208 231
187 208 231
187 208 231
187 208 231
187 208 231
187 208 231
187 208 231
187 208 231
187 208 231
187 208 231
187 208 231
187 208 231
187 208 231
187 208 231
187 208 231
187 208 231
187 208 231
187 208 231
187 208 231
187 208 231
187 208 231
187 208 231
187 208 231
187 208 231
187 208 231
187 208 231
187 208 231
187 208 231
187 208 231
187 208 231
187 208 231
187 208 231
187 208 231
187 208 231
187 208 231
187 208 231
187 208 231
187 208 231
187 208 231
187 208 231
187 208 231
187 208 231
187 208 231
187 208 231
187 208 231
187 208 231
187 208 231
187 208 231
187 208 231
187 208 231
187 208 231
187 208 231
187 208 231
187 208 231
187 208 231
187 209 231
187 209 231
187 209 231
187 209 231
187 209 231
187 209 231
187 209 231
187 209 231
188 209 231
188 209 231
188 209 231
188 209 231
188 209 231
188 209 231
188 209 231
188 209 231
188 209 231
188 209 231
188 209 231
188 209 231
188 209 231
188 209 231
188 209 231
188 209 231
188 209 231
188 209 231
188 209 231
188 209 231
188 209 231
188 209 231
188 209 231
188 209 231
188 209 231
188 209 231
188 209 232
188 209 232
188 209 232
188 209 232
188 209 232
188 209 232
188 209 232
188 209 232
188 209 232
188 209 232
188 209 232
188 209 232
188 209 232
188 209 232
188 209 232
188 209 232
188 209 232
188 209 232
188 209 232
188 209 232
188 209 232
188 209 232
188 209 232
188 209 232
188 209 232
188 209 232
188 209 232
188 209 232
188 209 232
188 209 232
188 209 232
188 209 232
188 209 232
188 209 232
188 209 231
188 209 231
188 209 231
188 209 231
188 209 231
188 209 231
188 209 231
188 209 231
188 209 231
188 209 231
188 209 231
188 209 231
188 209 231
188 209 231
188 209 231
188 209 231
188 209 231
188 209 231
188 209 231
188 209 231
188 209 231
188 209 231
188 209 231
188 209 231
188 209 231
188 209 231
187 209 231
187 209 231
187 209 231
187 209 231
187 209 231
187 209 231
187 209 231
187 209 231
187 208 231
187 208 231
187 208 231
187 208 231
187 208 231
187 208 231
187 208 231
187 208 231
187 208 231
187 208 231
187 208 231
187 208 231
187 208 231
187 208 231
187 208 231
187 208 231
187 208 231
187 208 231
187 208 231
187 208 231
187 208 231
187 208 231
187 208 231
187 208 231
187 208 231
187 208 231
187 208 231
187 208 231
187 208 231
187 208 231
187 208 231
187 208 231
187 208 231
187 208 231
187 208 231
187 208 231
187 208 231
187 208 231
187 208 231
187 208 231
187 208 231
187 208 231
187 208 231
187 208 231
187 208 231
187 208 231
187 208 231
187 208 231
187 208 231
187 208 231
187 208 231
187 208 231
187 208 231
187 208 231
187 208 231
187 208 231
187 208 231
187 208 231
187 208 231
187 208 231
187 208 231
187 208 231
187 208 231
187 208 231
187 208 231
187 208 231
187 208 231
187 208 231
187 208 231
187 208 231
187 208 231
187 208 231
187 208 231
187 208 231
187 208 231
187 208 231
187 208 231
187 208 231
187 208 231
187 208 231
187 208 231
187 208 231
187 208 231
187 208 231
187 208 231
187 208 231
187 208 231
187 208 231
187 208 231
187 208 231
187 208 231
187 208 231
187 208 231
187 208 231
187 208 231
187 208 231
187 208 231
187 208 231
187 208 231
187 208 231
187 208 231
187 208 231
187 208 231
187 208 231
187 208 231
187 208 231
187 208 231
187 208 231
187 208 231
187 208 231
187 208 231
187 208 231
187 208 231
187 208 231
187 208 231
187 208 231
187 208 231
187 208 231
187 208 231
187 208 231
187 208 231
187 208 231
187 208 231
187 208 231
187 208 231
187 209 231
187 209 231
187 209 231
187 209 231
187 209 231
187 209 231
187 209 231
187 209 231
187 209 231
187 209 231
187 209 231
187 209 231
187 209 231
187 209 231
187 209 231
187 209 231
187 209 231
187 209 231
187 209 231
187 209 231
187 209 231
187 209 231
187 209 231
187 209 231
187 209 231
187 209 231
187 209 231
187 209 231
187 209 231
187 209 231
187 209 231
187 209 231
187 209 231
187 209 231
187 209 231
187 209 231
187 209 231
187 209 231
187 209 231
187 209 231
187 209 231
187 209 231
187 209 231
187 209 231
187 209 231
187 209 231
187 209 231
187 209 231
187 208 231
187 208 231
187 208 231
187 208 231
187 208 231
187 208 231
187 208 231
187 208 231
187 208 231
187 208 231
187 208 231
187 208 231
187 208 231
187 208 231
187 208 231
187 208 231
187 208 231
187 208 231
187 208 231
187 208 231
187 208 231
187 208 231
187 208 231
187 208 231
187 208 231
187 208 231
187 208 231
187 208 231
187 208 231
187 208 231
187 208 231
187 208 231
187 208 231
187 208 231
187 208 231
187 208 231
187 208 231
187 208 231
187 208 231
187 208 231
187 208 231
187 208 231
187 208 231
187 208 231
187 208 231
187 208 231
187 208 231
187 208 231
187 208 231
187 208 231
187 208 231
187 208 231
187 208 231
187 208 231
187 208 231
187 208 231
187 208 231
187 208 231
187 208 231
187 208 231
187 208 231
187 208 231
187 208 231
187 208 231
187 208 231
187 208 231
187 208 231
187 208 231
187 208 231
187 208 231
187 208 231
187 208 231
187 208 231
187 208 231
187 208 231
187 208 231
186 208 231
186 208 231
186 208 231
186 208 231
186 208 231
186 208 231
186 208 231
186 208 231
187 208 231
187 208 231
187 208 231
187 208 231
187 208 231
187 208 231
187 208 231
187 208 231
187 208 231
187 208 231
187 208 231
187 208 231
187 208 231
187 208 231
187 208 231
187 208 231
187 208 231
187 208 231
187 208 231
187 208 231
187 208 231
187 208 231
187 208 231
187 208 231
187 208 231
187 208 231
187 208 231
187 208 231
187 208 231
187 208 231
187 208 231
187 208 231
187 208 231
187 208 231
187 208 231
187 208 231
187 208 231
187 208 231
187 208 231
187 208 231
187 208 231
187 208 231
187 208 231
187 208 231
187 208 231
187 208 231
187 208 231
187 208 231
187 208 231
187 208 231
187 208 231
187 208 231
187 208 231
187 208 231
187 208 231
187 208 231
187 208 231
187 208 231
187 208 231
187 208 231
187 208 231
187 208 231
187 208 231
187 208 231
187 208 231
187 208 231
187 208 231
187 208 231
187 208 231
187 208 231
187 208 231
187 208 231
187 208 231
187 208 231
187 208 231
187 208 231
187 208 231
187 208 231
187 208 231
187 208 231
187 208 231
187 208 231
187 208 231
187 208 231
187 208 231
187 208 231
187 208 231
187 208 231
187 208 231
187 208 231
187 208 231
187 208 231
187 208 231
187 208 231
187 208 231
187 208 231
187 208 231
187 208 231
187 208 231
187 208 231
187 208 231
187 208 231
187 208 231
187 208 231
187 208 231
187 208 231
187 208 231
187 208 231
187 208 231
187 208 231
187 208 231
187 208 231
187 208 231
187 208 231
187 208 231
187 208 231
187 208 231
187 208 231
187 208 231
187 208 231
187 208 231
187 208 231
187 208 231
187 208 231
187 208 231
187 208 231
187 208 231
187 208 231
187 208 231
187 208 231
187 208 231
187 208 231
187 208 231
187 208 231
187 208 231
187 208 231
187 208 231
187 208 231
187 208 231
187 208 231
187 208 231
187 208 231
187 208 231
187 208 231
187 208 231
187 208 231
187 208 231
187 208 231
187 208 231
187 208 231
187 208 231
187 208 231
187 208 231
187 208 231
187 208 231
187 208 231
187 208 231
187 208 231
187 208 231
187 208 231
187 208 231
187 208 231
187 208 231
187 208 231
187 208 231
187 208 231
187 208 231
187 208 231
187 208 231
187 208 231
187 208 231
187 208 231
187 208 231
187 208 231
187 208 231
187 208 231
187 208 231
187 208 231
187 208 231
187 208 231
187 208 231
187 208 231
187 208 231
187 208 231
186 208 231
186 208 231
186 208 231
186 208 231
186 208 231
186 208 231
186 208 231
186 208 231
186 207 230
186 207 231
186 207 231
186 207 231
186 207 231
186 207 231
186 207 231
186 207 231
186 207 231
186 208 231
186 208 231
186 208 231
186 208 231
186 208 231
186 208 231
186 208 231
186 208 231
186 208 231
186 208 231
186 208 231
186 208 231
186 208 231
186 208 231
187 208 231
187 208 231
187 208 231
187 208 231
187 208 231
187 208 231
187 208 231
187 208 231
187 208 231
187 208 231
187 208 231
187 208 231
187 208 231
187 208 231
187 208 231
187 208 231
187 208 231
187 208 231
187 208 231
187 208 231
187 208 231
187 208 231
187 208 231
187 208 231
187 208 231
187 208 231
187 208 231
187 208 231
187 208 231
187 208 231
187 208 231
187 208 231
187 208 231
187 208 231
187 208 231
187 208 231
187 208 231
187 208 231
187 208 231
187 208 231
187 208 231
187 208 231
187 208 231
187 208 231
187 208 231
187 208 231
187 208 231
187 208 231
187 208 231
187 208 231
187 208 231
187 208 231
187 208 231
187 208 231
187 208 231
187 208 231
187 208 231
187 208 231
187 208 231
187 208 231
187 208 231
187 208 231
187 208 231
187 208 231
187 208 231
187 208 231
187 208 231
187 208 231
187 208 231
187 208 231
187 208 231
187 208 231
187 208 231
187 208 231
187 208 231
187 208 231
187 208 231
187 208 231
187 208 231
187 208 231
187 208 231
187 208 231
187 208 231
187 208 231
187 208 231
187 208 231
187 208 231
187 208 231
187 208 231
187 208 231
187 208 231
187 208 231
187 208 231
187 208 231
187 208 231
187 208 231
187 208 231
187 208 231
187 208 231
187 208 231
187 208 231
187 208 231
187 208 231
187 208 231
187 208 231
187 208 231
187 208 231
187 208 231
187 208 231
187 208 231
187 208 231
187 208 231
187 208 231
187 208 231
187 208 231
187 208 231
187 208 231
187 208 231
187 208 231
187 208 231
187 208 231
187 208 231
187 208 231
187 208 231
187 208 231
187 208 231
187 208 231
187 208 231
187 208 231
187 208 231
187 208 231
187 208 231
187 208 231
187 208 231
187 208 231
187 208 231
187 208 231
187 208 231
187 208 231
187 208 231
187 208 231
187 208 231
187 208 231
187 208 231
187 208 231
187 208 231
187 208 231
187 208 231
187 208 231
187 208 231
187 208 231
187 208 231
187 208 231
187 208 231
186 208 231
186 208 231
186 208 231
186 208 231
186 208 231
186 208 231
186 208 231
186 208 231
186 208 231
186 208 231
186 208 231
186 208 231
186 208 231
186 208 231
186 207 231
186 207 231
186 207 231
186 207 231
186 207 231
186 207 231
186 207 231
186 207 231
186 207 230
186 207 230
186 207 230
186 207 230
186 207 230
186 207 230
186 207 230
186 207 230
186 207 230
186 207 230
186 207 230
186 207 230
186 207 230
186 207 230
186 207 230
186 207 230
186 207 230
186 207 231
186 207 231
186 207 231
186 207 231
186 207 231
186 207 231
186 207 231
186 207 231
186 207 231
186 208 231
186 208 231
186 208 231
186 208 231
186 208 231
186 208 231
186 208 231
186 208 231
186 208 231
186 208 231
186 208 231
186 208 231
186 208 231
186 208 231
186 208 231
186 208 231
186 208 231
187 208 231
187 208 231
187 208 231
187 208 231
187 208 231
187 208 231
187 208 231
187 208 231
187 208 231
187 208 231
187 208 231
187 208 231
187 208 231
187 208 231
187 208 231
187 208 231
187 208 231
187 208 231
187 208 231
187 208 231
187 208 231
187 208 231
187 208 231
187 208 231
187 208 231
187 208 231
187 208 231
187 208 231
187 208 231
187 208 231
187 208 231
187 208 231
187 208 231
187 208 231
187 208 231
187 208 231
187 208 231
187 208 231
187 208 231
187 208 231
187 208 231
187 208 231
187 208 231
187 208 231
187 208 231
187 208 231
187 208 231
187 208 231
187 208 231
187 208 231
187 208 231
187 208 231
187 208 231
187 208 231
187 208 231
187 208 231
187 208 231
187 208 231
187 208 231
187 208 231
187 208 231
187 208 231
187 208 231
187 208 231
187 208 231
187 208 231
187 208 231
187 208 231
187 208 231
187 208 231
187 208 231
187 208 231
187 208 231
187 208 231
187 208 231
187 208 231
187 208 231
187 208 231
187 208 231
187 208 231
187 208 231
187 208 231
187 208 231
187 208 231
187 208 231
187 208 231
187 208 231
187 208 231
187 208 231
187 208 231
187 208 231
187 208 231
187 208 231
187 208 231
187 208 231
187 208 231
187 208 231
187 208 231
187 208 231
187 208 231
187 208 231
187 208 231
187 208 231
187 208 231
187 208 231
187 208 231
187 208 231
187 208 231
187 208 231
187 208 231
187 208 231
187 208 231
187 208 231
187 208 231
187 208 231
187 208 231
186 208 231
186 208 231
186 208 231
186 208 231
186 208 231
186 208 231
186 208 231
186 208 231
186 208 231
186 208 231
186 208 231
186 208 231
186 208 231
186 208 231
186 208 231
186 208 231
186 208 231
186 207 231
186 207 231
186 207 231
186 207 231
186 207 231
186 207 231
186 207 231
186 207 231
186 207 231
186 207 230
186 207 230
186 207 230
186 207 230
186 207 230
186 207 230
186 207 230
186 207 230
186 207 230
186 207 230
186 207 230
186 207 230
186 207 230
186 207 230
186 207 230
186 207 230
186 207 230
186 207 230
186 207 230
186 207 230
186 207 230
186 207 230
186 207 230
186 207 230
186 207 230
186 207 230
186 207 230
186 207 230
186 207 230
186 207 230
186 207 230
186 207 230
186 207 230
186 207 230
186 207 230
186 207 230
186 207 230
186 207 230
186 207 230
186 207 230
186 207 230
186 207 230
186 207 230
186 207 230
186 207 230
186 207 230
186 207 230
186 207 230
186 207 230
186 207 230
186 207 231
186 207 231
186 207 231
186 207 231
186 207 231
186 207 231
186 207 231
186 207 231
186 207 231
186 207 231
186 207 231
186 208 231
186 208 231
186 208 231
186 208 231
186 208 231
186 208 231
186 208 231
186 208 231
186 208 231
186 208 231
186 208 231
186 208 231
186 208 231
186 208 231
186 208 231
186 208 231
186 208 231
186 208 231
186 208 231
186 208 231
186 208 231
186 208 231
186 208 231
187 208 231
187 208 231
187 208 231
187 208 231
187 208 231
187 208 231
187 208 231
187 208 231
187 208 231
187 208 231
187 208 231
187 208 231
187 208 231
187 208 231
187 208 231
187 208 231
187 208 231
187 208 231
187 208 231
187 208 231
187 208 231
187 208 231
187 208 231
187 208 231
187 208 231
187 208 231
187 208 231
187 208 231
187 208 231
187 208 231
187 208 231
187 208 231
187 208 231
187 208 231
187 208 231
187 208 231
187 208 231
187 208 231
187 208 231
187 208 231
187 208 231
187 208 231
187 208 231
187 208 231
187 208 231
187 208 231
187 208 231
187 208 231
187 208 231
187 208 231
187 208 231
187 208 231
187 208 231
187 208 231
187 208 231
187 208 231
187 208 231
187 208 231
187 208 231
187 208 231
187 208 231
187 208 231
187 208 231
187 208 231
186 208 231
186 208 231
186 208 231
186 208 231
186 208 231
186 208 231
186 208 231
186 208 231
186 208 231
186 208 231
186 208 231
186 208 231
186 208 231
186 208 231
186 208 231
186 208 231
186 208 231
186 208 231
186 208 231
186 208 231
186 208 231
186 208 231
186 208 231
186 207 231
186 207 231
186 207 231
186 207 231
186 207 231
186 207 231
186 207 231
186 207 231
186 207 231
186 207 231
186 207 231
186 207 230
186 207 230
186 207 230
186 207 230
186 207 230
186 207 230
186 207 230
186 207 230
186 207 230
186 207 230
186 207 230
186 207 230
186 207 230
186 207 230
186 207 230
186 207 230
186 207 230
186 207 230
186 207 230
186 207 230
186 207 230
186 207 230
186 207 230
186 207 230
186 207 230
186 207 230
186 207 230
186 207 230
186 207 230
186 207 230
186 207 230
186 207 230
186 207 230
186 207 230
186 207 230
186 207 230
186 207 230
186 207 230
186 207 230
186 207 230
186 207 230
186 207 230
186 207 230
186 207 230
186 207 230
186 207 230
186 207 230
186 207 230
186 207 230
186 207 230
186 207 230
186 207 230
186 207 230
186 207 230
186 207 230
186 207 230
186 207 230
186 207 230
186 207 230
186 207 230
186 207 230
186 207 230
186 207 230
186 207 230
186 207 230
186 207 230
186 207 230
186 207 230
186 207 230
186 207 230
186 207 230
186 207 230
186 207 230
186 207 230
186 207 230
186 207 230
186 207 230
186 207 230
186 207 230
186 207 230
186 207 230
186 207 230
186 207 230
186 207 230
186 207 230
186 207 230
186 207 230
186 207 230
186 207 230
186 207 230
186 207 230
186 207 230
186 207 231
186 207 231
186 207 231
186 207 231
186 207 231
186 207 231
186 207 231
186 207 231
186 207 231
186 207 231
186 207 231
186 207 231
186 207 231
186 207 231
186 207 231
186 207 231
186 207 231
186 208 231
186 208 231
186 208 231
186 208 231
186 208 231
186 208 231
186 208 231
186 208 231
186 208 231
186 208 231
186 208 231
186 208 231
186 208 231
186 208 231
186 208 231
186 208 231
186 208 231
186 208 231
186 208 231
186 208 231
186 208 231
186 208 231
186 208 231
186 208 231
186 208 231
186 208 231
186 208 231
186 208 231
186 208 231
186 208 231
186 208 231
186 208 231
186 208 231
186 208 231
186 208 231
186 208 231
186 208 231
186 208 231
186 208 231
186 208 231
186 208 231
186 208 231
186 208 231
186 208 231
186 208 231
186 208 231
186 208 231
186 208 231
186 208 231
186 208 231
186 207 231
186 207 231
186 207 231
186 207 231
186 207 231
186 207 231
186 207 231
186 207 231
186 207 231
186 207 231
186 207 231
186 207 231
186 207 231
186 207 231
186 207 231
186 207 231
186 207 231
186 207 230
186 207 230
186 207 230
186 207 230
186 207 230
186 207 230
186 207 230
186 207 230
186 207 230
186 207 230
186 207 230
186 207 230
186 207 230
186 207 230
186 207 230
186 207 230
186 207 230
186 207 230
186 207 230
186 207 230
186 207 230
186 207 230
186 207 230
186 207 230
186 207 230
186 207 230
186 207 230
186 207 230
186 207 230
186 207 230
186 207 230
186 207 230
186 207 230
186 207 230
186 207 230
186 207 230
186 207 230
186 207 230
186 207 230
186 207 230
186 207 230
186 207 230
186 207 230
186 207 230
186 207 230
186 207 230
186 207 230
186 207 230
186 207 230
186 207 230
186 207 230
186 207 230
186 207 230
186 207 230
186 207 230
186 207 230
186 207 230
186 207 230
185 207 230
185 207 230
185 207 230
185 207 230
185 207 230
185 207 230
185 207 230
186 207 230
186 207 230
186 207 230
186 207 230
186 207 230
186 207 230
186 207 230
186 207 230
186 207 230
186 207 230
186 207 230
186 207 230
186 207 230
186 207 230
186 207 230
186 207 230
186 207 230
186 207 230
186 207 230
186 207 230
186 207 230
186 207 230
186 207 230
186 207 230
186 207 230
186 207 230
186 207 230
186 207 230
186 207 230
186 207 230
186 207 230
186 207 230
186 207 230
186 207 230
186 207 230
186 207 230
186 207 230
186 207 230
186 207 230
186 207 230
186 207 230
186 207 230
186 207 230
186 207 230
186 207 230
186 207 230
186 207 230
186 207 230
186 207 230
186 207 230
186 207 230
186 207 230
186 207 230
186 207 230
186 207 230
186 207 230
186 207 230
186 207 230
186 207 230
186 207 230
186 207 230
186 207 230
186 207 230
186 207 230
186 207 230
186 207 230
186 207 230
186 207 230
186 207 230
186 207 230
186 207 230
186 207 230
186 207 230
186 207 230
186 207 230
186 207 230
186 207 230
186 207 230
186 207 230
186 207 230
186 207 230
186 207 230
186 207 230
186 207 230
186 207 230
186 207 230
186 207 230
186 207 230
186 207 230
186 207 230
186 207 230
186 207 230
186 207 230
186 207 230
186 207 230
186 207 230
186 207 230
186 207 230
186 207 230
186 207 230
186 207 230
186 207 230
186 207 230
186 207 230
186 207 230
186 207 230
186 207 230
186 207 230
186 207 230
186 207 230
186 207 230
186 207 230
186 207 230
186 207 230
186 207 230
186 207 230
186 207 230
186 207 230
186 207 230
186 207 230
186 207 230
186 207 230
186 207 230
186 207 230
186 207 230
186 207 230
186 207 230
186 207 230
186 207 230
186 207 230
186 207 230
186 207 230
186 207 230
186 207 230
186 207 230
186 207 230
186 207 230
186 207 230
186 207 230
186 207 230
186 207 230
186 207 230
186 207 230
186 207 230
186 207 230
186 207 230
186 207 230
186 207 230
186 207 230
186 207 230
186 207 230
186 207 230
186 207 230
186 207 230
186 207 230
186 207 230
186 207 230
186 207 230
186 207 230
186 207 230
186 207 230
186 207 230
186 207 230
186 207 230
186 207 230
186 207 230
186 207 230
186 207 230
186 207 230
186 207 230
186 207 230
186 207 230
186 207 230
186 207 230
186 207 230
186 207 230
186 207 230
186 207 230
186 207 230
186 207 230
186 207 230
186 207 230
186 207 230
186 207 230
186 207 230
186 207 230
185 207 230
185 207 230
185 207 230
185 207 230
185 207 230
185 207 230
185 207 230
185 207 230
185 207 230
185 207 230
185 207 230
185 207 230
185 207 230
185 207 230
185 207 230
185 207 230
185 207 230
185 207 230
185 207 230
185 207 230
185 207 230
185 207 230
185 207 230
185 207 230
185 207 230
185 207 230
185 207 230
185 207 230
185 207 230
185 207 230
185 207 230
185 207 230
185 207 230
186 207 230
186 207 230
186 207 230
186 207 230
186 207 230
186 207 230
186 207 230
186 207 230
186 207 230
186 207 230
186 207 230
186 207 230
186 207 230
186 207 230
186 207 230
186 207 230
186 207 230
186 207 230
186 207 230
186 207 230
186 207 230
186 207 230
186 207 230
186 207 230
186 207 230
186 207 230
186 207 230
186 207 230
186 207 230
186 207 230
186 207 230
186 207 230
186 207 230
186 207 230
186 207 230
186 207 230
186 207 230
186 207 230
186 207 230
186 207 230
186 207 230
186 207 230
186 207 230
186 207 230
186 207 230
186 207 230
186 207 230
186 207 230
186 207 230
186 207 230
186 207 230
186 207 230
186 207 230
186 207 230
186 207 230
186 207 230
186 207 230
186 207 230
186 207 230
186 207 230
186 207 230
186 207 230
186 207 230
186 207 230
186 207 230
186 207 230
186 207 230
186 207 230
186 207 230
186 207 230
186 207 230
186 207 230
186 207 230
186 207 230
186 207 230
186 207 230
186 207 230
186 207 230
186 207 230
186 207 230
186 207 230
186 207 230
186 207 230
186 207 230
186 207 230
186 207 230
186 207 230
186 207 230
186 207 230
186 207 230
186 207 230
186 207 230
186 207 230
186 207 230
186 207 230
186 207 230
186 207 230
186 207 230
186 207 230
186 207 230
186 207 230
186 207 230
186 207 230
186 207 230
186 207 230
186 207 230
186 207 230
186 207 230
186 207 230
186 207 230
186 207 230
186 207 230
186 207 230
186 207 230
186 207 230
186 207 230
186 207 230
186 207 230
186 207 230
186 207 230
186 207 230
186 207 230
186 207 230
186 207 230
186 207 230
186 207 230
186 207 230
186 207 230
186 207 230
186 207 230
186 207 230
186 207 230
186 207 230
186 207 230
186 207 230
186 207 230
186 207 230
186 207 230
186 207 230
186 207 230
186 207 230
186 207 230
186 207 230
186 207 230
186 207 230
186 207 230
186 207 230
186 207 230
185 207 230
185 207 230
185 207 230
185 207 230
185 207 230
185 207 230
185 207 230
185 207 230
185 207 230
185 207 230
185 207 230
185 207 230
185 207 230
185 207 230
185 207 230
185 207 230
185 207 230
185 207 230
185 207 230
185 207 230
185 207 230
185 207 230
185 207 230
185 207 230
185 207 230
185 207 230
185 206 230
185 206 230
185 206 230
185 206 230
185 206 230
185 206 230
185 206 230
185 206 230
185 206 230
185 206 230
185 206 230
185 206 230
185 206 230
185 206 230
185 206 230
185 206 230
185 206 230
185 206 230
185 207 230
185 207 230
185 207 230
185 207 230
185 207 230
185 207 230
185 207 230
185 207 230
185 207 230
185 207 230
185 207 230
185 207 230
185 207 230
185 207 230
185 207 230
185 207 230
185 207 230
185 207 230
185 207 230
185 207 230
185 207 230
185 207 230
185 207 230
185 207 230
185 207 230
185 207 230
185 207 230
185 207 230
185 207 230
185 207 230
185 207 230
185 207 230
186 207 230
186 207 230
186 207 230
186 207 230
186 207 230
186 207 230
186 207 230
186 207 230
186 207 230
186 207 230
186 207 230
186 207 230
186 207 230
186 207 230
186 207 230
186 207 230
186 207 230
186 207 230
186 207 230
186 207 230
186 207 230
186 207 230
186 207 230
186 207 230
186 207 230
186 207 230
186 207 230
186 207 230
186 207 230
186 207 230
186 207 230
186 207 230
186 207 230
186 207 230
186 207 230
186 207 230
186 207 230
186 207 230
186 207 230
186 207 230
186 207 230
186 207 230
186 207 230
186 207 230
186 207 230
186 207 230
186 207 230
186 207 230
186 207 230
186 207 230
186 207 230
186 207 230
186 207 230
186 207 230
186 207 230
186 207 230
186 207 230
186 207 230
186 207 230
186 207 230
186 207 230
186 207 230
186 207 230
186 207 230
186 207 230
186 207 230
186 207 230
186 207 230
186 207 230
186 207 230
186 207 230
186 207 230
186 207 230
186 207 230
186 207 230
186 207 230
186 207 230
186 207 230
186 207 230
186 207 230
186 207 230
186 207 230
186 207 230
186 207 230
186 207 230
186 207 230
186 207 230
186 207 230
186 207 230
186 207 230
186 207 230
186 207 230
186 207 230
186 207 230
186 207 230
186 207 230
186 207 230
186 207 230
186 207 230
186 207 230
185 207 230
185 207 230
185 207 230
185 207 230
185 207 230
185 207 230
185 207 230
185 207 230
185 207 230
185 207 230
185 207 230
185 207 230
185 207 230
185 207 230
185 207 230
185 207 230
185 207 230
185 207 230
185 207 230
185 207 230
185 207 230
185 207 230
185 207 230
185 207 230
185 207 230
185 207 230
185 207 230
185 207 230
185 207 230
185 207 230
185 207 230
185 207 230
185 206 230
185 206 230
185 206 230
185 206 230
185 206 230
185 206 230
185 206 230
185 206 230
185 206 230
185 206 230
185 206 230
185 206 230
185 206 230
185 206 230
185 206 230
185 206 230
185 206 230
185 206 230
185 206 230
185 206 230
185 206 230
185 206 230
185 206 230
185 206 230
185 206 230
185 206 230
185 206 230
185 206 230
185 206 230
185 206 230
185 206 230
185 206 230
185 206 230
185 206 230
185 206 230
185 206 230
185 206 230
185 206 230
185 206 230
185 206 230
185 206 230
185 206 230
185 206 230
185 206 230
185 206 230
185 206 230
185 206 230
185 206 230
185 206 230
185 206 230
185 206 230
185 206 230
185 206 230
185 206 230
185 206 230
185 206 230
185 206 230
185 206 230
185 206 230
185 206 230
185 207 230
185 207 230
185 207 230
185 207 230
185 207 230
185 207 230
185 207 230
185 207 230
185 207 230
185 207 230
185 207 230
185 207 230
185 207 230
185 207 230
185 207 230
185 207 230
185 207 230
185 207 230
185 207 230
185 207 230
185 207 230
185 207 230
185 207 230
185 207 230
185 207 230
185 207 230
185 207 230
185 207 230
185 207 230
185 207 230
185 207 230
185 207 230
185 207 230
185 207 230
185 207 230
185 207 230
185 207 230
185 207 230
185 207 230
185 207 230
185 207 230
185 207 230
185 207 230
185 207 230
185 207 230
185 207 230
185 207 230
185 207 230
185 207 230
185 207 230
185 207 230
185 207 230
185 207 230
185 207 230
185 207 230
185 207 230
185 207 230
185 207 230
185 207 230
185 207 230
185 207 230
185 207 230
185 207 230
185 207 230
185 207 230
185 207 230
185 207 230
185 207 230
185 207 230
185 207 230
185 207 230
185 207 230
185 207 230
185 207 230
185 207 230
185 207 230
185 207 230
185 207 230
185 207 230
185 207 230
185 207 230
185 207 230
185 207 230
185 207 230
185 207 230
185 207 230
185 207 230
185 207 230
185 207 230
185 207 230
185 207 230
185 207 230
185 207 230
185 207 230
185 207 230
185 207 230
185 207 230
185 207 230
185 207 230
185 207 230
185 207 230
185 207 230
185 207 230
185 207 230
185 207 230
185 207 230
185 207 230
185 207 230
185 207 230
185 207 230
185 207 230
185 207 230
185 207 230
185 207 230
185 207 230
185 207 230
185 206 230
185 206 230
185 206 230
185 206 230
185 206 230
185 206 230
185 206 230
185 206 230
185 206 230
185 206 230
185 206 230
185 206 230
185 206 230
185 206 230
185 206 230
185 206 230
185 206 230
185 206 230
185 206 230
185 206 230
185 206 230
185 206 230
185 206 230
185 206 230
185 206 230
185 206 230
185 206 230
185 206 230
185 206 230
185 206 230
185 206 230
185 206 230
185 206 230
185 206 230
185 206 230
185 206 230
185 206 230
185 206 230
185 206 230
185 206 230
185 206 230
185 206 230
185 206 229
185 206 229
185 206 229
185 206 229
185 206 229
185 206 229
185 206 229
185 206 229
185 206 229
185 206 229
185 206 229
185 206 229
185 206 229
185 206 229
185 206 230
185 206 230
185 206 230
185 206 230
185 206 230
185 206 230
185 206 230
185 206 230
185 206 230
185 206 230
185 206 230
185 206 230
185 206 230
185 206 230
185 206 230
185 206 230
185 206 230
185 206 230
185 206 230
185 206 230
185 206 230
185 206 230
185 206 230
185 206 230
185 206 230
185 206 230
185 206 230
185 206 230
185 206 230
185 206 230
185 206 230
185 206 230
185 206 230
185 206 230
185 206 230
185 206 230
185 206 230
185 206 230
185 206 230
185 206 230
185 206 230
185 206 230
185 206 230
185 206 230
185 206 230
185 206 230
185 206 230
185 206 230
185 206 230
185 206 230
185 206 230
185 206 230
185 206 230
185 206 230
185 206 230
185 206 230
185 206 230
185 206 230
185 206 230
185 206 230
185 206 230
185 206 230
185 206 230
185 206 230
185 206 230
185 206 230
185 206 230
185 206 230
185 206 230
185 207 230
185 207 230
185 207 230
185 207 230
185 207 230
185 207 230
185 207 230
185 207 230
185 207 230
185 207 230
185 207 230
185 207 230
185 207 230
185 207 230
185 207 230
185 207 230
185 207 230
185 207 230
185 207 230
185 207 230
185 207 230
185 207 230
185 207 230
185 207 230
185 207 230
185 207 230
185 207 230
185 207 230
185 207 230
185 207 230
185 207 230
185 207 230
185 207 230
185 207 230
185 206 230
185 206 230
185 206 230
185 206 230
185 206 230
185 206 230
185 206 230
185 206 230
185 206 230
185 206 230
185 206 230
185 206 230
185 206 230
185 206 230
185 206 230
185 206 230
185 206 230
185 206 230
185 206 230
185 206 230
185 206 230
185 206 230
185 206 230
185 206 230
185 206 230
185 206 230
185 206 230
185 206 230
185 206 230
185 206 230
185 206 230
185 206 230
185 206 230
185 206 230
185 206 230
185 206 230
185 206 230
185 206 230
185 206 230
185 206 230
185 206 230
185 206 230
185 206 230
185 206 230
185 206 230
185 206 230
185 206 230
185 206 230
185 206 230
185 206 230
185 206 230
185 206 230
185 206 230
185 206 230
185 206 230
185 206 230
185 206 230
185 206 230
185 206 230
185 206 230
185 206 230
185 206 230
185 206 230
185 206 230
185 206 230
185 206 230
185 206 230
185 206 230
185 206 230
185 206 229
185 206 229
185 206 229
185 206 229
185 206 229
185 206 229
185 206 229
185 206 229
185 206 229
185 206 229
185 206 229
185 206 229
185 206 229
185 206 229
184 206 229
184 206 229
184 206 229
184 206 229
184 206 229
184 206 229
184 206 229
184 206 229
185 206 229
185 206 229
185 206 229
185 206 229
185 206 229
185 206 229
185 206 229
185 206 229
185 206 229
185 206 229
185 206 229
185 206 229
185 206 229
185 206 229
185 206 229
185 206 229
185 206 229
185 206 229
185 206 229
185 206 229
185 206 229
185 206 229
185 206 229
185 206 229
185 206 229
185 206 229
185 206 229
185 206 229
185 206 229
185 206 229
185 206 229
185 206 230
185 206 230
185 206 230
185 206 230
185 206 230
185 206 230
185 206 230
185 206 230
185 206 230
185 206 230
185 206 230
185 206 230
185 206 230
185 206 230
185 206 230
185 206 230
185 206 230
185 206 230
185 206 230
185 206 230
185 206 230
185 206 230
185 206 230
185 206 230
185 206 230
185 206 230
185 206 230
185 206 230
185 206 230
185 206 230
185 206 230
185 206 230
185 206 230
185 206 230
185 206 230
185 206 230
185 206 230
185 206 230
185 206 230
185 206 230
185 206 230
185 206 230
185 206 230
185 206 230
185 206 230
185 206 230
185 206 230
185 206 230
185 206 230
185 206 230
185 206 230
185 206 230
185 206 230
185 206 230
185 206 230
185 206 230
185 206 230
185 206 230
185 206 230
185 206 230
185 206 230
185 206 230
185 206 230
185 206 230
185 206 230
185 206 230
185 206 230
185 206 230
185 206 230
185 206 230
185 206 230
185 206 230
185 206 230
185 206 230
185 206 230
185 206 230
185 206 230
185 206 230
185 206 230
185 206 230
185 206 230
185 206 230
185 206 230
185 206 230
185 206 230
185 206 230
185 206 230
185 206 230
185 206 230
185 206 230
185 206 230
185 206 230
185 206 230
185 206 230
185 206 230
185 206 230
185 206 230
185 206 230
185 206 230
185 206 230
185 206 230
185 206 230
185 206 230
185 206 230
185 206 230
185 206 230
185 206 230
185 206 230
185 206 230
185 206 230
185 206 230
185 206 230
185 206 230
185 206 230
185 206 230
185 206 230
185 206 230
185 206 230
185 206 230
185 206 230
185 206 230
185 206 230
185 206 229
185 206 229
185 206 229
185 206 229
185 206 229
185 206 229
185 206 229
185 206 229
185 206 229
185 206 229
185 206 229
185 206 229
185 206 229
185 206 229
185 206 229
185 206 229
185 206 229
185 206 229
185 206 229
185 206 229
185 206 229
185 206 229
185 206 229
185 206 229
185 206 229
185 206 229
185 206 229
185 206 229
185 206 229
185 206 229
185 206 229
184 206 229
184 206 229
184 206 229
184 206 229
184 206 229
184 206 229
184 206 229
184 206 229
184 206 229
184 206 229
184 206 229
184 206 229
184 206 229
184 206 229
184 206 229
184 206 229
184 206 229
184 206 229
184 206 229
184 206 229
184 206 229
184 206 229
184 206 229
184 206 229
184 206 229
184 206 229
184 206 229
184 206 229
184 206 229
184 206 229
184 206 229
184 206 229
184 206 229
184 206 229
184 206 229
184 206 229
184 206 229
184 206 229
184 206 229
184 206 229
184 206 229
185 206 229
185 206 229
185 206 229
185 206 229
185 206 229
185 206 229
185 206 229
185 206 229
185 206 229
185 206 229
185 206 229
185 206 229
185 206 229
185 206 229
185 206 229
185 206 229
185 206 229
185 206 229
185 206 229
185 206 229
185 206 229
185 206 229
185 206 229
185 206 229
185 206 229
185 206 229
185 206 229
185 206 229
185 206 229
185 206 229
185 206 229
185 206 229
185 206 229
185 206 229
185 206 229
185 206 229
185 206 229
185 206 229
185 206 229
185 206 229
185 206 229
185 206 229
185 206 229
185 206 229
185 206 229
185 206 229
185 206 229
185 206 229
185 206 229
185 206 229
185 206 229
185 206 229
185 206 230
185 206 230
185 206 230
185 206 230
185 206 230
185 206 230
185 206 230
185 206 230
185 206 230
185 206 230
185 206 230
185 206 230
185 206 230
185 206 230
185 206 230
185 206 230
185 206 230
185 206 230
185 206 230
185 206 230
185 206 230
185 206 230
185 206 230
185 206 230
185 206 230
185 206 230
185 206 230
185 206 230
185 206 230
185 206 230
185 206 229
185 206 229
185 206 229
185 206 229
185 206 229
185 206 229
185 206 229
185 206 229
185 206 229
185 206 229
185 206 229
185 206 229
185 206 229
185 206 229
185 206 229
185 206 229
185 206 229
185 206 229
185 206 229
185 206 229
185 206 229
185 206 229
185 206 229
185 206 229
185 206 229
185 206 229
185 206 229
185 206 229
185 206 229
185 206 229
185 206 229
185 206 229
185 206 229
185 206 229
185 206 229
185 206 229
185 206 229
185 206 229
185 206 229
185 206 229
185 206 229
185 206 229
185 206 229
185 206 229
185 206 229
185 206 229
185 206 229
185 206 229
185 206 229
185 206 229
185 206 229
185 206 229
184 206 229
184 206 229
184 206 229
184 206 229
184 206 229
184 206 229
184 206 229
184 206 229
184 206 229
184 206 229
184 206 229
184 206 229
184 206 229
184 206 229
184 206 229
184 206 229
184 206 229
184 206 229
184 206 229
184 206 229
184 206 229
184 206 229
184 206 229
184 206 229
184 206 229
184 206 229
184 206 229
184 206 229
184 206 229
184 206 229
184 206 229
184 206 229
184 206 229
184 205 229
184 205 229
184 205 229
184 205 229
184 205 229
184 205 229
184 205 229
184 205 229
184 205 229
184 205 229
184 206 229
184 206 229
184 206 229
184 206 229
184 206 229
184 206 229
184 206 229
184 206 229
184 206 229
184 206 229
184 206 229
184 206 229
184 206 229
184 206 229
184 206 229
184 206 229
184 206 229
184 206 229
184 206 229
184 206 229
184 206 229
184 206 229
184 206 229
184 206 229
184 206 229
184 206 229
184 206 229
184 206 229
184 206 229
184 206 229
184 206 229
184 206 229
184 206 229
184 206 229
184 206 229
184 206 229
184 206 229
184 206 229
184 206 229
184 206 229
184 206 229
184 206 229
184 206 229
184 206 229
184 206 229
184 206 229
184 206 229
184 206 229
184 206 229
184 206 229
184 206 229
184 206 229
184 206 229
184 206 229
184 206 229
184 206 229
184 206 229
184 206 229
184 206 229
184 206 229
184 206 229
184 206 229
184 206 229
184 206 229
184 206 229
185 206 229
185 206 229
185 206 229
185 206 229
185 206 229
185 206 229
185 206 229
185 206 229
185 206 229
185 206 229
185 206 229
185 206 229
185 206 229
185 206 229
185 206 229
185 206 229
185 206 229
185 206 229
185 206 229
185 206 229
185 206 229
185 206 229
185 206 229
185 206 229
185 206 229
185 206 229
185 206 229
185 206 229
185 206 229
185 206 229
185 206 229
185 206 229
185 206 229
185 206 229
185 206 229
185 206 229
185 206 229
185 206 229
185 206 229
185 206 229
185 206 229
185 206 229
185 206 229
185 206 229
185 206 229
185 206 229
185 206 229
185 206 229
185 206 229
185 206 229
184 206 229
184 206 229
184 206 229
184 206 229
184 206 229
184 206 229
184 206 229
184 206 229
184 206 229
184 206 229
184 206 229
184 206 229
184 206 229
184 206 229
184 206 229
184 206 229
184 206 229
184 206 229
184 206 229
184 206 229
184 206 229
184 206 229
184 206 229
184 206 229
184 206 229
184 206 229
184 206 229
184 206 229
184 206 229
184 206 229
184 206 229
184 206 229
184 206 229
184 206 229
184 206 229
184 206 229
184 206 229
184 206 229
184 206 229
184 206 229
184 206 229
184 206 229
184 206 229
184 206 229
184 206 229
184 206 229
184 206 229
184 206 229
184 206 229
184 206 229
184 206 229
184 206 229
184 206 229
184 206 229
184 206 229
184 206 229
184 206 229
184 206 229
184 206 229
184 206 229
184 206 229
184 206 229
184 206 229
184 206 229
184 206 229
184 205 229
184 205 229
184 205 229
184 205 229
184 205 229
184 205 229
184 205 229
184 205 229
184 205 229
184 205 229
184 205 229
184 205 229
184 205 229
184 205 229
184 205 229
184 205 229
184 205 229
184 205 229
184 205 229
184 205 229
184 205 229
184 205 229
184 205 229
184 205 229
184 205 229
184 205 229
184 205 229
184 205 229
184 205 229
184 205 229
184 205 229
184 205 229
184 205 229
184 205 229
184 205 229
184 205 229
184 205 229
184 205 229
184 205 229
184 205 229
184 205 229
184 205 229
184 205 229
184 205 229
184 205 229
184 205 229
184 205 229
184 205 229
184 205 229
184 205 229
184 205 229
184 206 229
184 206 229
184 206 229
184 206 229
184 206 229
184 206 229
184 206 229
184 206 229
184 206 229
184 206 229
184 206 229
184 206 229
184 206 229
184 206 229
184 206 229
184 206 229
184 206 229
184 206 229
184 206 229
184 206 229
184 206 229
184 206 229
184 206 229
184 206 229
184 206 229
184 206 229
184 206 229
184 206 229
184 206 229
184 206 229
184 206 229
184 206 229
184 206 229
184 206 229
184 206 229
184 206 229
184 206 229
184 206 229
184 206 229
184 206 229
184 206 229
184 206 229
184 206 229
184 206 229
184 206 229
184 206 229
184 206 229
184 206 229
184 206 229
184 206 229
184 206 229
184 206 229
184 206 229
184 206 229
184 206 229
184 206 229
184 206 229
184 206 229
184 206 229
184 206 229
184 206 229
184 206 229
184 206 229
184 206 229
184 206 229
184 206 229
184 206 229
184 206 229
184 206 229
184 206 229
184 206 229
184 206 229
184 206 229
184 206 229
184 206 229
184 206 229
184 206 229
184 206 229
184 206 229
184 206 229
184 206 229
184 206 229
184 206 229
184 206 229
184 206 229
184 206 229
184 206 229
184 206 229
184 206 229
184 206 229
184 206 229
184 206 229
184 206 229
184 206 229
184 206 229
184 206 229
184 206 229
184 206 229
184 206 229
184 206 229
184 206 229
184 206 229
184 206 229
184 206 229
184 206 229
184 206 229
184 206 229
184 206 229
184 206 229
184 206 229
184 206 229
184 206 229
184 206 229
184 206 229
184 206 229
184 206 229
184 206 229
184 206 229
184 205 229
184 205 229
184 205 229
184 205 229
184 205 229
184 205 229
184 205 229
184 205 229
184 205 229
184 205 229
184 205 229
184 205 229
184 205 229
184 205 229
184 205 229
184 205 229
184 205 229
184 205 229
184 205 229
184 205 229
184 205 229
184 205 229
184 205 229
184 205 229
184 205 229
184 205 229
184 205 229
184 205 229
184 205 229
184 205 229
184 205 229
184 205 229
184 205 229
184 205 229
184 205 229
184 205 229
184 205 229
184 205 229
184 205 229
184 205 229
184 205 229
184 205 229
184 205 229
184 205 229
184 205 229
184 205 229
184 205 229
184 205 229
184 205 229
184 205 229
184 205 229
184 205 229
184 205 229
184 205 229
184 205 229
184 205 229
184 205 229
184 205 229
184 205 229
184 205 229
184 205 229
184 205 229
184 205 229
184 205 229
184 205 229
184 205 229
184 205 229
184 205 229
184 205 229
184 205 229
184 205 229
184 205 229
184 205 229
184 205 229
184 205 229
184 205 229
184 205 229
184 205 229
184 205 229
184 205 229
184 205 229
184 205 229
184 205 229
184 205 229
184 205 229
184 205 229
184 205 229
184 205 229
184 205 229
184 205 229
184 205 229
184 205 229
184 205 229
184 205 229
184 205 229
184 205 229
184 205 229
184 205 229
184 205 229
184 205 229
184 205 229
184 205 229
184 205 229
184 205 229
184 205 229
184 205 229
184 205 229
184 205 229
184 205 229
184 205 229
184 205 229
184 205 229
184 205 229
184 205 229
184 205 229
184 205 229
184 205 229
184 205 229
184 205 229
184 205 229
184 205 229
184 205 229
184 205 229
184 205 229
184 205 229
184 205 229
184 205 229
184 205 229
184 205 229
184 205 229
184 205 229
184 205 229
184 205 229
184 205 229
184 205 229
184 205 229
184 205 229
184 205 229
184 205 229
184 205 229
184 205 229
184 205 229
184 205 229
184 205 229
184 205 229
184 205 229
184 205 229
184 205 229
184 205 229
184 205 229
184 205 229
184 205 229
184 205 229
184 205 229
184 205 229
184 205 229
184 205 229
184 205 229
184 205 229
184 205 229
184 205 229
184 205 229
184 205 229
184 205 229
184 205 229
184 205 229
184 205 229
184 205 229
184 205 229
184 205 229
184 205 229
184 205 229
184 205 229
184 205 229
184 205 229
184 205 229
184 205 229
184 205 229
184 205 229
184 205 229
184 205 229
184 205 229
184 205 229
184 205 229
184 205 229
184 205 229
184 205 229
184 205 229
184 205 229
184 205 229
184 205 229
184 205 229
184 205 229
184 205 229
184 205 229
184 205 229
184 205 229
184 205 229
184 205 229
184 205 229
184 205 229
184 205 229
184 205 229
184 205 229
184 205 229
184 205 229
184 205 229
184 205 229
184 205 229
184 205 229
184 205 229
184 205 229
184 205 229
184 205 229
184 205 229
184 205 229
184 205 229
184 205 229
184 205 229
184 205 229
184 205 229
184 205 229
184 205 229
184 205 229
184 205 229
184 205 229
184 205 229
184 205 229
184 205 229
184 205 229
184 205 229
184 205 229
184 205 229
184 205 229
184 205 229
184 205 229
184 205 229
184 205 229
184 205 229
184 205 229
184 205 229
183 205 229
183 205 229
183 205 229
183 205 229
183 205 229
183 205 229
183 205 229
183 205 229
183 205 229
183 205 229
183 205 229
183 205 229
184 205 229
184 205 229
184 205 229
184 205 229
184 205 229
184 205 229
184 205 229
184 205 229
184 205 229
184 205 229
184 205 229
184 205 229
184 205 229
184 205 229
184 205 229
184 205 229
184 205 229
184 205 229
184 205 229
184 205 229
184 205 229
184 205 229
184 205 229
184 205 229
184 205 229
184 205 229
184 205 229
184 205 229
184 205 229
184 205 229
184 205 229
184 205 229
184 205 229
184 205 229
184 205 229
184 205 229
184 205 229
184 205 229
184 205 229
184 205 229
184 205 229
184 205 229
184 205 229
184 205 229
184 205 229
184 205 229
184 205 229
184 205 229
184 205 229
184 205 229
184 205 229
184 205 229
184 205 229
184 205 229
184 205 229
184 205 229
184 205 229
184 205 229
184 205 229
184 205 229
184 205 229
184 205 229
184 205 229
184 205 229
184 205 229
184 205 229
184 205 229
184 205 229
184 205 229
184 205 229
184 205 229
184 205 229
184 205 229
184 205 229
184 205 229
184 205 229
184 205 229
184 205 229
184 205 229
184 205 229
184 205 229
184 205 229
184 205 229
184 205 229
184 205 229
184 205 229
184 205 229
184 205 229
184 205 229
184 205 229
184 205 229
184 205 229
184 205 229
184 205 229
184 205 229
184 205 229
184 205 229
184 205 229
184 205 229
184 205 229
184 205 229
184 205 229
184 205 229
184 205 229
184 205 229
184 205 229
184 205 229
184 205 229
184 205 229
184 205 229
184 205 229
184 205 229
184 205 229
184 205 229
184 205 229
184 205 229
184 205 229
184 205 229
184 205 229
184 205 229
184 205 229
184 205 229
184 205 229
184 205 229
184 205 229
184 205 229
184 205 229
184 205 229
184 205 229
184 205 229
184 205 229
184 205 229
184 205 229
184 205 229
184 205 229
184 205 229
184 205 229
184 205 229
184 205 229
184 205 229
184 205 229
184 205 229
184 205 229
184 205 229
184 205 229
184 205 229
184 205 229
184 205 229
184 205 229
184 205 229
184 205 229
184 205 229
184 205 229
184 205 229
184 205 229
184 205 229
184 205 229
184 205 229
184 205 229
184 205 229
184 205 229
184 205 229
184 205 229
184 205 229
184 205 229
184 205 229
184 205 229
184 205 229
184 205 229
184 205 229
184 205 229
184 205 229
184 205 229
184 205 229
184 205 229
184 205 229
183 205 229
183 205 229
183 205 229
183 205 229
183 205 229
183 205 229
183 205 229
183 205 229
183 205 229
183 205 229
183 205 229
183 205 229
183 205 228
183 205 228
183 205 228
183 205 228
183 205 228
183 205 228
183 205 228
183 205 228
183 205 228
183 205 228
183 205 228
183 205 228
183 205 228
183 205 228
183 205 228
183 205 229
183 205 229
183 205 229
183 205 229
183 205 229
183 205 229
183 205 229
183 205 229
183 205 229
183 205 229
183 205 229
183 205 229
183 205 229
183 205 229
183 205 229
183 205 229
183 205 229
183 205 229
183 205 229
183 205 229
183 205 229
183 205 229
183 205 229
183 205 229
183 205 229
183 205 229
183 205 229
183 205 229
183 205 229
183 205 229
183 205 229
183 205 229
183 205 229
183 205 229
183 205 229
183 205 229
183 205 229
183 205 229
183 205 229
184 205 229
184 205 229
184 205 229
184 205 229
184 205 229
184 205 229
184 205 229
184 205 229
184 205 229
184 205 229
184 205 229
184 205 229
184 205 229
184 205 229
184 205 229
184 205 229
184 205 229
184 205 229
184 205 229
184 205 229
184 205 229
184 205 229
184 205 229
184 205 229
184 205 229
184 205 229
184 205 229
184 205 229
184 205 229
184 205 229
184 205 229
184 205 229
184 205 229
184 205 229
184 205 229
184 205 229
184 205 229
184 205 229
184 205 229
184 205 229
184 205 229
184 205 229
184 205 229
184 205 229
184 205 229
184 205 229
184 205 229
184 205 229
184 205 229
184 205 229
184 205 229
184 205 229
184 205 229
184 205 229
184 205 229
184 205 229
184 205 229
184 205 229
184 205 229
184 205 229
184 205 229
184 205 229
184 205 229
184 205 229
184 205 229
184 205 229
184 205 229
184 205 229
184 205 229
184 205 229
184 205 229
184 205 229
184 205 229
184 205 229
184 205 229
184 205 229
184 205 229
184 205 229
184 205 229
184 205 229
184 205 229
184 205 229
184 205 229
184 205 229
184 205 229
184 205 229
184 205 229
184 205 229
184 205 229
184 205 229
184 205 229
184 205 229
183 205 229
183 205 229
183 205 229
183 205 229
183 205 229
183 205 229
183 205 229
183 205 229
183 205 229
183 205 229
183 205 229
183 205 229
183 205 229
183 205 229
183 205 229
183 205 229
183 205 229
183 205 229
183 205 229
183 205 229
183 205 229
183 205 229
183 205 229
183 205 229
183 205 229
183 205 229
183 205 229
183 205 229
183 205 229
183 205 229
183 205 229
183 205 229
183 205 229
183 205 229
183 205 229
183 205 229
183 205 229
183 205 229
183 205 229
183 205 228
183 205 228
183 205 228
183 205 228
183 205 228
183 205 228
183 205 228
183 205 228
183 205 228
183 205 228
183 205 228
183 205 228
183 205 228
183 205 228
183 205 228
183 205 228
183 205 228
183 205 228
183 205 228
183 205 228
183 205 228
183 205 228
183 205 228
183 205 228
183 205 228
183 205 228
183 205 228
183 205 228
183 205 228
183 205 228
183 205 228
183 205 228
183 205 228
183 205 228
183 205 228
183 205 228
183 205 228
183 205 228
183 205 228
183 205 228
183 205 228
183 205 228
183 205 228
183 205 228
183 205 228
183 205 228
183 205 228
183 205 228
183 205 228
183 205 228
183 205 228
183 205 228
183 205 228
183 205 228
183 205 228
183 205 228
183 205 228
183 205 228
183 205 228
183 205 228
183 205 228
183 205 228
183 205 228
183 205 228
183 205 228
183 205 228
183 205 228
183 205 228
183 205 228
183 205 228
183 205 228
183 205 228
183 205 228
183 205 228
183 205 228
183 205 228
183 205 228
183 205 228
183 205 228
183 205 229
183 205 229
183 205 229
183 205 229
183 205 229
183 205 229
183 205 229
183 205 229
183 205 229
183 205 229
183 205 229
183 205 229
183 205 229
183 205 229
183 205 229
183 205 229
183 205 229
183 205 229
183 205 229
183 205 229
183 205 229
183 205 229
183 205 229
183 205 229
183 205 229
183 205 229
183 205 229
183 205 229
183 205 229
183 205 229
183 205 229
183 205 229
183 205 229
183 205 229
183 205 229
183 205 229
183 205 229
183 205 229
183 205 229
183 205 229
183 205 229
183 205 229
183 205 229
183 205 229
183 205 229
183 205 229
183 205 229
183 205 229
183 205 229
183 205 229
183 205 229
183 205 229
183 205 229
183 205 229
183 205 229
183 205 229
183 205 229
183 205 229
183 205 229
183 205 229
183 205 229
183 205 229
183 205 229
183 205 229
183 205 229
183 205 229
183 205 229
183 205 229
183 205 229
183 205 229
183 205 229
183 205 229
183 205 228
183 205 228
183 205 228
183 205 228
183 205 228
183 205 228
183 205 228
183 205 228
183 205 228
183 205 228
183 205 228
183 205 228
183 205 228
183 205 228
183 205 228
183 205 228
183 205 228
183 205 228
183 205 228
183 205 228
183 205 228
183 205 228
183 205 228
183 205 228
183 205 228
183 205 228
183 205 228
183 205 228
183 205 228
183 205 228
183 205 228
183 205 228
183 205 228
183 205 228
183 205 228
183 205 228
183 205 228
183 205 228
183 205 228
183 205 228
183 205 228
183 205 228
183 205 228
183 205 228
183 205 228
183 205 228
183 205 228
183 205 228
183 205 228
183 205 228
183 205 228
183 205 228
183 205 228
183 205 228
183 205 228
183 205 228
183 205 228
183 205 228
183 205 228
183 205 228
183 205 228
183 205 228
183 205 228
183 205 228
183 204 228
183 204 228
183 204 228
183 204 228
183 204 228
183 204 228
183 204 228
183 204 228
183 204 228
183 204 228
183 204 228
183 204 228
183 204 228
183 204 228
183 204 228
183 204 228
183 204 228
183 204 228
183 204 228
183 204 228
183 204 228
183 204 228
183 204 228
183 204 228
183 204 228
183 204 228
183 204 228
183 204 228
183 204 228
183 204 228
183 204 228
183 204 228
183 204 228
183 204 228
183 204 228
183 204 228
183 204 228
183 204 228
183 204 228
183 204 228
183 204 228
183 204 228
183 204 228
183 204 228
183 204 228
183 205 228
183 205 228
183 205 228
183 205 228
183 205 228
183 205 228
183 205 228
183 205 228
183 205 228
183 205 228
183 205 228
183 205 228
183 205 228
183 205 228
183 205 228
183 205 228
183 205 228
183 205 228
183 205 228
183 205 228
183 205 228
183 205 228
183 205 228
183 205 228
183 205 228
183 205 228
183 205 228
183 205 228
183 205 228
183 205 228
183 205 228
183 205 228
183 205 228
183 205 228
183 205 228
183 205 228
183 205 228
183 205 228
183 205 228
183 205 228
183 205 228
183 205 228
183 205 228
183 205 228
183 205 228
183 205 228
183 205 228
183 205 228
183 205 228
183 205 228
183 205 228
183 205 228
183 205 228
183 205 228
183 205 228
183 205 228
183 205 228
183 205 228
183 205 228
183 205 228
183 205 228
183 205 228
183 205 228
183 205 228
183 205 228
183 205 228
183 205 228
183 205 228
183 205 228
183 205 228
183 205 228
183 205 228
183 205 228
183 205 228
183 205 228
183 205 228
183 205 228
183 205 228
183 205 228
183 205 228
183 205 228
183 205 228
183 205 228
183 205 228
183 205 228
183 205 228
183 205 228
183 205 228
183 205 228
183 205 228
183 205 228
183 205 228
183 205 228
183 205 228
183 205 228
183 205 228
183 205 228
183 205 228
183 205 228
183 205 228
183 205 228
183 205 228
183 205 228
183 205 228
183 205 228
183 205 228
183 205 228
183 205 228
183 205 228
183 205 228
183 204 228
183 204 228
183 204 228
183 204 228
183 204 228
183 204 228
183 204 228
183 204 228
183 204 228
183 204 228
183 204 228
183 204 228
183 204 228
183 204 228
183 204 228
183 204 228
183 204 228
183 204 228
183 204 228
183 204 228
183 204 228
183 204 228
183 204 228
183 204 228
183 204 228
183 204 228
183 204 228
183 204 228
183 204 228
183 204 228
183 204 228
183 204 228
183 204 228
183 204 228
183 204 228
183 204 228
183 204 228
183 204 228
183 204 228
183 204 228
183 204 228
183 204 228
183 204 228
183 204 228
183 204 228
183 204 228
183 204 228
183 204 228
183 204 228
183 204 228
183 204 228
183 204 228
183 204 228
183 204 228
183 204 228
183 204 228
183 204 228
183 204 228
183 204 228
183 204 228
183 204 228
183 204 228
183 204 228
183 204 228
183 204 228
183 204 228
183 204 228
183 204 228
183 204 228
183 204 228
183 204 228
183 204 228
183 204 228
183 204 228
183 204 228
183 204 228
183 204 228
183 204 228
183 204 228
183 204 228
183 204 228
183 204 228
183 204 228
183 204 228
183 204 228
183 204 228
183 204 228
183 204 228
183 204 228
183 204 228
183 204 228
183 204 228
183 204 228
183 204 228
183 204 228
183 204 228
183 204 228
183 204 228
183 204 228
183 204 228
183 204 228
183 204 228
183 204 228
183 204 228
183 204 228
183 204 228
183 204 228
183 204 228
183 204 228
183 204 228
183 204 228
183 204 228
183 204 228
183 204 228
183 204 228
183 204 228
183 204 228
183 204 228
183 204 228
183 204 228
183 204 228
183 204 228
183 204 228
183 204 228
183 204 228
183 204 228
183 204 228
183 204 228
183 204 228
183 204 228
183 204 228
183 204 228
183 204 228
183 204 228
183 204 228
183 204 228
183 204 228
183 204 228
183 204 228
183 204 228
183 204 228
183 204 228
183 204 228
183 204 228
183 204 228
183 204 228
183 204 228
183 204 228
183 204 228
183 204 228
183 204 228
183 204 228
183 204 228
183 204 228
183 204 228
183 204 228
183 204 228
183 204 228
183 204 228
183 204 228
183 204 228
183 204 228
183 204 228
183 204 228
183 204 228
183 204 228
183 204 228
183 204 228
183 204 228
183 204 228
183 204 228
183 204 228
183 204 228
183 204 228
183 204 228
183 204 228
183 204 228
183 204 228
183 204 228
183 204 228
183 204 228
183 204 228
183 204 228
183 204 228
183 204 228
183 204 228
183 204 228
183 204 228
183 204 228
183 204 228
183 204 228
183 204 228
183 204 228
183 204 228
183 204 228
183 204 228
183 204 228
183 204 228
183 204 228
183 204 228
183 204 228
183 204 228
183 204 228
183 204 228
183 204 228
183 204 228
183 204 228
183 204 228
183 204 228
183 204 228
183 204 228
183 204 228
183 204 228
183 204 228
183 204 228
183 204 228
183 204 228
183 204 228
183 204 228
183 204 228
183 204 228
183 204 228
183 204 228
183 204 228
183 204 228
183 204 228
183 204 228
183 204 228
183 204 228
183 204 228
183 204 228
183 204 228
183 204 228
183 204 228
183 204 228
183 204 228
183 204 228
183 204 228
183 204 228
183 204 228
183 204 228
183 204 228
183 204 228
183 204 228
183 204 228
182 204 228
182 204 228
182 204 228
182 204 228
182 204 228
182 204 228
182 204 228
182 204 228
182 204 228
182 204 228
182 204 228
182 204 228
182 204 228
182 204 228
182 204 228
182 204 228
182 204 228
182 204 228
182 204 228
182 204 228
182 204 228
182 204 228
182 204 228
182 204 228
182 204 228
182 204 228
182 204 228
182 204 228
183 204 228
183 204 228
183 204 228
183 204 228
183 204 228
183 204 228
183 204 228
183 204 228
183 204 228
183 204 228
183 204 228
183 204 228
183 204 228
183 204 228
183 204 228
183 204 228
183 204 228
183 204 228
183 204 228
183 204 228
183 204 228
183 204 228
183 204 228
183 204 228
183 204 228
183 204 228
183 204 228
183 204 228
183 204 228
183 204 228
183 204 228
183 204 228
183 204 228
183 204 228
183 204 228
183 204 228
183 204 228
183 204 228
183 204 228
183 204 228
183 204 228
183 204 228
183 204 228
183 204 228
183 204 228
183 204 228
183 204 228
183 204 228
183 204 228
183 204 228
183 204 228
183 204 228
183 204 228
183 204 228
183 204 228
183 204 228
183 204 228
183 204 228
183 204 228
183 204 228
183 204 228
183 204 228
183 204 228
183 204 228
183 204 228
183 204 228
183 204 228
183 204 228
183 204 228
183 204 228
183 204 228
183 204 228
183 204 228
183 204 228
183 204 228
183 204 228
183 204 228
183 204 228
183 204 228
183 204 228
183 204 228
183 204 228
183 204 228
183 204 228
183 204 228
183 204 228
183 204 228
183 204 228
183 204 228
183 204 228
183 204 228
183 204 228
183 204 228
183 204 228
183 204 228
183 204 228
183 204 228
183 204 228
183 204 228
183 204 228
183 204 228
183 204 228
183 204 228
183 204 228
183 204 228
183 204 228
183 204 228
183 204 228
183 204 228
183 204 228
183 204 228
183 204 228
183 204 228
183 204 228
183 204 228
183 204 228
183 204 228
183 204 228
183 204 228
183 204 228
183 204 228
183 204 228
183 204 228
183 204 228
183 204 228
183 204 228
183 204 228
183 204 228
183 204 228
183 204 228
183 204 228
183 204 228
183 204 228
183 204 228
183 204 228
183 204 228
183 204 228
183 204 228
183 204 228
183 204 228
183 204 228
183 204 228
183 204 228
183 204 228
182 204 228
182 204 228
182 204 228
182 204 228
182 204 228
182 204 228
182 204 228
182 204 228
182 204 228
182 204 228
182 204 228
182 204 228
182 204 228
182 204 228
182 204 228
182 204 228
182 204 228
182 204 228
182 204 228
182 204 228
182 204 228
182 204 228
182 204 228
182 204 228
182 204 228
182 204 228
182 204 228
182 204 228
182 204 228
182 204 228
182 204 228
182 204 228
182 204 228
182 204 228
182 204 228
182 204 228
182 204 228
182 204 228
182 204 228
182 204 228
182 204 228
182 204 228
182 204 228
182 204 228
182 204 228
182 204 228
182 204 228
182 204 228
182 204 228
182 204 228
182 204 228
182 204 228
182 204 228
182 204 228
182 204 228
182 204 228
182 204 228
182 204 228
182 204 228
182 204 228
182 204 228
182 204 228
182 204 228
182 204 228
182 204 228
182 204 228
182 204 228
182 204 228
182 204 228
182 204 228
182 204 228
182 204 228
182 204 228
182 204 228
182 204 228
182 204 228
182 204 228
182 204 228
182 204 228
182 204 228
182 204 228
182 204 228
182 204 228
182 204 228
182 204 228
182 204 228
182 204 228
182 204 228
182 204 228
182 204 228
182 204 228
182 204 228
182 204 228
182 204 228
182 204 228
182 204 228
182 204 228
182 204 228
182 204 228
182 204 228
182 204 228
182 204 228
182 204 228
182 204 228
182 204 228
182 204 228
182 204 228
182 204 228
182 204 228
182 204 228
182 204 228
182 204 228
182 204 228
182 204 228
182 204 228
182 204 228
182 204 228
182 204 228
182 204 228
182 204 228
182 204 228
182 204 228
182 204 228
182 204 228
182 204 228
182 204 228
182 204 228
182 204 228
182 204 228
182 204 228
182 204 228
182 204 228
182 204 228
182 204 228
182 204 228
182 204 228
182 204 228
182 204 228
182 204 228
182 204 228
182 204 228
182 204 228
182 204 228
182 204 228
182 204 228
182 204 228
182 204 228
182 204 228
182 204 228
182 204 228
182 204 228
182 204 228
182 204 228
182 204 228
182 204 228
182 204 228
182 204 228
182 204 228
182 204 228
182 204 228
182 204 228
182 204 228
182 204 228
182 204 228
182 204 228
182 204 228
182 204 228
182 204 228
182 204 228
182 204 228
182 204 228
182 204 228
182 204 228
182 204 228
182 204 228
182 204 228
182 204 228
182 204 228
182 204 228
182 204 228
182 204 228
182 204 228
182 204 228
182 204 228
182 204 228
182 204 228
182 204 228
182 204 228
182 204 228
182 204 228
182 204 228
182 204 228
182 204 228
182 204 228
182 204 228
182 204 228
182 204 228
182 204 228
182 204 228
182 204 228
182 204 228
182 204 228
182 204 228
182 204 228
182 204 228
182 204 228
182 204 228
182 204 228
182 204 228
182 204 228
182 204 228
182 204 228
182 204 228
182 204 228
182 204 228
182 204 228
182 204 228
182 204 228
182 204 228
182 204 228
182 204 228
182 204 228
182 204 228
182 204 228
182 204 228
182 204 228
182 204 228
182 204 228
182 204 228
182 204 228
182 204 228
182 204 228
182 204 228
182 204 228
182 204 228
182 204 228
182 204 228
182 204 228
182 204 228
182 204 228
182 204 228
182 204 228
182 204 228
182 204 228
182 204 228
182 204 228
182 204 228
182 204 228
182 204 228
182 204 228
182 204 228
182 204 228
182 204 228
182 204 228
182 204 228
182 204 228
182 204 228
182 204 228
182 204 228
182 204 228
182 204 228
182 204 228
182 204 228
182 204 228
182 204 228
182 204 228
182 204 228
182 204 228
182 204 228
182 204 228
182 204 228
182 204 228
182 204 228
182 204 228
182 204 228
182 204 228
182 204 228
182 204 228
182 204 228
182 204 228
182 204 228
182 204 228
182 204 228
182 204 228
182 204 228
182 204 228
182 204 228
182 204 228
182 204 228
182 204 228
182 204 228
182 204 228
182 204 228
182 204 228
182 204 228
182 204 228
182 204 228
182 204 228
182 204 228
182 204 228
182 204 228
182 204 228
182 204 228
182 204 228
182 204 228
182 204 228
182 204 228
182 204 228
182 204 228
182 204 228
182 204 228
182 204 228
182 204 228
182 204 228
182 204 228
182 204 228
182 204 228
182 204 228
182 204 228
182 204 228
182 204 228
182 204 228
182 204 228
182 204 228
182 204 228
182 204 228
182 204 228
182 204 228
182 204 228
182 204 228
182 204 228
182 204 228
182 204 228
182 204 228
182 204 228
182 204 228
182 204 228
182 204 228
182 204 228
182 204 228
182 204 228
182 204 228
182 204 228
182 204 228
182 204 228
182 204 228
182 204 228
182 204 228
182 204 228
182 204 228
182 204 228
182 204 228
182 204 228
182 204 228
182 204 228
182 204 228
182 204 228
182 204 228
182 204 228
182 204 228
182 204 228
182 204 228
182 204 228
182 204 228
182 204 228
182 204 228
182 204 228
182 204 228
182 204 228
182 204 228
182 204 228
182 204 228
182 204 228
182 204 228
182 204 228
182 204 228
182 204 228
182 204 228
182 204 228
182 204 228
182 204 228
182 204 228
182 204 228
182 204 228
182 204 228
182 204 228
182 204 228
182 204 228
182 204 228
182 204 228
182 204 228
182 204 228
182 204 228
182 204 228
182 204 228
182 204 228
182 204 228
182 204 228
182 204 228
182 204 228
182 204 228
182 204 228
182 204 228
182 204 228
182 204 228
182 204 228
182 204 228
182 204 228
182 204 228
182 204 228
182 204 228
182 204 228
182 204 228
182 204 228
182 204 228
182 204 228
182 204 228
182 204 228
182 204 228
182 204 228
182 204 228
182 204 228
182 204 228
182 204 228
182 204 228
182 204 228
182 204 228
182 204 228
182 203 227
182 203 227
182 203 227
182 203 227
182 203 227
182 203 227
182 203 227
182 203 227
182 203 227
182 203 227
182 203 227
182 203 227
182 203 227
182 203 227
182 203 227
182 203 227
182 203 227
182 203 227
182 203 227
182 203 227
182 203 227
182 203 227
182 203 227
182 203 227
182 203 227
182 203 227
182 203 227
182 203 227
182 203 227
182 203 227
182 203 227
182 203 227
182 203 227
182 203 227
182 203 227
182 203 227
182 203 227
182 203 227
182 203 227
182 203 228
182 203 228
182 203 228
182 203 228
182 203 228
182 203 228
182 203 228
182 203 228
182 203 228
182 203 228
182 203 228
182 203 228
182 203 228
182 203 228
182 203 228
182 203 228
182 203 228
182 203 228
182 203 228
182 203 228
182 203 228
182 203 228
182 203 228
182 203 228
182 203 228
182 203 228
182 203 228
182 203 228
182 203 228
182 203 228
182 203 228
182 203 228
182 203 228
182 203 228
182 203 228
182 203 228
182 203 228
182 203 228
182 203 228
182 203 228
182 203 228
182 203 228
182 203 228
182 203 228
182 203 228
182 203 228
182 203 228
182 203 228
182 203 228
182 203 228
182 203 228
182 204 228
182 204 228
182 204 228
182 204 228
182 204 228
182 204 228
182 204 228
182 204 228
182 204 228
182 204 228
182 204 228
182 204 228
182 204 228
182 204 228
182 204 228
182 204 228
182 204 228
182 204 228
182 204 228
182 204 228
182 203 228
182 203 228
182 203 228
182 203 228
182 203 228
182 203 228
182 203 228
182 203 228
182 203 228
182 203 228
182 203 228
182 203 228
182 203 228
182 203 228
182 203 228
182 203 228
182 203 228
182 203 228
182 203 228
182 203 228
182 203 228
182 203 228
182 203 228
182 203 228
182 203 228
182 203 228
182 203 228
182 203 228
182 203 228
182 203 228
182 203 228
182 203 228
182 203 228
182 203 228
182 203 228
182 203 228
182 203 228
182 203 228
182 203 228
182 203 228
182 203 228
182 203 228
182 203 228
182 203 228
182 203 228
182 203 228
182 203 228
182 203 228
182 203 228
182 203 228
182 203 228
182 203 227
182 203 227
182 203 227
182 203 227
182 203 227
182 203 227
182 203 227
182 203 227
182 203 227
182 203 227
182 203 227
182 203 227
182 203 227
182 203 227
182 203 227
182 203 227
182 203 227
182 203 227
182 203 227
182 203 227
182 203 227
182 203 227
182 203 227
182 203 227
182 203 227
182 203 227
182 203 227
182 203 227
182 203 227
182 203 227
182 203 227
182 203 227
182 203 227
182 203 227
182 203 227
182 203 227
182 203 227
182 203 227
182 203 227
182 203 227
182 203 227
182 203 227
182 203 227
182 203 227
182 203 227
182 203 227
182 203 227
182 203 227
182 203 227
182 203 227
182 203 227
182 203 227
182 203 227
182 203 227
182 203 227
182 203 227
182 203 227
182 203 227
182 203 227
182 203 227
182 203 227
182 203 227
182 203 227
182 203 227
182 203 227
182 203 227
182 203 227
182 203 227
182 203 227
182 203 227
182 203 227
182 203 227
182 203 227
182 203 227
182 203 227
182 203 227
182 203 227
182 203 227
182 203 227
182 203 227
182 203 227
182 203 227
182 203 227
182 203 227
182 203 227
182 203 227
182 203 227
182 203 227
182 203 227
182 203 227
182 203 227
182 203 227
182 203 227
182 203 227
182 203 227
182 203 227
182 203 227
182 203 227
182 203 227
182 203 227
182 203 227
182 203 227
182 203 227
182 203 227
182 203 227
182 203 227
182 203 227
182 203 227
182 203 227
182 203 227
182 203 227
182 203 227
182 203 227
182 203 227
182 203 227
182 203 227
182 203 227
182 203 227
182 203 227
182 203 227
182 203 227
182 203 227
182 203 227
182 203 227
182 203 227
182 203 227
182 203 227
182 203 227
182 203 227
182 203 227
182 203 227
182 203 227
182 203 227
182 203 227
182 203 227
182 203 227
182 203 227
182 203 227
182 203 227
182 203 227
182 203 227
182 203 227
182 203 227
182 203 227
182 203 227
182 203 227
182 203 227
182 203 227
182 203 227
182 203 227
182 203 227
182 203 227
182 203 227
182 203 227
182 203 227
182 203 227
182 203 227
182 203 227
182 203 227
182 203 227
182 203 227
182 203 227
182 203 227
182 203 227
182 203 227
182 203 227
182 203 227
182 203 227
182 203 227
182 203 227
182 203 227
182 203 227
182 203 227
182 203 227
182 203 227
182 203 227
182 203 227
182 203 227
182 203 227
182 203 227
182 203 227
182 203 227
182 203 227
182 203 227
182 203 227
182 203 227
182 203 227
182 203 227
182 203 227
182 203 227
182 203 227
182 203 227
182 203 227
182 203 227
182 203 227
182 203 227
182 203 227
182 203 227
182 203 227
182 203 227
182 203 227
182 203 227
182 203 227
182 203 227
182 203 227
182 203 227
182 203 227
182 203 227
182 203 227
182 203 227
182 203 227
182 203 227
182 203 227
182 203 227
182 203 227
182 203 227
182 203 227
182 203 227
182 203 227
182 203 227
182 203 227
182 203 227
182 203 227
182 203 227
182 203 227
182 203 227
182 203 227
182 203 227
182 203 227
182 203 227
182 203 227
182 203 227
182 203 227
182 203 227
182 203 227
182 203 227
182 203 227
182 203 227
182 203 227
181 203 227
181 203 227
181 203 227
181 203 227
181 203 227
181 203 227
181 203 227
181 203 227
181 203 227
181 203 227
181 203 227
181 203 227
181 203 227
181 203 227
181 203 227
181 203 227
181 203 227
181 203 227
181 203 227
181 203 227
181 203 227
181 203 227
181 203 227
181 203 227
181 203 227
181 203 227
181 203 227
181 203 227
181 203 227
181 203 227
181 203 227
181 203 227
181 203 227
181 203 227
181 203 227
181 203 227
181 203 227
181 203 227
181 203 227
181 203 227
181 203 227
181 203 227
181 203 227
181 203 227
181 203 227
181 203 227
181 203 227
181 203 227
181 203 227
181 203 227
181 203 227
181 203 227
181 203 227
181 203 227
181 203 227
181 203 227
181 203 227
181 203 227
181 203 227
181 203 227
181 203 227
181 203 227
181 203 227
181 203 227
181 203 227
181 203 227
181 203 227
181 203 227
181 203 227
181 203 227
181 203 227
181 203 227
181 203 227
181 203 227
181 203 227
181 203 227
181 203 227
181 203 227
181 203 227
181 203 227
181 203 227
181 203 227
181 203 227
181 203 227
181 203 227
181 203 227
181 203 227
181 203 227
181 203 227
181 203 227
181 203 227
181 203 227
181 203 227
181 203 227
181 203 227
181 203 227
181 203 227
181 203 227
181 203 227
181 203 227
181 203 227
181 203 227
181 203 227
181 203 227
181 203 227
181 203 227
181 203 227
181 203 227
181 203 227
181 203 227
181 203 227
181 203 227
181 203 227
181 203 227
181 203 227
181 203 227
181 203 227
181 203 227
181 203 227
181 203 227
181 203 227
181 203 227
181 203 227
181 203 227
181 203 227
181 203 227
181 203 227
181 203 227
181 203 227
181 203 227
181 203 227
181 203 227
181 203 227
181 203 227
181 203 227
181 203 227
181 203 227
181 203 227
181 203 227
181 203 227
181 203 227
181 203 227
181 203 227
181 203 227
181 203 227
181 203 227
181 203 227
181 203 227
181 203 227
181 203 227
181 203 227
181 203 227
181 203 227
181 203 227
181 203 227
181 203 227
181 203 227
181 203 227
181 203 227
181 203 227
181 203 227
181 203 227
181 203 227
181 203 227
181 203 227
181 203 227
181 203 227
181 203 227
181 203 227
181 203 227
181 203 227
181 203 227
181 203 227
181 203 227
181 203 227
181 203 227
181 203 227
181 203 227
181 203 227
181 203 227
181 203 227
181 203 227
181 203 227
181 203 227
181 203 227
181 203 227
181 203 227
181 203 227
181 203 227
181 203 227
181 203 227
181 203 227
181 203 227
181 203 227
181 203 227
181 203 227
181 203 227
181 203 227
181 203 227
181 203 227
181 203 227
181 203 227
181 203 227
181 203 227
181 203 227
181 203 227
181 203 227
181 203 227
181 203 227
181 203 227
181 203 227
181 203 227
181 203 227
181 203 227
181 203 227
181 203 227
181 203 227
181 203 227
181 203 227
181 203 227
181 203 227
181 203 227
181 203 227
181 203 227
181 203 227
181 203 227
181 203 227
181 203 227
181 203 227
181 203 227
181 203 227
181 203 227
181 203 227
181 203 227
181 203 227
181 203 227
181 203 227
181 203 227
181 203 227
181 203 227
181 203 227
181 203 227
181 203 227
181 203 227
181 203 227
181 203 227
181 203 227
181 203 227
181 203 227
181 203 227
181 203 227
181 203 227
181 203 227
181 203 227
181 203 227
181 203 227
181 203 227
181 203 227
181 203 227
181 203 227
181 203 227
181 203 227
181 203 227
181 203 227
181 203 227
181 203 227
181 203 227
181 203 227
181 203 227
181 203 227
181 203 227
181 203 227
181 203 227
181 203 227
181 203 227
181 203 227
181 203 227
181 203 227
181 203 227
181 203 227
181 203 227
181 203 227
181 203 227
181 203 227
181 203 227
181 203 227
181 203 227
181 203 227
181 203 227
181 203 227
181 203 227
181 203 227
181 203 227
181 203 227
181 203 227
181 203 227
181 203 227
181 203 227
181 203 227
181 203 227
181 203 227
181 203 227
181 203 227
181 203 227
181 203 227
181 203 227
181 203 227
181 203 227
181 203 227
181 203 227
181 203 227
181 203 227
181 203 227
181 203 227
181 203 227
181 203 227
181 203 227
181 203 227
181 203 227
181 203 227
181 203 227
181 203 227
181 203 227
181 203 227
181 203 227
181 203 227
181 203 227
181 203 227
181 203 227
181 203 227
181 203 227
181 203 227
181 203 227
181 203 227
181 203 227
181 203 227
181 203 227
181 203 227
181 203 227
181 203 227
181 203 227
181 203 227
181 203 227
181 203 227
181 203 227
181 203 227
181 203 227
181 203 227
181 203 227
181 203 227
181 203 227
181 203 227
181 203 227
181 203 227
181 203 227
181 203 227
181 203 227
181 203 227
181 203 227
181 203 227
181 203 227
181 203 227
181 203 227
181 203 227
181 203 227
181 203 227
181 203 227
181 203 227
181 203 227
181 203 227
181 203 227
181 203 227
181 203 227
181 203 227
181 203 227
181 203 227
181 203 227
181 203 227
181 203 227
181 203 227
181 203 227
181 203 227
181 203 227
181 203 227
181 203 227
181 203 227
181 203 227
181 203 227
181 203 227
181 203 227
181 203 227
181 203 227
181 203 227
181 203 227
181 203 227
181 203 227
181 203 227
181 203 227
181 203 227
181 203 227
24 27 31
24 27 31
24 27 31
24 27 31
24 27 31
24 27 31
24 27 31
24 27 31
24 27 31
24 27 31
24 27 31
24 27 31
24 27 31
24 27 31
24 27 31
24 27 31
24 27 31
24 27 31
24 27 31
24 27 31
24 27 31
24 27 31
24 27 31
24 27 31
24 27 31
24 27 31
25 27 31
25 27 31
25 27 31
25 27 31
25 27 31
25 27 31
25 27 31
25 27 31
25 27 31
25 27 31
25 27 31
25 27 31
25 27 31
25 27 31
25 27 31
25 27 31
25 27 31
25 27 31
25 27 31
25 27 31
25 27 31
25 27 31
25 27 31
25 27 31
25 27 31
25 27 31
25 27 31
25 27 31
25 27 31
25 27 31
25 27 31
25 27 31
25 27 31
25 27 31
25 27 31
25 27 31
25 27 31
25 27 31
25 27 31
25 27 31
25 27 31
25 27 31
25 27 31
25 27 31
25 27 31
25 27 31
25 27 31
25 27 31
25 27 31
25 27 31
25 27 31
25 27 31
25 27 31
25 27 31
25 27 31
25 27 31
25 27 31
25 27 31
25 27 31
25 27 31
25 27 31
25 27 31
25 27 31
25 27 31
25 27 31
25 27 31
25 27 31
25 27 31
25 27 31
25 27 31
25 27 31
25 27 31
25 27 31
25 27 31
25 27 31
25 27 31
25 27 31
25 27 31
25 27 31
25 27 31
25 27 31
25 27 31
25 27 31
25 27 31
25 27 31
25 27 31
25 27 31
25 27 31
25 27 31
25 27 31
25 27 31
25 27 31
25 27 31
25 27 31
25 27 31
25 27 31
25 27 31
25 27 31
25 27 31
25 27 31
25 27 31
25 27 31
25 27 31
25 27 31
25 27 31
25 27 31
25 27 31
25 27 31
25 27 31
25 27 31
25 27 31
25 27 31
25 27 31
25 27 31
25 27 31
25 27 31
25 27 31
25 27 31
25 27 31
25 27 31
25 27 31
25 27 31
25 27 31
25 27 31
25 27 31
25 27 31
25 27 31
25 27 31
25 27 31
25 27 31
25 27 31
25 27 31
25 27 31
25 27 31
25 27 31
25 27 31
25 27 31
25 27 31
25 27 31
25 27 31
25 27 31
25 27 31
25 27 31
25 27 31
25 27 31
25 27 31
25 27 31
25 27 31
24 27 31
24 27 31
24 27 31
24 27 31
24 27 31
24 27 31
24 27 31
24 27 31
24 27 31
24 27 31
24 27 31
24 27 31
24 27 31
24 27 31
24 27 31
24 27 31
24 27 31
24 27 31
24 27 31
24 27 31
24 27 31
24 27 31
24 27 31
24 27 31
24 27 31
24 27 31
26 29 33
26 29 33
26 29 33
26 29 33
26 29 33
26 29 33
26 29 33
26 29 33
26 29 33
26 29 33
26 29 33
26 29 33
26 29 33
26 29 33
26 29 33
26 29 33
26 29 33
26 29 33
26 29 33
26 29 33
26 29 33
26 29 33
26 29 33
26 29 33
26 29 33
26 29 33
26 29 33
26 29 33
26 29 33
26 29 33
26 29 33
26 29 33
26 29 33
26 29 33
26 29 33
26 29 33
26 29 33
26 29 33
26 29 33
26 29 33
26 29 33
26 29 33
26 29 33
26 29 33
26 29 33
26 29 33
26 29 33
26 29 33
26 29 33
26 29 33
26 29 33
26 29 33
26 29 33
26 29 33
26 29 33
26 29 33
26 29 33
26 29 33
26 29 33
26 29 33
26 29 33
26 29 33
26 29 33
26 29 33
26 29 33
26 29 33
26 29 33
26 29 33
26 29 33
26 29 33
26 29 33
26 29 33
26 29 33
26 29 33
26 29 33
26 29 33
26 29 33
26 29 33
26 29 33
26 29 33
26 29 33
26 29 33
26 29 33
26 29 33
26 29 33
26 29 33
26 29 33
26 29 33
26 29 33
26 29 33
26 29 33
26 29 33
26 29 33
26 29 33
26 29 33
26 29 33
26 29 33
26 29 33
26 29 33
26 29 33
26 29 33
26 29 33
26 29 33
26 29 33
26 29 33
26 29 33
26 29 33
26 29 33
26 29 33
26 29 33
26 29 33
26 29 33
26 29 33
26 29 33
26 29 33
26 29 33
26 29 33
26 29 33
26 29 33
26 29 33
26 29 33
26 29 33
26 29 33
26 29 33
26 29 33
26 29 33
26 29 33
26 29 33
26 29 33
26 29 33
26 29 33
26 29 33
26 29 33
26 29 33
26 29 33
26 29 33
26 29 33
26 29 33
26 29 33
26 29 33
26 29 33
26 29 33
26 29 33
26 29 33
26 29 33
26 29 33
26 29 33
26 29 33
26 29 33
26 29 33
26 29 33
26 29 33
26 29 33
26 29 33
26 29 33
26 29 33
26 29 33
26 29 33
26 29 33
26 29 33
26 29 33
26 29 33
26 29 33
26 29 33
26 29 33
26 29 33
26 29 33
26 29 33
26 29 33
26 29 33
26 29 33
26 29 33
26 29 33
26 29 33
26 29 33
26 29 33
26 29 33
26 29 33
26 29 33
26 29 33
26 29 33
26 29 33
26 29 33
26 29 33
26 29 33
26 29 33
26 29 33
26 29 33
26 29 33
26 29 33
26 29 33
26 29 33
26 29 33
26 29 33
26 29 33
26 29 33
26 29 33
26 29 33
26 29 33
26 29 33
27 30 34
27 30 34
27 30 34
27 30 34
27 30 34
27 30 35
27 30 35
27 30 35
27 30 35
27 30 35
27 30 35
27 30 35
27 30 35
27 30 35
27 30 35
27 30 35
27 30 35
27 30 35
27 30 35
27 30 35
27 30 35
27 30 35
27 30 35
27 30 35
27 30 35
27 30 35
27 30 35
27 30 35
27 30 35
27 30 35
27 30 35
27 30 35
27 30 35
27 30 35
27 30 35
27 30 35
27 30 35
27 30 35
27 30 35
27 30 35
27 30 35
28 30 35
28 31 35
28 31 35
28 31 35
28 31 35
28 31 35
28 31 35
28 31 35
28 31 35
28 31 35
28 31 35
28 31 35
28 31 35
28 31 35
28 31 35
28 31 35
28 31 35
28 31 35
28 31 35
28 31 35
28 31 35
28 31 35
28 31 35
28 31 35
28 31 35
28 31 35
28 31 35
28 31 35
28 31 35
28 31 35
28 31 35
28 31 35
28 31 35
28 31 35
28 31 35
28 31 35
28 31 35
28 31 35
28 31 35
28 31 35
28 31 35
28 31 35
28 31 35
28 31 35
28 31 35
28 31 35
28 31 35
28 31 35
28 31 35
28 31 35
28 31 35
28 31 35
28 31 35
28 31 35
28 31 35
28 31 35
28 31 35
28 31 35
28 31 35
28 31 35
28 31 35
28 31 35
28 31 35
28 31 35
28 31 35
28 31 35
28 31 35
28 31 35
28 31 35
28 31 35
28 31 35
28 31 35
28 31 35
28 31 35
28 31 35
28 31 35
28 31 35
28 31 35
28 31 35
28 31 35
28 31 35
28 31 35
28 31 35
28 31 35
28 31 35
28 31 35
28 31 35
28 31 35
28 31 35
28 31 35
28 31 35
28 31 35
28 31 35
28 31 35
28 31 35
28 31 35
28 31 35
28 31 35
28 31 35
28 31 35
28 31 35
28 31 35
28 31 35
28 31 35
28 31 35
28 31 35
28 31 35
28 31 35
28 31 35
28 31 35
28 31 35
28 31 35
28 31 35
28 31 35
28 31 35
28 31 35
28 30 35
27 30 35
27 30 35
27 30 35
27 30 35
27 30 35
27 30 35
27 30 35
27 30 35
27 30 35
27 30 35
27 30 35
27 30 35
27 30 35
27 30 35
27 30 35
27 30 35
27 30 35
27 30 35
27 30 35
27 30 35
27 30 35
27 30 35
27 30 35
27 30 35
27 30 35
27 30 35
27 30 35
27 30 35
27 30 35
27 30 35
27 30 35
27 30 35
27 30 35
27 30 35
27 30 35
27 30 35
27 30 34
27 30 34
27 30 34
27 30 34
27 30 34
27 30 34
29 32 36
29 32 36
29 32 36
29 32 36
29 32 36
29 32 36
29 32 36
29 32 36
29 32 36
29 32 36
29 32 36
29 32 36
29 32 36
29 32 36
29 32 36
29 32 36
29 32 36
29 32 36
29 32 36
29 32 36
29 32 36
29 32 36
29 32 36
29 32 36
29 32 36
29 32 37
29 32 37
29 32 37
29 32 37
29 32 37
29 32 37
29 32 37
29 32 37
29 32 37
29 32 37
29 32 37
29 32 37
29 32 37
29 32 37
29 32 37
29 32 37
29 32 37
29 32 37
29 32 37
29 32 37
29 32 37
29 32 37
29 32 37
29 32 37
29 32 37
29 32 37
29 32 37
29 32 37
29 32 37
29 32 37
29 32 37
29 32 37
29 32 37
29 32 37
29 32 37
29 32 37
29 32 37
29 32 37
29 32 37
29 32 37
29 32 37
29 32 37
29 32 37
29 32 37
29 32 37
29 32 37
29 32 37
29 32 37
29 32 37
29 32 37
29 32 37
29 32 37
29 32 37
29 32 37
29 32 37
29 32 37
29 32 37
29 32 37
29 32 37
29 32 37
29 32 37
29 33 37
29 33 37
29 33 37
29 33 37
29 33 37
29 33 37
29 33 37
29 33 37
29 33 37
29 33 37
29 33 37
29 33 37
29 33 37
29 33 37
29 33 37
29 33 37
29 33 37
29 33 37
29 33 37
29 33 37
29 33 37
29 33 37
29 33 37
29 33 37
29 33 37
29 33 37
29 33 37
29 32 37
29 32 37
29 32 37
29 32 37
29 32 37
29 32 37
29 32 37
29 32 37
29 32 37
29 32 37
29 32 37
29 32 37
29 32 37
29 32 37
29 32 37
29 32 37
29 32 37
29 32 37
29 32 37
29 32 37
29 32 37
29 32 37
29 32 37
29 32 37
29 32 37
29 32 37
29 32 37
29 32 37
29 32 37
29 32 37
29 32 37
29 32 37
29 32 37
29 32 37
29 32 37
29 32 37
29 32 37
29 32 37
29 32 37
29 32 37
29 32 37
29 32 37
29 32 37
29 32 37
29 32 37
29 32 37
29 32 37
29 32 37
29 32 37
29 32 37
29 32 37
29 32 37
29 32 37
29 32 37
29 32 37
29 32 37
29 32 37
29 32 37
29 32 37
29 32 37
29 32 36
29 32 36
29 32 36
29 32 36
29 32 36
29 32 36
29 32 36
29 32 36
29 32 36
29 32 36
29 32 36
29 32 36
29 32 36
29 32 36
29 32 36
29 32 36
29 32 36
29 32 36
29 32 36
29 32 36
29 32 36
29 32 36
29 32 36
29 32 36
29 32 36
28 32 36
28 32 36
30 33 38
30 33 38
30 33 38
30 33 38
30 33 38
30 33 38
30 33 38
30 33 38
30 33 38
30 33 38
30 33 38
30 33 38
30 33 38
30 33 38
30 33 38
30 33 38
30 33 38
30 33 38
30 33 38
30 33 38
30 33 38
30 33 38
30 33 38
30 33 38
30 34 38
30 34 38
30 34 38
30 34 38
30 34 38
30 34 38
30 34 38
30 34 38
30 34 38
30 34 38
30 34 38
30 34 38
31 34 39
31 34 39
31 34 39
31 34 39
31 34 39
31 34 39
31 34 39
31 34 39
31 34 39
31 34 39
31 34 39
31 34 39
31 34 39
31 34 39
31 34 39
31 34 39
31 34 39
31 34 39
31 34 39
31 34 39
31 34 39
31 34 39
31 34 39
31 34 39
31 34 39
31 34 39
31 34 39
31 34 39
31 34 39
31 34 39
31 34 39
31 34 39
31 34 39
31 34 39
31 34 39
31 34 39
31 34 39
31 34 39
31 34 39
31 34 39
31 34 39
31 34 39
31 34 39
31 34 39
31 34 39
31 34 39
31 34 39
31 34 39
31 34 39
31 34 39
31 34 39
31 34 39
31 34 39
31 34 39
31 34 39
31 34 39
31 34 39
31 34 39
31 34 39
31 34 39
31 34 39
31 34 39
31 34 39
31 34 39
31 34 39
31 34 39
31 34 39
31 34 39
31 34 39
31 34 39
31 34 39
31 34 39
31 34 39
31 34 39
31 34 39
31 34 39
31 34 39
31 34 39
31 34 39
31 34 39
31 34 39
31 34 39
31 34 39
31 34 39
31 34 39
31 34 39
31 34 39
31 34 39
31 34 39
31 34 39
31 34 39
31 34 39
31 34 39
31 34 39
31 34 39
31 34 39
31 34 39
31 34 39
31 34 39
31 34 39
31 34 39
31 34 39
31 34 39
31 34 39
31 34 39
31 34 39
31 34 39
31 34 39
31 34 39
31 34 39
31 34 39
31 34 39
31 34 39
31 34 39
31 34 39
31 34 39
31 34 39
31 34 39
31 34 39
31 34 39
31 34 39
31 34 39
31 34 39
31 34 39
31 34 39
31 34 39
30 34 39
30 34 38
30 34 38
30 34 38
30 34 38
30 34 38
30 34 38
30 34 38
30 34 38
30 34 38
30 34 38
30 34 38
30 34 38
30 33 38
30 33 38
30 33 38
30 33 38
30 33 38
30 33 38
30 33 38
30 33 38
30 33 38
30 33 38
30 33 38
30 33 38
30 33 38
30 33 38
30 33 38
30 33 38
30 33 38
30 33 38
30 33 38
30 33 38
30 33 38
30 33 38
30 33 38
30 33 38
30 33 38
31 35 39
31 35 39
31 35 40
31 35 40
31 35 40
31 35 40
31 35 40
31 35 40
31 35 40
31 35 40
32 35 40
32 35 40
32 35 40
32 35 40
32 35 40
32 35 40
32 35 40
32 35 40
32 35 40
32 35 40
32 35 40
32 35 40
32 35 40
32 35 40
32 35 40
32 35 40
32 35 40
32 35 40
32 35 40
32 35 40
32 35 40
32 35 40
32 35 40
32 35 40
32 35 40
32 35 40
32 35 40
32 35 40
32 35 40
32 35 40
32 35 40
32 35 41
32 36 41
32 36 41
32 36 41
32 36 41
32 36 41
32 36 41
32 36 41
32 36 41
32 36 41
32 36 41
32 36 41
32 36 41
32 36 41
32 36 41
32 36 41
32 36 41
32 36 41
32 36 41
32 36 41
32 36 41
32 36 41
32 36 41
33 36 41
33 36 41
33 36 41
33 36 41
33 36 41
33 36 41
33 36 41
33 36 41
33 36 41
33 36 41
33 36 41
33 36 41
33 36 41
33 36 41
33 36 41
33 36 41
33 36 41
33 36 41
33 36 41
33 36 41
33 36 41
33 36 41
33 36 41
33 36 41
33 36 41
33 36 41
33 36 41
33 36 41
33 36 41
33 36 41
33 36 41
33 36 41
33 36 41
33 36 41
33 36 41
33 36 41
33 36 41
33 36 41
33 36 41
33 36 41
33 36 41
33 36 41
33 36 41
33 36 41
33 36 41
33 36 41
33 36 41
33 36 41
33 36 41
33 36 41
33 36 41
33 36 41
33 36 41
33 36 41
33 36 41
33 36 41
33 36 41
33 36 41
33 36 41
33 36 41
33 36 41
33 36 41
33 36 41
33 36 41
33 36 41
33 36 41
33 36 41
33 36 41
33 36 41
33 36 41
32 36 41
32 36 41
32 36 41
32 36 41
32 36 41
32 36 41
32 36 41
32 36 41
32 36 41
32 36 41
32 36 41
32 36 41
32 36 41
32 36 41
32 36 41
32 36 41
32 36 41
32 36 41
32 36 41
32 36 41
32 36 41
32 36 41
32 35 41
32 35 40
32 35 40
32 35 40
32 35 40
32 35 40
32 35 40
32 35 40
32 35 40
32 35 40
32 35 40
32 35 40
32 35 40
32 35 40
32 35 40
32 35 40
32 35 40
32 35 40
32 35 40
32 35 40
32 35 40
32 35 40
32 35 40
32 35 40
32 35 40
32 35 40
32 35 40
32 35 40
32 35 40
32 35 40
32 35 40
32 35 40
31 35 40
31 35 40
31 35 40
31 35 40
31 35 40
31 35 40
31 35 40
31 35 40
31 35 39
31 35 39
31 35 39
31 35 39
33 36 41
33 36 41
33 36 41
33 36 41
33 36 41
33 36 41
33 36 41
33 36 41
33 36 41
33 36 41
33 36 42
33 36 42
33 36 42
33 36 42
33 36 42
33 37 42
33 37 42
33 37 42
33 37 42
33 37 42
33 37 42
33 37 42
33 37 42
33 37 42
33 37 42
33 37 42
33 37 42
33 37 42
33 37 42
33 37 42
33 37 42
34 37 42
34 37 42
34 37 42
34 37 42
34 37 42
34 37 42
34 37 42
34 37 42
34 37 42
34 37 42
34 37 42
34 37 42
34 37 42
34 37 43
34 37 43
34 37 43
34 37 43
34 37 43
34 37 43
34 37 43
34 37 43
34 37 43
34 37 43
34 37 43
34 38 43
34 38 43
34 38 43
34 38 43
34 38 43
34 38 43
34 38 43
34 38 43
34 38 43
34 38 43
34 38 43
34 38 43
34 38 43
34 38 43
34 38 43
34 38 43
34 38 43
34 38 43
34 38 43
34 38 43
34 38 43
34 38 43
34 38 43
34 38 43
34 38 43
34 38 43
34 38 43
34 38 43
34 38 43
34 38 43
34 38 43
34 38 43
34 38 43
34 38 43
34 38 43
34 38 43
34 38 43
34 38 43
34 38 43
34 38 43
34 38 43
34 38 43
34 38 43
34 38 43
34 38 43
34 38 43
34 38 43
34 38 43
34 38 43
34 38 43
34 38 43
34 38 43
34 38 43
34 38 43
34 38 43
34 38 43
34 38 43
34 38 43
34 38 43
34 38 43
34 38 43
34 38 43
34 38 43
34 38 43
34 38 43
34 38 43
34 38 43
34 38 43
34 38 43
34 38 43
34 38 43
34 38 43
34 38 43
34 38 43
34 38 43
34 38 43
34 38 43
34 38 43
34 38 43
34 38 43
34 38 43
34 38 43
34 38 43
34 38 43
34 38 43
34 38 43
34 38 43
34 38 43
34 37 43
34 37 43
34 37 43
34 37 43
34 37 43
34 37 43
34 37 43
34 37 43
34 37 43
34 37 43
34 37 42
34 37 42
34 37 42
34 37 42
34 37 42
34 37 42
34 37 42
34 37 42
34 37 42
34 37 42
34 37 42
34 37 42
34 37 42
34 37 42
33 37 42
33 37 42
33 37 42
33 37 42
33 37 42
33 37 42
33 37 42
33 37 42
33 37 42
33 37 42
33 37 42
33 37 42
33 37 42
33 37 42
33 37 42
33 37 42
33 36 42
33 36 42
33 36 42
33 36 42
33 36 41
33 36 41
33 36 41
33 36 41
33 36 41
33 36 41
33 36 41
33 36 41
33 36 41
33 36 41
33 36 41
33 36 41
33 36 41
34 38 43
34 38 43
34 38 43
34 38 43
34 38 43
34 38 43
34 38 43
34 38 43
34 38 43
34 38 43
34 38 43
34 38 43
35 38 43
35 38 43
35 38 43
35 38 43
35 38 44
35 38 44
35 38 44
35 38 44
35 38 44
35 38 44
35 38 44
35 38 44
35 38 44
35 38 44
35 39 44
35 39 44
35 39 44
35 39 44
35 39 44
35 39 44
35 39 44
35 39 44
35 39 44
35 39 44
35 39 44
35 39 44
35 39 44
35 39 44
35 39 44
35 39 44
35 39 44
35 39 44
35 39 44
35 39 45
35 39 45
36 39 45
36 39 45
36 39 45
36 39 45
36 39 45
36 39 45
36 39 45
36 39 45
36 39 45
36 39 45
36 39 45
36 39 45
36 39 45
36 39 45
36 39 45
36 39 45
36 39 45
36 39 45
36 40 45
36 40 45
36 40 45
36 40 45
36 40 45
36 40 45
36 40 45
36 40 45
36 40 45
36 40 45
36 40 45
36 40 45
36 40 45
36 40 45
36 40 45
36 40 45
36 40 45
36 40 45
36 40 45
36 40 45
36 40 45
36 40 45
36 40 45
36 40 45
36 40 45
36 40 45
36 40 45
36 40 45
36 40 45
36 40 45
36 40 45
36 40 45
36 40 45
36 40 45
36 40 45
36 40 45
36 40 45
36 40 45
36 40 45
36 40 45
36 40 45
36 40 45
36 40 45
36 40 45
36 40 45
36 40 45
36 40 45
36 40 45
36 40 45
36 40 45
36 40 45
36 40 45
36 40 45
36 40 45
36 40 45
36 40 45
36 40 45
36 40 45
36 40 45
36 40 45
36 40 45
36 40 45
36 40 45
36 40 45
36 40 45
36 40 45
36 40 45
36 39 45
36 39 45
36 39 45
36 39 45
36 39 45
36 39 45
36 39 45
36 39 45
36 39 45
36 39 45
36 39 45
36 39 45
36 39 45
36 39 45
36 39 45
36 39 45
36 39 45
36 39 45
35 39 45
35 39 45
35 39 44
35 39 44
35 39 44
35 39 44
35 39 44
35 39 44
35 39 44
35 39 44
35 39 44
35 39 44
35 39 44
35 39 44
35 39 44
35 39 44
35 39 44
35 39 44
35 39 44
35 39 44
35 39 44
35 38 44
35 38 44
35 38 44
35 38 44
35 38 44
35 38 44
35 38 44
35 38 44
35 38 44
35 38 44
35 38 43
35 38 43
35 38 43
35 38 43
34 38 43
34 38 43
34 38 43
34 38 43
34 38 43
34 38 43
34 38 43
34 38 43
34 38 43
34 38 43
34 38 43
34 38 43
34 38 43
34 38 43
34 38 43
36 39 45
36 39 45
36 39 45
36 39 45
36 39 45
36 39 45
36 39 45
36 39 45
36 40 45
36 40 45
36 40 45
36 40 45
36 40 45
36 40 45
36 40 45
36 40 45
36 40 45
36 40 45
36 40 45
36 40 45
36 40 46
36 40 46
36 40 46
36 40 46
36 40 46
36 40 46
37 40 46
37 40 46
37 40 46
37 40 46
37 40 46
37 40 46
37 40 46
37 40 46
37 40 46
37 41 46
37 41 46
37 41 46
37 41 46
37 41 46
37 41 46
37 41 46
37 41 46
37 41 46
37 41 46
37 41 46
37 41 47
37 41 47
37 41 47
37 41 47
37 41 47
37 41 47
37 41 47
37 41 47
37 41 47
37 41 47
37 41 47
37 41 47
37 41 47
37 41 47
37 41 47
38 41 47
38 41 47
38 41 47
38 41 47
38 41 47
38 41 47
38 41 47
38 41 47
38 41 47
38 41 47
38 41 47
38 41 47
38 42 47
38 42 47
38 42 47
38 42 47
38 42 47
38 42 47
38 42 47
38 42 47
38 42 47
38 42 47
38 42 47
38 42 47
38 42 47
38 42 47
38 42 47
38 42 47
38 42 47
38 42 47
38 42 47
38 42 47
38 42 47
38 42 47
38 42 47
38 42 47
38 42 47
38 42 47
38 42 47
38 42 47
38 42 47
38 42 47
38 42 47
38 42 47
38 42 47
38 42 47
38 42 47
38 42 47
38 42 47
38 42 47
38 42 47
38 42 47
38 42 47
38 42 47
38 42 47
38 42 47
38 42 47
38 42 47
38 42 47
38 42 47
38 42 47
38 42 47
38 42 47
38 41 47
38 41 47
38 41 47
38 41 47
38 41 47
38 41 47
38 41 47
38 41 47
38 41 47
38 41 47
38 41 47
38 41 47
37 41 47
37 41 47
37 41 47
37 41 47
37 41 47
37 41 47
37 41 47
37 41 47
37 41 47
37 41 47
37 41 47
37 41 47
37 41 47
37 41 47
37 41 47
37 41 46
37 41 46
37 41 46
37 41 46
37 41 46
37 41 46
37 41 46
37 41 46
37 41 46
37 41 46
37 41 46
37 40 46
37 40 46
37 40 46
37 40 46
37 40 46
37 40 46
37 40 46
37 40 46
37 40 46
36 40 46
36 40 46
36 40 46
36 40 46
36 40 46
36 40 46
36 40 45
36 40 45
36 40 45
36 40 45
36 40 45
36 40 45
36 40 45
36 40 45
36 40 45
36 40 45
36 40 45
36 40 45
36 39 45
36 39 45
36 39 45
36 39 45
36 39 45
36 39 45
36 39 45
36 39 45
36 39 45
36 39 45
35 39 45
37 41 46
37 41 46
37 41 47
37 41 47
37 41 47
37 41 47
37 41 47
37 41 47
37 41 47
37 41 47
37 41 47
38 41 47
38 41 47
38 41 47
38 41 47
38 41 47
38 41 47
38 42 47
38 42 47
38 42 47
38 42 47
38 42 47
38 42 48
38 42 48
38 42 48
38 42 48
38 42 48
38 42 48
38 42 48
38 42 48
38 42 48
38 42 48
38 42 48
38 42 48
38 42 48
38 42 48
38 42 48
39 42 48
39 42 48
39 42 48
39 42 48
39 42 48
39 43 48
39 43 48
39 43 48
39 43 49
39 43 49
39 43 49
39 43 49
39 43 49
39 43 49
39 43 49
39 43 49
39 43 49
39 43 49
39 43 49
39 43 49
39 43 49
39 43 49
39 43 49
39 43 49
39 43 49
39 43 49
39 43 49
39 43 49
39 43 49
39 43 49
39 43 49
39 43 49
39 43 49
39 43 49
39 43 49
39 43 49
39 43 49
40 43 49
40 43 49
40 43 49
40 43 49
40 43 49
40 43 49
40 44 50
40 44 50
40 44 50
40 44 50
40 44 50
40 44 50
40 44 50
40 44 50
40 44 50
40 44 50
40 44 50
40 44 50
40 44 50
40 44 50
40 44 50
40 44 50
40 44 50
40 44 50
40 44 50
40 44 50
40 44 50
40 44 50
40 44 50
40 44 50
40 44 50
40 44 50
40 44 50
40 44 50
40 44 50
40 44 50
40 44 50
40 44 50
40 44 50
40 44 50
40 44 50
40 44 50
40 44 49
40 43 49
40 43 49
40 43 49
40 43 49
40 43 49
39 43 49
39 43 49
39 43 49
39 43 49
39 43 49
39 43 49
39 43 49
39 43 49
39 43 49
39 43 49
39 43 49
39 43 49
39 43 49
39 43 49
39 43 49
39 43 49
39 43 49
39 43 49
39 43 49
39 43 49
39 43 49
39 43 49
39 43 49
39 43 49
39 43 49
39 43 49
39 43 49
39 43 49
39 43 49
39 43 48
39 43 48
39 43 48
39 43 48
39 42 48
39 42 48
39 42 48
39 42 48
38 42 48
38 42 48
38 42 48
38 42 48
38 42 48
38 42 48
38 42 48
38 42 48
38 42 48
38 42 48
38 42 48
38 42 48
38 42 48
38 42 48
38 42 48
38 42 47
38 42 47
38 42 47
38 42 47
38 42 47
38 41 47
38 41 47
38 41 47
38 41 47
38 41 47
38 41 47
37 41 47
37 41 47
37 41 47
37 41 47
37 41 47
37 41 47
37 41 47
37 41 47
37 41 47
37 41 46
37 41 46
37 41 46
37 41 46
37 41 46
37 41 46
39 42 48
39 42 48
39 42 48
39 43 48
39 43 48
39 43 48
39 43 49
39 43 49
39 43 49
39 43 49
39 43 49
39 43 49
39 43 49
39 43 49
39 43 49
39 43 49
39 43 49
39 43 49
39 43 49
39 43 49
39 43 49
39 43 49
40 43 49
40 43 49
40 44 50
40 44 50
40 44 50
40 44 50
40 44 50
40 44 50
40 44 50
40 44 50
40 44 50
40 44 50
40 44 50
40 44 50
40 44 50
40 44 50
40 44 50
40 44 50
40 44 50
40 44 50
40 44 50
40 44 50
40 44 51
40 44 51
40 44 51
41 45 51
41 45 51
41 45 51
41 45 51
41 45 51
41 45 51
41 45 51
41 45 51
41 45 51
41 45 51
41 45 51
41 45 51
41 45 51
41 45 51
41 45 51
41 45 51
41 45 51
41 45 51
41 45 51
41 45 51
41 45 51
41 45 51
41 45 51
41 45 51
41 45 51
41 45 51
41 45 52
41 45 52
41 45 52
41 45 52
41 45 52
41 45 52
41 45 52
41 45 52
41 45 52
41 45 52
41 45 52
41 45 52
41 46 52
41 46 52
41 46 52
41 46 52
41 46 52
41 46 52
41 46 52
41 46 52
42 46 52
42 46 52
42 46 52
42 46 52
42 46 52
42 46 52
42 46 52
42 46 52
42 46 52
42 46 52
41 46 52
41 46 52
41 46 52
41 46 52
41 46 52
41 46 52
41 46 52
41 46 52
41 45 52
41 45 52
41 45 52
41 45 52
41 45 52
41 45 52
41 45 52
41 45 52
41 45 52
41 45 52
41 45 52
41 45 52
41 45 51
41 45 51
41 45 51
41 45 51
41 45 51
41 45 51
41 45 51
41 45 51
41 45 51
41 45 51
41 45 51
41 45 51
41 45 51
41 45 51
41 45 51
41 45 51
41 45 51
41 45 51
41 45 51
41 45 51
41 45 51
41 45 51
41 45 51
41 45 51
41 45 51
41 45 51
41 44 51
40 44 51
40 44 51
40 44 50
40 44 50
40 44 50
40 44 50
40 44 50
40 44 50
40 44 50
40 44 50
40 44 50
40 44 50
40 44 50
40 44 50
40 44 50
40 44 50
40 44 50
40 44 50
40 44 50
40 44 50
40 44 50
40 44 50
40 43 49
40 43 49
39 43 49
39 43 49
39 43 49
39 43 49
39 43 49
39 43 49
39 43 49
39 43 49
39 43 49
39 43 49
39 43 49
39 43 49
39 43 49
39 43 49
39 43 49
39 43 49
39 43 48
39 43 48
39 43 48
39 42 48
39 42 48
39 42 48
38 42 48
38 42 48
38 42 48
38 42 48
40 44 50
40 44 50
40 44 50
40 44 50
40 44 50
40 44 50
40 44 50
40 44 50
40 44 51
40 44 51
41 45 51
41 45 51
41 45 51
41 45 51
41 45 51
41 45 51
41 45 51
41 45 51
41 45 51
41 45 51
41 45 51
41 45 51
41 45 51
41 45 51
41 45 51
41 45 52
41 45 52
41 45 52
41 45 52
41 46 52
42 46 52
42 46 52
42 46 52
42 46 52
42 46 52
42 46 52
42 46 52
42 46 52
42 46 52
42 46 52
42 46 52
42 46 52
42 46 52
42 46 53
42 46 53
42 46 53
42 46 53
42 46 53
42 46 53
42 46 53
42 46 53
42 47 53
42 47 53
42 47 53
43 47 53
43 47 53
43 47 53
43 47 53
43 47 53
43 47 53
43 47 53
43 47 53
43 47 53
43 47 53
43 47 53
43 47 53
43 47 53
43 47 54
43 47 54
43 47 54
43 47 54
43 47 54
43 47 54
43 47 54
43 47 54
43 47 54
43 47 54
43 47 54
43 47 54
43 47 54
43 47 54
43 47 54
43 47 54
43 47 54
43 47 54
43 47 54
43 47 54
43 47 54
43 47 54
43 47 54
43 48 54
43 48 54
43 48 54
43 48 54
43 48 54
43 48 54
43 48 54
43 48 54
43 48 54
43 48 54
43 48 54
43 48 54
43 48 54
43 48 54
43 48 54
43 48 54
43 47 54
43 47 54
43 47 54
43 47 54
43 47 54
43 47 54
43 47 54
43 47 54
43 47 54
43 47 54
43 47 54
43 47 54
43 47 54
43 47 54
43 47 54
43 47 54
43 47 54
43 47 54
43 47 54
43 47 54
43 47 54
43 47 54
43 47 54
43 47 53
43 47 53
43 47 53
43 47 53
43 47 53
43 47 53
43 47 53
43 47 53
43 47 53
43 47 53
43 47 53
43 47 53
42 47 53
42 47 53
42 47 53
42 47 53
42 46 53
42 46 53
42 46 53
42 46 53
42 46 53
42 46 53
42 46 53
42 46 52
42 46 52
42 46 52
42 46 52
42 46 52
42 46 52
42 46 52
42 46 52
42 46 52
42 46 52
42 46 52
42 46 52
42 46 52
41 46 52
41 46 52
41 45 52
41 45 52
41 45 52
41 45 52
41 45 51
41 45 51
41 45 51
41 45 51
41 45 51
41 45 51
41 45 51
41 45 51
41 45 51
41 45 51
41 45 51
41 45 51
41 45 51
41 45 51
41 44 51
40 44 51
40 44 50
40 44 50
40 44 50
40 44 50
40 44 50
40 44 50
40 44 50
40 44 50
40 44 50
40 44 50
40 44 50
40 44 50
40 44 50
42 46 52
42 46 52
42 46 52
42 46 52
42 46 52
42 46 52
42 46 52
42 46 52
42 46 52
42 46 52
42 46 53
42 46 53
42 46 53
42 46 53
42 46 53
42 46 53
42 47 53
42 47 53
43 47 53
43 47 53
43 47 53
43 47 53
43 47 53
43 47 53
43 47 53
43 47 54
43 47 54
43 47 54
43 47 54
43 47 54
43 47 54
43 47 54
43 47 54
43 48 54
43 48 54
43 48 54
43 48 54
44 48 54
44 48 54
44 48 54
44 48 54
44 48 54
44 48 55
44 48 55
44 48 55
44 48 55
44 48 55
44 48 55
44 48 55
44 48 55
44 48 55
44 48 55
44 48 55
44 49 55
44 49 55
44 49 55
44 49 55
44 49 55
44 49 55
44 49 55
44 49 55
45 49 55
45 49 55
45 49 56
45 49 56
45 49 56
45 49 56
45 49 56
45 49 56
45 49 56
45 49 56
45 49 56
45 49 56
45 49 56
45 49 56
45 49 56
45 49 56
45 49 56
45 49 56
45 49 56
45 49 56
45 49 56
45 49 56
45 49 56
45 49 56
45 49 56
45 49 56
45 49 56
45 49 56
45 49 56
45 49 56
45 49 56
45 49 56
45 50 56
45 50 56
45 50 56
45 50 56
45 50 56
45 50 56
45 50 56
45 50 56
45 50 56
45 49 56
45 49 56
45 49 56
45 49 56
45 49 56
45 49 56
45 49 56
45 49 56
45 49 56
45 49 56
45 49 56
45 49 56
45 49 56
45 49 56
45 49 56
45 49 56
45 49 56
45 49 56
45 49 56
45 49 56
45 49 56
45 49 56
45 49 56
45 49 56
45 49 56
45 49 56
45 49 56
45 49 56
45 49 56
45 49 56
45 49 56
45 49 55
44 49 55
44 49 55
44 49 55
44 49 55
44 49 55
44 49 55
44 49 55
44 49 55
44 48 55
44 48 55
44 48 55
44 48 55
44 48 55
44 48 55
44 48 55
44 48 55
44 48 55
44 48 55
44 48 55
44 48 54
44 48 54
44 48 54
44 48 54
44 48 54
43 48 54
43 48 54
43 48 54
43 48 54
43 47 54
43 47 54
43 47 54
43 47 54
43 47 54
43 47 54
43 47 54
43 47 54
43 47 53
43 47 53
43 47 53
43 47 53
43 47 53
43 47 53
43 47 53
42 47 53
42 47 53
42 47 53
42 46 53
42 46 53
42 46 53
42 46 53
42 46 53
42 46 52
42 46 52
42 46 52
42 46 52
42 46 52
42 46 52
42 46 52
42 46 52
42 46 52
42 46 52
41 46 52
41 45 52
41 45 52
41 45 52
41 45 51
43 47 54
43 47 54
43 47 54
43 47 54
43 47 54
43 48 54
43 48 54
43 48 54
44 48 54
44 48 54
44 48 54
44 48 54
44 48 55
44 48 55
44 48 55
44 48 55
44 48 55
44 48 55
44 48 55
44 48 55
44 49 55
44 49 55
44 49 55
44 49 55
44 49 55
45 49 55
45 49 56
45 49 56
45 49 56
45 49 56
45 49 56
45 49 56
45 49 56
45 49 56
45 49 56
45 49 56
45 50 56
45 50 56
45 50 56
45 50 56
45 50 56
45 50 57
45 50 57
46 50 57
46 50 57
46 50 57
46 50 57
46 50 57
46 50 57
46 50 57
46 50 57
46 50 57
46 50 57
46 50 57
46 50 57
46 50 57
46 51 57
46 51 57
46 51 57
46 51 58
46 51 58
46 51 58
46 51 58
46 51 58
46 51 58
46 51 58
46 51 58
47 51 58
47 51 58
47 51 58
47 51 58
47 51 58
47 51 58
47 51 58
47 51 58
47 51 58
47 51 58
47 51 58
47 51 58
47 51 58
47 51 58
47 51 58
47 51 58
47 51 58
47 51 58
47 51 58
47 51 58
47 51 58
47 51 58
47 51 58
47 51 58
47 51 58
47 51 58
47 51 58
47 51 58
47 52 58
47 52 58
47 52 58
47 52 58
47 52 58
47 51 58
47 51 58
47 51 58
47 51 58
47 51 58
47 51 58
47 51 58
47 51 58
47 51 58
47 51 58
47 51 58
47 51 58
47 51 58
47 51 58
47 51 58
47 51 58
47 51 58
47 51 58
47 51 58
47 51 58
47 51 58
47 51 58
47 51 58
47 51 58
47 51 58
47 51 58
47 51 58
47 51 58
46 51 58
46 51 58
46 51 58
46 51 58
46 51 58
46 51 58
46 51 58
46 51 58
46 51 57
46 51 57
46 51 57
46 50 57
46 50 57
46 50 57
46 50 57
46 50 57
46 50 57
46 50 57
46 50 57
46 50 57
46 50 57
46 50 57
46 50 57
46 50 57
45 50 57
45 50 57
45 50 56
45 50 56
45 50 56
45 50 56
45 49 56
45 49 56
45 49 56
45 49 56
45 49 56
45 49 56
45 49 56
45 49 56
45 49 56
45 49 56
45 49 56
45 49 55
44 49 55
44 49 55
44 49 55
44 49 55
44 49 55
44 48 55
44 48 55
44 48 55
44 48 55
44 48 55
44 48 55
44 48 55
44 48 55
44 48 54
44 48 54
44 48 54
44 48 54
43 48 54
43 48 54
43 48 54
43 47 54
43 47 54
43 47 54
43 47 54
43 47 54
43 47 54
43 47 53
43 47 53
43 47 53
43 47 53
45 49 55
45 49 56
45 49 56
45 49 56
45 49 56
45 49 56
45 49 56
45 49 56
45 49 56
45 49 56
45 50 56
45 50 56
45 50 56
45 50 57
45 50 57
46 50 57
46 50 57
46 50 57
46 50 57
46 50 57
46 50 57
46 50 57
46 50 57
46 50 57
46 51 57
46 51 57
46 51 58
46 51 58
46 51 58
46 51 58
47 51 58
47 51 58
47 51 58
47 51 58
47 51 58
47 51 58
47 51 58
47 51 58
47 51 58
47 52 59
47 52 59
47 52 59
47 52 59
47 52 59
47 52 59
47 52 59
47 52 59
47 52 59
48 52 59
48 52 59
48 52 59
48 52 59
48 52 59
48 52 59
48 52 59
48 52 60
48 52 60
48 53 60
48 53 60
48 53 60
48 53 60
48 53 60
48 53 60
48 53 60
48 53 60
48 53 60
48 53 60
48 53 60
48 53 60
48 53 60
48 53 60
48 53 60
49 53 60
49 53 60
49 53 60
49 53 60
49 53 60
49 53 60
49 53 60
49 53 60
49 53 61
49 53 61
49 53 61
49 53 61
49 53 61
49 53 61
49 53 61
49 53 61
49 53 61
49 53 61
49 53 61
49 53 61
49 53 61
49 54 61
49 54 61
49 54 61
49 54 61
49 54 61
49 54 61
49 54 61
49 54 61
49 54 61
49 53 61
49 53 61
49 53 61
49 53 61
49 53 61
49 53 61
49 53 61
49 53 61
49 53 61
49 53 61
49 53 61
49 53 61
49 53 61
49 53 60
49 53 60
49 53 60
49 53 60
49 53 60
49 53 60
49 53 60
48 53 60
48 53 60
48 53 60
48 53 60
48 53 60
48 53 60
48 53 60
48 53 60
48 53 60
48 53 60
48 53 60
48 53 60
48 53 60
48 53 60
48 53 60
48 52 60
48 52 60
48 52 59
48 52 59
48 52 59
48 52 59
48 52 59
48 52 59
48 52 59
48 52 59
47 52 59
47 52 59
47 52 59
47 52 59
47 52 59
47 52 59
47 52 59
47 52 59
47 52 58
47 51 58
47 51 58
47 51 58
47 51 58
47 51 58
47 51 58
47 51 58
47 51 58
46 51 58
46 51 58
46 51 58
46 51 58
46 51 58
46 51 57
46 51 57
46 50 57
46 50 57
46 50 57
46 50 57
46 50 57
46 50 57
46 50 57
46 50 57
46 50 57
45 50 57
45 50 56
45 50 56
45 50 56
45 50 56
45 49 56
45 49 56
45 49 56
45 49 56
45 49 56
45 49 56
45 49 56
45 49 56
45 49 56
45 49 55
44 49 55
44 49 55
44 49 55
44 49 55
44 48 55
46 50 57
46 51 57
46 51 58
46 51 58
46 51 58
46 51 58
47 51 58
47 51 58
47 51 58
47 51 58
47 51 58
47 51 58
47 51 58
47 52 58
47 52 59
47 52 59
47 52 59
47 52 59
47 52 59
47 52 59
48 52 59
48 52 59
48 52 59
48 52 59
48 52 59
48 52 59
48 52 60
48 53 60
48 53 60
48 53 60
48 53 60
48 53 60
48 53 60
48 53 60
48 53 60
49 53 60
49 53 60
49 53 60
49 53 61
49 53 61
49 53 61
49 54 61
49 54 61
49 54 61
49 54 61
49 54 61
49 54 61
49 54 61
49 54 61
49 54 61
49 54 61
49 54 61
50 54 61
50 54 62
50 54 62
50 54 62
50 54 62
50 54 62
50 55 62
50 55 62
50 55 62
50 55 62
50 55 62
50 55 62
50 55 62
50 55 62
50 55 62
50 55 62
50 55 62
50 55 62
50 55 62
50 55 62
50 55 63
50 55 63
50 55 63
50 55 63
50 55 63
51 55 63
51 55 63
51 55 63
51 55 63
51 55 63
51 55 63
51 55 63
51 55 63
51 55 63
51 55 63
51 55 63
51 55 63
51 55 63
51 56 63
51 56 63
51 56 63
51 56 63
51 56 63
51 56 63
51 56 63
51 56 63
51 56 63
51 56 63
51 56 63
51 56 63
51 56 63
51 56 63
51 55 63
51 55 63
51 55 63
51 55 63
51 55 63
51 55 63
51 55 63
51 55 63
51 55 63
51 55 63
51 55 63
51 55 63
51 55 63
50 55 63
50 55 63
50 55 63
50 55 63
50 55 63
50 55 62
50 55 62
50 55 62
50 55 62
50 55 62
50 55 62
50 55 62
50 55 62
50 55 62
50 55 62
50 55 62
50 55 62
50 55 62
50 55 62
50 54 62
50 54 62
50 54 62
50 54 62
50 54 62
50 54 62
49 54 61
49 54 61
49 54 61
49 54 61
49 54 61
49 54 61
49 54 61
49 54 61
49 54 61
49 54 61
49 54 61
49 53 61
49 53 61
49 53 61
49 53 60
49 53 60
49 53 60
48 53 60
48 53 60
48 53 60
48 53 60
48 53 60
48 53 60
48 53 60
48 53 60
48 52 60
48 52 60
48 52 59
48 52 59
48 52 59
48 52 59
48 52 59
47 52 59
47 52 59
47 52 59
47 52 59
47 52 59
47 52 59
47 52 58
47 51 58
47 51 58
47 51 58
47 51 58
47 51 58
47 51 58
47 51 58
46 51 58
46 51 58
46 51 58
46 51 58
46 51 57
46 50 57
46 50 57
46 50 57
46 50 57
46 50 57
46 50 57
46 50 57
48 52 59
48 52 59
48 52 59
48 52 59
48 52 60
48 53 60
48 53 60
48 53 60
48 53 60
48 53 60
48 53 60
48 53 60
49 53 60
49 53 60
49 53 61
49 53 61
49 53 61
49 54 61
49 54 61
49 54 61
49 54 61
49 54 61
49 54 61
49 54 61
49 54 61
50 54 62
50 54 62
50 54 62
50 54 62
50 55 62
50 55 62
50 55 62
50 55 62
50 55 62
50 55 62
50 55 62
50 55 62
50 55 63
50 55 63
51 55 63
51 55 63
51 55 63
51 55 63
51 56 63
51 56 63
51 56 63
51 56 63
51 56 63
51 56 63
51 56 63
51 56 64
51 56 64
51 56 64
51 56 64
51 56 64
51 56 64
52 56 64
52 56 64
52 56 64
52 57 64
52 57 64
52 57 64
52 57 64
52 57 64
52 57 64
52 57 64
52 57 65
52 57 65
52 57 65
52 57 65
52 57 65
52 57 65
52 57 65
52 57 65
52 57 65
52 57 65
52 57 65
52 57 65
184 91 139
184 91 139
184 91 139
184 91 139
53 57 65
53 57 65
53 57 65
53 57 65
53 57 65
53 58 65
53 58 65
53 58 65
53 58 65
53 58 65
53 58 65
53 58 65
53 58 65
53 58 65
53 58 65
53 58 65
53 58 65
53 58 65
53 58 65
53 58 65
53 58 65
53 58 65
53 58 65
53 58 65
53 58 65
53 57 65
53 57 65
53 57 65
53 57 65
52 57 65
52 57 65
52 57 65
52 57 65
52 57 65
52 57 65
52 57 65
52 57 65
52 57 65
52 57 65
52 57 65
52 57 65
52 57 65
52 57 65
52 57 65
52 57 65
52 57 64
52 57 64
52 57 64
52 57 64
52 57 64
52 57 64
52 57 64
52 57 64
52 56 64
52 56 64
52 56 64
51 56 64
51 56 64
51 56 64
51 56 64
51 56 64
51 56 64
51 56 63
51 56 63
51 56 63
51 56 63
51 56 63
51 56 63
51 56 63
51 55 63
51 55 63
51 55 63
51 55 63
50 55 63
50 55 63
50 55 62
50 55 62
50 55 62
50 55 62
50 55 62
50 55 62
50 55 62
50 55 62
50 54 62
50 54 62
50 54 62
50 54 61
49 54 61
49 54 61
49 54 61
49 54 61
49 54 61
49 54 61
49 54 61
49 54 61
49 53 61
49 53 61
49 53 60
49 53 60
49 53 60
48 53 60
48 53 60
48 53 60
48 53 60
48 53 60
48 53 60
48 53 60
48 52 60
48 52 59
48 52 59
48 52 59
48 52 59
48 52 59
47 52 59
47 52 59
47 52 59
47 52 59
47 52 59
49 54 61
49 54 61
49 54 61
49 54 61
49 54 61
50 54 62
50 54 62
50 54 62
50 55 62
50 55 62
50 55 62
50 55 62
50 55 62
50 55 62
50 55 62
50 55 63
50 55 63
51 55 63
51 55 63
51 56 63
51 56 63
51 56 63
51 56 63
51 56 63
51 56 63
51 56 64
51 56 64
51 56 64
51 56 64
52 56 64
52 56 64
52 57 64
52 57 64
52 57 64
52 57 64
52 57 64
52 57 65
52 57 65
52 57 65
52 57 65
52 57 65
52 57 65
52 57 65
53 57 65
53 58 65
53 58 65
53 58 65
53 58 65
53 58 66
53 58 66
53 58 66
53 58 66
53 58 66
53 58 66
53 58 66
53 58 66
53 58 66
53 58 66
53 58 66
54 59 66
54 59 66
54 59 66
54 59 67
54 59 67
54 59 67
54 59 67
54 59 67
54 59 67
189 93 143
189 93 143
190 93 143
190 93 143
190 93 143
190 93 143
190 94 143
190 94 143
190 94 143
190 94 144
191 94 144
191 94 144
191 94 144
191 94 144
191 94 144
191 94 144
191 94 144
191 94 144
191 94 144
191 94 144
191 94 144
191 94 144
191 94 144
55 60 68
55 60 68
55 60 68
55 60 68
55 60 68
55 60 68
55 60 68
55 60 68
55 60 68
55 60 68
55 60 68
55 60 68
55 60 68
55 60 68
54 60 68
54 60 67
54 60 67
54 60 67
54 59 67
54 59 67
54 59 67
54 59 67
54 59 67
54 59 67
54 59 67
54 59 67
54 59 67
54 59 67
54 59 67
54 59 67
54 59 67
54 59 67
54 59 67
54 59 67
54 59 67
54 59 67
54 59 67
54 59 67
54 59 67
54 59 67
54 59 66
54 59 66
54 59 66
53 58 66
53 58 66
53 58 66
53 58 66
53 58 66
53 58 66
53 58 66
53 58 66
53 58 66
53 58 66
53 58 66
53 58 66
53 58 65
53 58 65
53 58 65
53 57 65
53 57 65
52 57 65
52 57 65
52 57 65
52 57 65
52 57 65
52 57 65
52 57 65
52 57 64
52 57 64
52 57 64
52 57 64
52 56 64
52 56 64
51 56 64
51 56 64
51 56 64
51 56 64
51 56 63
51 56 63
51 56 63
51 56 63
51 56 63
51 56 63
51 55 63
51 55 63
51 55 63
50 55 63
50 55 63
50 55 62
50 55 62
50 55 62
50 55 62
50 55 62
50 55 62
50 54 62
50 54 62
50 54 62
50 54 61
49 54 61
49 54 61
49 54 61
49 54 61
49 54 61
49 54 61
49 54 61
49 53 61
49 53 61
49 53 60
49 53 60
51 55 63
51 56 63
51 56 63
51 56 63
51 56 63
51 56 63
51 56 64
51 56 64
51 56 64
52 56 64
52 56 64
52 57 64
52 57 64
52 57 64
52 57 64
52 57 65
52 57 65
52 57 65
52 57 65
52 57 65
52 57 65
53 57 65
53 58 65
53 58 65
53 58 65
53 58 66
53 58 66
53 58 66
53 58 66
53 58 66
53 58 66
53 58 66
53 58 66
54 59 66
54 59 66
54 59 67
54 59 67
54 59 67
54 59 67
54 59 67
54 59 67
54 59 67
54 59 67
54 59 67
54 59 67
54 60 67
55 60 68
55 60 68
55 60 68
55 60 68
55 60 68
55 60 68
55 60 68
55 60 68
55 60 68
55 60 68
55 60 68
55 60 68
55 60 68
55 60 69
55 61 69
55 61 69
56 61 69
56 61 69
56 61 69
56 61 69
56 61 69
82 37 60
196 96 147
196 96 147
196 96 147
196 96 147
196 96 147
197 96 147
197 96 148
197 96 148
197 96 148
197 96 148
197 96 148
197 96 148
197 96 148
197 96 148
197 96 148
197 96 148
197 96 148
198 96 148
198 96 148
198 96 148
115 50 82
97 43 70
69 32 52
56 62 70
56 62 70
56 62 70
56 62 70
56 62 70
56 62 70
56 62 70
56 62 70
56 62 70
56 62 70
56 62 70
56 62 70
56 62 70
56 62 70
56 62 70
56 62 70
56 62 70
56 62 70
56 62 70
56 61 70
56 61 70
56 61 70
56 61 70
56 61 70
56 61 70
56 61 69
56 61 69
56 61 69
56 61 69
56 61 69
56 61 69
56 61 69
56 61 69
56 61 69
56 61 69
56 61 69
56 61 69
56 61 69
56 61 69
56 61 69
55 61 69
55 61 69
55 60 69
55 60 68
55 60 68
55 60 68
55 60 68
55 60 68
55 60 68
55 60 68
55 60 68
55 60 68
55 60 68
55 60 68
55 60 68
55 60 68
54 60 67
54 59 67
54 59 67
54 59 67
54 59 67
54 59 67
54 59 67
54 59 67
54 59 67
54 59 67
54 59 67
54 59 66
54 59 66
53 58 66
53 58 66
53 58 66
53 58 66
53 58 66
53 58 66
53 58 66
53 58 66
53 58 65
53 58 65
53 58 65
53 57 65
52 57 65
52 57 65
52 57 65
52 57 65
52 57 65
52 57 65
52 57 64
52 57 64
52 57 64
52 57 64
52 56 64
52 56 64
51 56 64
51 56 64
51 56 64
51 56 63
51 56 63
51 56 63
51 56 63
51 56 63
51 55 63
51 55 63
51 55 63
50 55 63
50 55 62
50 55 62
50 55 62
50 55 62
52 57 65
52 57 65
52 57 65
53 57 65
53 58 65
53 58 65
53 58 65
53 58 66
53 58 66
53 58 66
53 58 66
53 58 66
53 58 66
53 58 66
54 59 66
54 59 67
54 59 67
54 59 67
54 59 67
54 59 67
54 59 67
54 59 67
54 59 67
54 59 67
55 60 68
55 60 68
55 60 68
55 60 68
55 60 68
55 60 68
55 60 68
55 60 68
55 60 68
55 60 68
55 61 69
55 61 69
56 61 69
56 61 69
56 61 69
56 61 69
56 61 69
56 61 69
56 61 69
56 61 69
56 61 70
56 61 70
56 62 70
56 62 70
56 62 70
57 62 70
57 62 70
57 62 70
57 62 70
57 62 70
57 62 70
57 62 70
57 62 71
57 62 71
57 62 71
57 62 71
57 63 71
57 63 71
57 63 71
57 63 71
57 63 71
58 63 71
58 63 71
80 37 59
104 46 75
120 52 85
133 56 94
143 60 100
151 64 106
158 66 111
163 69 114
168 71 117
171 72 119
173 73 121
174 73 122
173 73 121
172 73 121
170 72 119
166 70 116
189 91 112
174 80 107
155 67 100
140 59 98
129 55 91
115 50 82
97 43 70
70 33 52
58 64 72
58 64 72
58 64 72
58 64 72
58 64 72
58 64 72
58 64 72
58 64 72
58 64 72
58 64 72
58 64 72
58 64 72
58 64 72
58 64 72
58 64 72
58 64 72
58 64 72
58 64 72
58 64 72
58 64 72
58 64 72
58 63 72
58 63 72
58 63 72
58 63 72
58 63 72
58 63 72
58 63 72
58 63 72
58 63 72
58 63 72
58 63 71
58 63 71
58 63 71
58 63 71
58 63 71
58 63 71
57 63 71
57 63 71
57 63 71
57 63 71
57 63 71
57 62 71
57 62 71
57 62 71
57 62 71
57 62 70
57 62 70
57 62 70
57 62 70
57 62 70
57 62 70
57 62 70
56 62 70
56 62 70
56 62 70
56 61 70
56 61 70
56 61 69
56 61 69
56 61 69
56 61 69
56 61 69
56 61 69
56 61 69
56 61 69
55 61 69
55 60 69
55 60 68
55 60 68
55 60 68
55 60 68
55 60 68
55 60 68
55 60 68
55 60 68
55 60 68
54 60 67
54 59 67
54 59 67
54 59 67
54 59 67
54 59 67
54 59 67
54 59 67
54 59 67
54 59 66
54 59 66
53 58 66
53 58 66
53 58 66
53 58 66
53 58 66
53 58 66
53 58 66
53 58 65
53 58 65
53 58 65
53 57 65
52 57 65
52 57 65
52 57 65
52 57 65
52 57 65
52 57 64
52 57 64
52 57 64
52 56 64
52 56 64
54 59 67
54 59 67
54 59 67
54 59 67
54 59 67
54 59 67
54 59 67
55 60 68
55 60 68
55 60 68
55 60 68
55 60 68
55 60 68
55 60 68
55 60 68
55 60 69
55 61 69
56 61 69
56 61 69
56 61 69
56 61 69
56 61 69
56 61 69
56 61 69
56 61 70
56 61 70
56 62 70
56 62 70
57 62 70
57 62 70
57 62 70
57 62 70
57 62 70
57 62 71
57 62 71
57 62 71
57 63 71
57 63 71
57 63 71
58 63 71
58 63 71
58 63 71
58 63 72
58 63 72
58 63 72
58 63 72
58 63 72
58 64 72
58 64 72
58 64 72
58 64 72
59 64 72
59 64 72
59 64 73
59 64 73
59 64 73
59 64 73
59 64 73
59 64 73
59 64 73
59 65 73
59 65 73
59 65 73
59 65 73
59 65 73
59 65 73
59 65 74
78 36 58
103 45 74
120 52 85
132 57 93
143 61 100
151 64 106
158 67 111
163 69 115
168 71 118
171 72 120
173 73 121
174 74 122
174 74 122
172 73 121
170 72 120
167 71 117
187 89 111
172 79 107
153 66 100
140 60 99
129 56 92
116 50 83
98 44 71
70 34 53
60 66 74
60 66 74
60 66 74
60 66 74
60 66 74
60 66 74
60 66 74
60 66 74
60 66 74
60 66 74
60 66 74
60 66 74
60 66 74
60 66 74
60 66 74
60 66 74
60 66 74
60 66 74
60 66 74
60 66 74
60 66 74
60 66 74
60 65 74
60 65 74
60 65 74
60 65 74
60 65 74
60 65 74
60 65 74
60 65 74
60 65 74
60 65 74
60 65 74
60 65 74
59 65 74
59 65 73
59 65 73
59 65 73
59 65 73
59 65 73
59 65 73
59 64 73
59 64 73
59 64 73
59 64 73
59 64 73
59 64 73
59 64 73
59 64 72
171 151 45
212 195 85
215 198 86
215 198 86
213 195 85
208 191 84
198 183 82
58 63 72
58 63 72
58 63 72
58 63 71
58 63 71
58 63 71
57 63 71
57 63 71
57 63 71
57 63 71
57 62 71
57 62 71
57 62 70
57 62 70
57 62 70
57 62 70
57 62 70
56 62 70
56 62 70
56 62 70
56 61 70
56 61 69
56 61 69
56 61 69
56 61 69
56 61 69
56 61 69
56 61 69
55 61 69
55 60 69
55 60 68
55 60 68
55 60 68
55 60 68
55 60 68
55 60 68
55 60 68
55 60 68
54 59 67
54 59 67
54 59 67
54 59 67
54 59 67
54 59 67
54 59 67
54 59 67
54 59 66
54 59 66
53 58 66
53 58 66
53 58 66
53 58 66
53 58 66
55 60 69
55 61 69
56 61 69
56 61 69
56 61 69
56 61 69
56 61 69
56 61 69
56 61 70
56 62 70
56 62 70
57 62 70
57 62 70
57 62 70
57 62 70
57 62 70
57 62 71
57 62 71
57 63 71
57 63 71
57 63 71
58 63 71
58 63 71
58 63 71
58 63 72
58 63 72
58 63 72
58 64 72
58 64 72
58 64 72
58 64 72
59 64 72
59 64 73
59 64 73
59 64 73
59 64 73
59 64 73
59 65 73
59 65 73
59 65 73
59 65 73
60 65 74
60 65 74
60 65 74
60 65 74
60 65 74
60 65 74
60 66 74
60 66 74
60 66 74
60 66 74
60 66 75
60 66 75
60 66 75
61 66 75
61 66 75
61 66 75
61 66 75
61 66 75
61 66 75
61 67 75
61 67 75
61 67 75
61 67 76
61 67 76
61 67 76
61 67 76
77 36 57
102 45 74
119 52 85
132 57 93
142 61 100
151 64 106
157 67 111
163 70 115
167 72 118
171 73 120
173 74 122
174 75 123
174 75 123
173 74 122
170 73 120
167 71 118
184 87 111
169 77 106
151 64 99
140 60 99
130 56 92
116 51 83
98 44 71
71 34 54
62 68 77
62 68 77
62 68 77
62 68 77
62 68 77
62 68 77
62 68 77
62 68 77
62 68 77
62 68 77
62 68 77
62 68 77
62 68 77
62 68 77
62 68 77
62 68 77
62 68 77
62 68 77
62 68 77
62 68 77
62 68 77
62 68 76
62 68 76
62 67 76
62 67 76
62 67 76
62 67 76
62 67 76
62 67 76
62 67 76
62 67 76
61 67 76
61 67 76
61 67 76
61 67 76
61 67 76
61 67 76
61 67 76
61 67 75
61 67 75
61 67 75
61 66 75
61 66 75
61 66 75
61 66 75
172 152 45
223 204 87
231 211 90
236 216 91
239 218 92
240 219 92
240 219 92
238 218 92
236 216 91
233 213 91
228 209 90
223 204 88
215 198 87
205 189 84
190 176 81
59 65 73
59 65 73
59 65 73
59 65 73
59 64 73
59 64 73
59 64 73
59 64 73
59 64 73
59 64 72
58 64 72
58 64 72
58 64 72
58 64 72
58 63 72
58 63 72
58 63 72
58 63 71
58 63 71
58 63 71
57 63 71
57 63 71
57 63 71
57 62 71
57 62 71
57 62 70
57 62 70
57 62 70
57 62 70
57 62 70
56 62 70
56 62 70
56 61 70
56 61 69
56 61 69
56 61 69
56 61 69
56 61 69
56 61 69
55 61 69
55 60 69
55 60 68
55 60 68
55 60 68
55 60 68
55 60 68
55 60 68
55 60 68
54 60 68
57 62 70
57 62 71
57 62 71
57 63 71
57 63 71
57 63 71
58 63 71
58 63 71
58 63 72
58 63 72
58 63 72
58 63 72
58 64 72
58 64 72
58 64 72
59 64 72
59 64 73
59 64 73
59 64 73
59 64 73
59 65 73
59 65 73
59 65 73
59 65 74
60 65 74
60 65 74
60 65 74
60 65 74
60 65 74
60 66 74
60 66 74
60 66 75
60 66 75
61 66 75
61 66 75
61 66 75
61 66 75
61 66 75
61 67 75
61 67 75
61 67 76
61 67 76
61 67 76
61 67 76
62 67 76
62 67 76
62 67 76
62 67 76
62 68 76
62 68 77
62 68 77
62 68 77
62 68 77
62 68 77
62 68 77
62 68 77
63 68 77
63 68 77
63 68 77
63 68 77
63 69 78
63 69 78
63 69 78
63 69 78
63 69 78
63 69 78
63 69 78
75 36 56
101 45 73
118 52 85
131 57 93
142 61 100
150 64 106
157 67 111
163 70 115
167 72 118
171 74 121
173 75 122
174 75 123
174 75 123
173 75 122
171 74 121
167 72 118
181 85 110
167 75 105
149 62 99
140 61 100
130 56 92
116 51 83
99 45 72
72 35 54
64 70 79
64 70 79
64 70 79
64 70 79
64 70 79
64 70 79
64 70 79
64 70 79
64 70 79
64 70 79
64 70 79
64 70 79
64 70 79
64 70 79
64 70 79
64 70 79
64 70 79
64 70 79
64 70 79
64 70 79
64 70 79
64 70 79
64 70 79
64 69 79
64 69 79
64 69 79
64 69 79
64 69 78
63 69 78
63 69 78
63 69 78
63 69 78
63 69 78
63 69 78
63 69 78
63 69 78
63 69 78
63 69 78
63 69 78
63 69 78
63 68 78
63 68 77
63 68 77
213 196 85
229 210 89
238 217 91
243 222 93
247 225 94
249 227 94
250 228 95
251 228 95
250 228 95
249 227 95
246 225 94
243 222 94
240 219 93
235 215 92
229 210 90
222 204 89
214 197 87
204 188 84
189 175 81
61 67 75
61 66 75
61 66 75
61 66 75
61 66 75
60 66 75
60 66 75
60 66 74
60 66 74
60 66 74
60 65 74
60 65 74
60 65 74
60 65 74
60 65 74
59 65 73
59 65 73
59 65 73
59 65 73
59 64 73
59 64 73
59 64 73
59 64 73
59 64 72
58 64 72
58 64 72
58 64 72
58 63 72
58 63 72
58 63 72
58 63 71
58 63 71
58 63 71
57 63 71
57 63 71
57 62 71
57 62 71
57 62 71
57 62 70
57 62 70
57 62 70
57 62 70
56 62 70
56 61 70
56 61 70
56 61 69
56 61 69
58 64 72
59 64 72
59 64 73
59 64 73
59 64 73
59 64 73
59 65 73
59 65 73
59 65 73
60 65 74
60 65 74
60 65 74
60 65 74
60 65 74
60 66 74
60 66 74
60 66 75
60 66 75
61 66 75
61 66 75
61 66 75
61 66 75
61 67 75
61 67 76
61 67 76
61 67 76
61 67 76
62 67 76
62 67 76
62 67 76
62 68 76
62 68 77
62 68 77
62 68 77
62 68 77
62 68 77
63 68 77
63 68 77
63 68 77
63 69 78
63 69 78
63 69 78
63 69 78
63 69 78
63 69 78
63 69 78
64 69 78
64 69 79
64 69 79
64 70 79
64 70 79
64 70 79
64 70 79
64 70 79
64 70 79
64 70 79
64 70 79
64 70 80
65 70 80
65 70 80
65 71 80
65 71 80
65 71 80
65 71 80
65 71 80
65 71 80
65 71 80
73 35 55
100 45 73
117 52 84
131 57 93
141 61 100
150 65 106
157 68 111
163 70 115
167 72 119
171 74 121
173 75 123
174 76 124
174 76 124
173 75 123
166 89 139
163 87 137
158 85 133
153 82 127
146 61 98
141 61 100
130 57 93
117 52 84
99 45 72
73 35 55
66 72 81
66 72 81
66 72 81
66 72 81
66 72 81
66 72 81
66 72 81
66 72 81
66 72 81
66 72 81
66 72 81
66 72 81
66 72 81
66 72 81
66 72 81
66 72 81
66 72 81
66 72 81
66 72 81
66 72 81
66 72 81
66 72 81
66 72 81
66 72 81
66 71 81
66 71 81
65 71 81
65 71 81
65 71 81
65 71 81
65 71 81
65 71 80
65 71 80
65 71 80
65 71 80
65 71 80
65 71 80
65 71 80
65 71 80
65 71 80
65 70 80
205 188 83
226 207 88
237 216 91
244 222 93
249 227 94
252 230 95
255 232 96
255 233 96
255 234 97
255 234 97
255 233 97
254 232 96
252 230 96
249 227 95
246 224 95
242 221 94
237 216 92
231 211 91
224 205 89
216 198 88
207 190 85
194 180 82
178 165 78
62 68 77
62 68 77
62 68 77
62 68 77
62 68 77
62 68 76
62 67 76
62 67 76
62 67 76
61 67 76
61 67 76
61 67 76
61 67 76
61 67 75
61 66 75
61 66 75
61 66 75
61 66 75
60 66 75
60 66 75
60 66 74
60 66 74
60 66 74
60 65 74
60 65 74
60 65 74
60 65 74
59 65 73
59 65 73
59 65 73
59 64 73
59 64 73
59 64 73
59 64 73
59 64 72
58 64 72
58 64 72
58 64 72
58 63 72
58 63 72
58 63 72
58 63 71
58 63 71
58 63 71
57 63 71
60 66 74
60 66 74
60 66 74
60 66 75
61 66 75
61 66 75
61 66 75
61 66 75
61 67 75
61 67 76
61 67 76
61 67 76
62 67 76
62 67 76
62 67 76
62 67 76
62 68 77
62 68 77
62 68 77
62 68 77
62 68 77
63 68 77
63 68 77
63 69 78
63 69 78
63 69 78
63 69 78
63 69 78
63 69 78
64 69 78
64 69 79
64 70 79
64 70 79
64 70 79
64 70 79
64 70 79
64 70 79
64 70 79
65 70 80
65 70 80
65 71 80
65 71 80
65 71 80
65 71 80
65 71 80
65 71 80
65 71 81
65 71 81
66 71 81
66 72 81
66 72 81
66 72 81
66 72 81
66 72 81
66 72 81
66 72 82
66 72 82
66 72 82
66 72 82
66 72 82
67 72 82
67 73 82
67 73 82
67 73 82
67 73 82
67 73 82
67 73 83
71 35 54
99 45 72
117 52 84
130 57 93
141 61 100
149 65 106
156 68 111
162 71 115
167 73 119
171 75 122
173 76 123
174 77 124
174 77 124
167 89 139
165 88 138
162 86 136
158 84 133
153 82 127
146 60 97
141 61 100
130 57 93
117 52 84
100 45 73
74 36 56
68 74 84
68 74 84
68 74 84
68 74 84
68 74 84
68 74 84
68 74 84
68 74 84
68 74 84
68 74 84
68 74 84
68 74 84
68 74 84
68 74 84
68 74 84
68 74 84
68 74 83
68 74 83
68 74 83
68 74 83
68 74 83
68 74 83
67 74 83
67 74 83
67 73 83
67 73 83
67 73 83
67 73 83
67 73 83
67 73 83
67 73 83
67 73 83
67 73 83
67 73 83
67 73 82
67 73 82
67 73 82
67 73 82
67 73 82
66 72 82
214 197 85
230 210 89
239 218 92
246 224 94
251 229 95
255 232 96
255 234 97
255 236 97
255 237 98
255 237 98
255 236 98
255 236 98
255 234 97
255 232 97
252 230 96
249 227 96
245 224 95
241 220 94
235 215 92
229 210 91
223 204 89
215 197 88
205 189 85
194 179 83
179 166 79
153 144 73
64 70 79
64 70 79
64 69 79
64 69 79
63 69 78
63 69 78
63 69 78
63 69 78
63 69 78
63 69 78
63 68 78
63 68 77
63 68 77
62 68 77
62 68 77
62 68 77
62 68 77
62 68 77
62 67 76
62 67 76
62 67 76
61 67 76
61 67 76
61 67 76
61 67 75
61 67 75
61 66 75
61 66 75
61 66 75
60 66 75
60 66 75
60 66 74
60 66 74
60 65 74
60 65 74
60 65 74
60 65 74
59 65 74
59 65 73
59 65 73
59 65 73
59 64 73
59 64 73
62 67 76
62 67 76
62 67 76
62 68 77
62 68 77
62 68 77
62 68 77
62 68 77
63 68 77
63 68 77
63 69 78
63 69 78
63 69 78
63 69 78
63 69 78
64 69 78
64 69 79
64 70 79
64 70 79
64 70 79
64 70 79
64 70 79
64 70 79
64 70 80
65 70 80
65 71 80
65 71 80
65 71 80
65 71 80
65 71 80
65 71 81
65 71 81
66 71 81
66 72 81
66 72 81
66 72 81
66 72 81
66 72 82
66 72 82
66 72 82
66 72 82
67 73 82
67 73 82
67 73 82
67 73 82
67 73 83
67 73 83
67 73 83
67 73 83
67 73 83
67 74 83
68 74 83
68 74 83
68 74 84
68 74 84
68 74 84
68 74 84
68 74 84
68 74 84
68 74 84
68 74 84
68 75 84
68 75 84
69 75 85
69 75 85
69 75 85
69 75 85
69 34 53
98 45 72
116 52 84
129 57 93
140 61 100
149 65 106
156 68 111
162 71 116
167 73 119
170 75 122
173 76 124
174 77 125
157 62 108
166 88 138
164 87 137
161 85 135
157 84 132
152 81 126
145 60 97
141 62 101
130 58 94
117 52 85
100 46 73
74 36 56
70 76 86
70 76 86
70 76 86
70 76 86
70 76 86
70 76 86
70 76 86
70 76 86
70 76 86
70 76 86
70 76 86
70 76 86
70 76 86
70 76 86
70 76 86
70 76 86
70 76 86
70 76 86
70 76 86
69 76 86
69 76 86
69 76 86
69 76 85
69 76 85
69 75 85
69 75 85
69 75 85
69 75 85
69 75 85
69 75 85
69 75 85
69 75 85
69 75 85
69 75 85
69 75 85
69 75 85
69 75 84
68 75 84
68 74 84
215 198 86
229 210 89
239 218 92
246 224 94
251 229 95
255 232 96
255 235 97
255 236 97
255 238 98
255 238 98
255 238 98
255 238 98
255 237 98
255 235 98
255 233 97
254 231 97
251 228 96
247 225 95
243 222 94
238 217 93
232 213 92
226 207 90
219 201 89
211 194 87
201 186 85
190 176 82
176 163 78
154 144 73
65 71 81
65 71 81
65 71 81
65 71 80
65 71 80
65 71 80
65 71 80
65 71 80
65 70 80
64 70 80
64 70 79
64 70 79
64 70 79
64 70 79
64 70 79
64 69 79
64 69 78
63 69 78
63 69 78
63 69 78
63 69 78
63 69 78
63 68 78
63 68 77
63 68 77
62 68 77
62 68 77
62 68 77
62 68 77
62 68 76
62 67 76
62 67 76
61 67 76
61 67 76
61 67 76
61 67 75
61 67 75
61 66 75
61 66 75
61 66 75
60 66 75
60 66 75
63 69 78
63 69 78
63 69 78
64 69 78
64 69 79
64 70 79
64 70 79
64 70 79
64 70 79
64 70 79
64 70 80
65 70 80
65 71 80
65 71 80
65 71 80
65 71 80
65 71 81
65 71 81
66 71 81
66 72 81
66 72 81
66 72 81
66 72 81
66 72 82
66 72 82
66 72 82
67 73 82
67 73 82
67 73 82
67 73 83
67 73 83
67 73 83
67 73 83
67 73 83
68 74 83
68 74 83
68 74 84
68 74 84
68 74 84
68 74 84
68 74 84
68 74 84
68 75 84
69 75 84
69 75 85
69 75 85
69 75 85
69 75 85
69 75 85
69 75 85
69 75 85
69 76 85
69 76 86
70 76 86
70 76 86
70 76 86
70 76 86
70 76 86
70 76 86
70 76 86
70 76 86
70 77 87
70 77 87
70 77 87
70 77 87
71 77 87
71 77 87
67 34 52
97 45 71
115 52 83
129 57 92
139 61 100
148 65 106
156 68 111
162 71 116
167 74 119
170 75 122
173 77 124
174 78 125
157 61 107
156 61 107
154 60 106
160 85 133
156 83 131
152 81 125
140 54 91
141 62 101
131 58 94
117 53 85
100 46 74
75 37 57
72 78 88
72 78 88
72 78 88
72 78 88
72 78 88
72 78 88
72 78 88
72 78 88
72 78 88
72 78 88
72 78 88
72 78 88
72 78 88
72 78 88
71 78 88
71 78 88
71 78 88
71 78 88
71 78 88
71 78 88
71 78 88
71 78 88
71 78 88
71 77 88
71 77 88
71 77 88
71 77 87
71 77 87
71 77 87
71 77 87
71 77 87
71 77 87
71 77 87
71 77 87
70 77 87
70 77 87
70 77 87
70 77 87
212 195 85
227 207 89
236 216 91
243 222 93
249 227 94
253 231 96
255 234 97
255 236 97
255 237 98
255 238 98
255 238 98
255 238 98
255 238 98
255 237 98
255 235 98
255 233 97
254 231 97
251 229 96
247 225 95
243 222 95
239 218 93
233 213 92
228 208 91
221 203 89
214 196 88
205 189 86
196 181 83
184 171 81
170 158 77
148 140 72
67 73 83
67 73 83
67 73 82
67 73 82
67 73 82
66 72 82
66 72 82
66 72 82
66 72 81
66 72 81
66 72 81
66 72 81
66 71 81
65 71 81
65 71 81
65 71 80
65 71 80
65 71 80
65 71 80
65 70 80
64 70 80
64 70 79
64 70 79
64 70 79
64 70 79
64 70 79
64 69 79
64 69 78
63 69 78
63 69 78
63 69 78
63 69 78
63 69 78
63 68 77
63 68 77
62 68 77
62 68 77
62 68 77
62 68 77
62 68 76
62 67 76
65 70 80
65 71 80
65 71 80
65 71 80
65 71 80
65 71 81
65 71 81
66 72 81
66 72 81
66 72 81
66 72 81
66 72 82
66 72 82
66 72 82
67 73 82
67 73 82
67 73 82
67 73 83
67 73 83
67 73 83
67 73 83
68 74 83
68 74 83
68 74 84
68 74 84
68 74 84
68 74 84
68 74 84
68 75 84
69 75 85
69 75 85
69 75 85
69 75 85
69 75 85
69 75 85
69 76 85
69 76 86
70 76 86
70 76 86
70 76 86
70 76 86
70 76 86
70 76 86
70 77 87
70 77 87
71 77 87
71 77 87
71 77 87
71 77 87
71 77 87
71 77 88
71 77 88
71 78 88
71 78 88
71 78 88
72 78 88
72 78 88
72 78 88
72 78 88
72 78 89
72 78 89
72 78 89
72 79 89
72 79 89
72 79 89
72 79 89
72 79 89
64 33 50
96 45 71
114 52 83
128 57 92
139 61 100
148 65 106
155 69 111
161 71 116
166 74 119
170 76 122
173 77 124
174 78 125
156 61 107
155 61 106
153 60 105
150 59 103
147 58 101
143 56 98
138 52 89
141 63 101
131 58 94
118 53 85
101 47 74
76 37 58
73 80 90
73 80 90
73 80 90
73 80 90
73 80 90
73 80 90
73 80 90
73 80 90
73 80 90
73 80 90
73 80 90
73 80 90
73 80 90
73 80 90
73 80 90
73 80 90
73 80 90
73 80 90
73 80 90
73 80 90
73 80 90
73 80 90
73 79 90
73 79 90
73 79 90
73 79 90
73 79 90
73 79 90
73 79 89
73 79 89
73 79 89
72 79 89
72 79 89
72 79 89
72 79 89
72 79 89
72 79 89
206 190 84
222 203 88
232 212 90
240 219 92
246 224 94
250 228 95
254 231 96
255 234 97
255 235 97
255 237 98
255 237 98
255 238 98
255 237 98
255 237 98
255 236 98
255 234 98
255 232 97
253 230 97
250 228 96
246 225 95
242 221 94
238 218 93
233 213 92
228 209 91
222 203 90
215 197 88
207 191 86
198 183 84
188 174 82
177 164 79
162 151 76
139 131 70
69 75 84
68 75 84
68 74 84
68 74 84
68 74 84
68 74 84
68 74 84
68 74 83
67 74 83
67 73 83
67 73 83
67 73 83
67 73 83
67 73 82
67 73 82
67 73 82
66 72 82
66 72 82
66 72 82
66 72 81
66 72 81
66 72 81
66 71 81
65 71 81
65 71 81
65 71 80
65 71 80
65 71 80
65 71 80
65 70 80
64 70 80
64 70 79
64 70 79
64 70 79
64 70 79
64 70 79
64 69 79
63 69 78
63 69 78
63 69 78
66 72 82
66 72 82
66 72 82
67 73 82
67 73 82
67 73 83
67 73 83
67 73 83
67 73 83
67 74 83
68 74 83
68 74 84
68 74 84
68 74 84
68 74 84
68 74 84
68 75 84
69 75 85
69 75 85
69 75 85
69 75 85
69 75 85
69 76 85
69 76 86
70 76 86
70 76 86
70 76 86
70 76 86
70 76 86
70 77 87
70 77 87
71 77 87
71 77 87
71 77 87
71 77 87
71 77 88
71 78 88
71 78 88
71 78 88
72 78 88
72 78 88
72 78 88
72 78 89
72 78 89
72 79 89
72 79 89
72 79 89
72 79 89
73 79 89
73 79 90
73 79 90
73 79 90
73 79 90
73 80 90
73 80 90
73 80 90
73 80 90
73 80 90
74 80 91
74 80 91
74 80 91
74 80 91
74 80 91
74 81 91
74 81 91
74 81 91
74 81 91
62 32 49
95 44 70
113 52 83
127 57 92
138 62 100
147 65 106
155 69 111
161 72 116
166 74 119
170 76 122
172 77 124
174 78 125
155 61 107
154 61 106
153 60 105
150 59 103
146 58 101
142 55 98
140 56 92
141 63 102
131 59 95
118 53 86
101 47 75
76 38 58
66 171 201
66 171 201
66 171 201
75 82 93
75 82 93
75 82 93
75 82 93
75 82 93
75 82 93
75 82 93
75 82 93
75 82 93
75 82 93
75 82 92
75 82 92
75 82 92
75 82 92
75 82 92
75 82 92
75 82 92
75 82 92
75 81 92
75 81 92
75 81 92
75 81 92
75 81 92
75 81 92
75 81 92
74 81 92
74 81 92
74 81 91
74 81 91
74 81 91
74 81 91
74 81 91
74 81 91
197 182 82
215 197 86
226 207 89
234 214 91
241 220 92
246 224 94
250 228 95
253 230 96
255 233 96
255 234 97
255 235 97
255 236 98
255 236 98
255 236 98
255 235 98
255 234 98
255 232 97
253 231 97
251 229 96
248 226 96
244 223 95
241 220 94
237 216 93
232 212 92
227 208 91
221 203 90
214 197 88
207 191 86
199 184 85
190 176 82
180 167 80
167 156 77
151 142 73
125 119 67
70 76 86
70 76 86
70 76 86
70 76 86
69 76 86
69 76 85
69 75 85
69 75 85
69 75 85
69 75 85
69 75 85
69 75 84
68 74 84
68 74 84
68 74 84
68 74 84
68 74 84
68 74 83
68 74 83
67 73 83
67 73 83
67 73 83
67 73 83
67 73 82
67 73 82
66 72 82
66 72 82
66 72 82
66 72 81
66 72 81
66 72 81
66 72 81
65 71 81
65 71 81
65 71 80
65 71 80
65 71 80
65 71 80
65 70 80
68 74 83
68 74 84
68 74 84
68 74 84
68 74 84
68 75 84
69 75 85
69 75 85
69 75 85
69 75 85
69 75 85
69 76 85
69 76 86
70 76 86
70 76 86
70 76 86
70 76 86
70 76 87
70 77 87
71 77 87
71 77 87
71 77 87
71 77 87
71 77 88
71 78 88
71 78 88
72 78 88
72 78 88
72 78 88
72 78 89
72 78 89
72 79 89
72 79 89
72 79 89
73 79 89
73 79 90
73 79 90
73 79 90
73 80 90
73 80 90
73 80 90
73 80 90
74 80 91
74 80 91
74 80 91
74 81 91
74 81 91
74 81 91
74 81 91
74 81 92
75 81 92
75 81 92
75 81 92
75 81 92
75 82 92
75 82 92
75 82 92
75 82 93
75 82 93
75 82 93
76 82 93
76 82 93
76 82 93
76 82 93
76 83 93
76 83 93
76 83 94
59 31 47
93 44 70
112 51 82
126 57 92
138 62 99
147 65 106
154 69 111
160 72 115
165 74 119
169 76 122
172 77 124
173 78 125
155 61 106
154 60 106
152 60 104
149 59 103
146 57 100
142 55 97
135 53 93
141 63 102
131 59 95
63 163 195
61 163 194
59 162 193
67 174 205
67 174 205
67 174 205
67 174 205
67 174 205
67 174 205
67 174 205
67 174 205
67 174 205
67 173 204
67 173 204
67 173 204
67 173 204
66 173 204
77 84 95
77 84 95
77 84 95
77 84 95
77 84 94
77 84 94
77 83 94
77 83 94
77 83 94
77 83 94
76 83 94
76 83 94
76 83 94
76 83 94
76 83 94
76 83 94
76 83 94
76 83 94
76 83 93
76 83 93
76 82 93
184 171 79
205 189 84
218 200 87
227 208 89
234 214 91
240 219 92
245 223 94
248 226 95
251 229 95
253 231 96
255 232 96
255 233 97
255 234 97
255 234 97
255 234 98
255 234 98
255 232 97
253 230 97
250 228 96
248 226 96
245 224 95
242 221 94
238 218 94
234 214 93
230 210 92
225 206 91
219 201 89
213 196 88
206 190 86
199 183 85
190 176 83
181 168 80
170 158 78
156 146 75
138 131 70
72 78 88
71 78 88
71 78 88
71 78 88
71 77 88
71 77 87
71 77 87
71 77 87
70 77 87
70 77 87
70 76 86
70 76 86
70 76 86
70 76 86
70 76 86
69 76 86
69 76 85
69 75 85
69 75 85
69 75 85
69 75 85
69 75 85
68 75 84
68 74 84
68 74 84
68 74 84
68 74 84
68 74 83
68 74 83
67 73 83
67 73 83
67 73 83
67 73 83
67 73 82
67 73 82
66 72 82
66 72 82
66 72 82
66 72 81
69 75 85
69 76 85
70 76 86
70 76 86
70 76 86
70 76 86
70 76 86
70 77 87
70 77 87
71 77 87
71 77 87
71 77 87
71 77 88
71 78 88
71 78 88
72 78 88
72 78 88
72 78 88
72 78 89
72 79 89
72 79 89
72 79 89
73 79 89
73 79 90
73 79 90
73 79 90
73 80 90
73 80 90
73 80 90
74 80 91
74 80 91
74 80 91
74 81 91
74 81 91
74 81 91
74 81 92
75 81 92
75 81 92
75 81 92
75 82 92
75 82 92
75 82 93
75 82 93
75 82 93
76 82 93
76 82 93
76 83 93
76 83 93
76 83 94
76 83 94
76 83 94
76 83 94
76 83 94
77 83 94
77 83 94
77 84 94
77 84 95
77 84 95
77 84 95
77 84 95
77 84 95
77 84 95
77 84 95
78 84 95
78 84 95
78 85 96
78 85 96
55 30 45
92 44 69
112 51 82
126 57 91
137 62 99
146 65 105
154 69 111
160 72 115
165 74 119
169 76 122
171 77 124
173 78 125
154 61 106
153 60 105
152 60 104
149 59 102
145 57 100
141 55 97
66 167 200
66 167 200
65 167 199
64 166 199
63 166 198
61 165 197
68 177 209
68 177 209
68 177 209
68 177 209
68 177 208
68 177 208
68 177 208
68 177 208
68 177 208
68 177 208
68 176 208
68 176 208
68 176 208
68 176 208
67 176 208
67 176 207
67 176 207
67 176 207
67 176 207
67 175 207
67 175 207
67 175 206
67 175 206
78 85 96
78 85 96
78 85 96
78 85 96
78 85 96
78 85 96
78 85 96
78 85 96
78 85 96
78 85 96
78 84 95
137 123 42
193 179 81
208 192 85
219 201 87
227 208 89
233 213 91
238 218 92
243 221 93
246 224 94
249 227 95
250 228 95
252 230 96
253 230 96
254 231 97
255 236 101
255 245 111
255 248 114
255 239 106
252 230 98
247 226 96
245 223 95
242 221 94
239 218 94
235 215 93
231 212 92
227 208 91
222 204 90
217 199 89
211 194 87
205 188 86
197 182 84
189 175 82
181 168 80
170 159 78
158 148 75
144 135 72
122 117 67
73 80 90
73 79 90
73 79 90
73 79 89
72 79 89
72 79 89
72 79 89
72 78 89
72 78 89
72 78 88
72 78 88
71 78 88
71 78 88
71 77 88
71 77 87
71 77 87
71 77 87
71 77 87
70 77 87
70 76 86
70 76 86
70 76 86
70 76 86
70 76 86
69 76 86
69 75 85
69 75 85
69 75 85
69 75 85
69 75 85
68 75 84
68 74 84
68 74 84
68 74 84
68 74 84
68 74 83
68 74 83
67 73 83
71 77 87
71 77 87
71 77 87
71 78 88
71 78 88
71 78 88
72 78 88
72 78 88
72 78 89
72 79 89
72 79 89
72 79 89
73 79 89
73 79 90
73 79 90
73 80 90
73 80 90
73 80 90
74 80 91
74 80 91
74 80 91
74 81 91
74 81 91
74 81 91
74 81 92
75 81 92
75 81 92
75 82 92
75 82 92
75 82 93
75 82 93
75 82 93
76 82 93
76 82 93
76 83 93
76 83 94
76 83 94
76 83 94
76 83 94
77 83 94
77 84 94
77 84 95
77 84 95
77 84 95
77 84 95
77 84 95
77 84 95
78 84 95
78 85 96
78 85 96
78 85 96
78 85 96
78 85 96
78 85 96
78 85 96
79 85 97
79 86 97
79 86 97
79 86 97
79 86 97
79 86 97
79 86 97
79 86 97
79 86 97
79 86 98
79 86 98
80 87 98
50 29 42
91 44 68
111 51 81
125 57 91
136 61 99
146 65 105
153 69 111
159 72 115
164 74 119
168 76 122
171 77 124
172 78 125
153 60 105
153 60 105
151 59 104
68 170 204
68 170 204
68 170 204
67 170 204
67 170 203
66 170 203
65 169 202
64 169 202
62 168 200
69 180 212
69 180 212
69 180 212
69 180 212
69 180 212
69 180 212
69 180 212
69 180 212
69 180 212
69 179 212
69 179 211
69 179 211
69 179 211
68 179 211
68 179 211
68 179 211
68 179 211
68 179 210
68 178 210
68 178 210
68 178 210
20 49 59
20 49 58
80 87 98
80 87 98
80 87 98
80 87 98
80 87 98
80 87 98
80 87 98
80 87 98
79 86 98
79 86 98
79 86 97
178 165 78
197 181 82
209 192 85
218 200 87
225 206 89
231 211 90
236 216 92
240 219 93
243 222 93
245 224 94
247 225 95
248 226 95
249 227 96
255 233 101
255 255 129
255 255 178
255 255 188
255 255 144
255 236 107
245 223 96
241 220 94
238 218 93
235 215 93
232 212 92
228 209 91
224 205 90
219 201 89
214 196 88
208 191 87
202 186 85
195 180 84
188 174 82
179 166 80
170 158 78
159 148 75
145 137 72
128 122 68
71 65 26
74 81 92
74 81 91
74 81 91
74 81 91
74 80 91
74 80 91
74 80 91
73 80 90
73 80 90
73 80 90
73 79 90
73 79 90
73 79 89
72 79 89
72 79 89
72 79 89
72 78 89
72 78 88
72 78 88
72 78 88
71 78 88
71 78 88
71 77 87
71 77 87
71 77 87
71 77 87
70 77 87
70 76 87
70 76 86
70 76 86
70 76 86
70 76 86
69 76 86
69 75 85
69 75 85
69 75 85
69 75 85
72 79 89
72 79 89
73 79 89
73 79 89
73 79 90
73 79 90
73 80 90
73 80 90
73 80 90
74 80 91
74 80 91
74 81 91
74 81 91
74 81 91
74 81 92
75 81 92
75 81 92
75 82 92
75 82 92
75 82 93
75 82 93
76 82 93
76 82 93
76 83 93
76 83 94
76 83 94
76 83 94
77 83 94
77 83 94
77 84 94
77 84 95
77 84 95
77 84 95
77 84 95
78 84 95
78 85 96
78 85 96
78 85 96
78 85 96
78 85 96
78 85 96
79 85 97
79 86 97
79 86 97
79 86 97
79 86 97
79 86 97
79 86 97
79 86 98
80 87 98
80 87 98
80 87 98
80 87 98
80 87 98
80 87 98
80 87 99
80 87 99
80 87 99
81 88 99
81 88 99
81 88 99
81 88 99
81 88 99
81 88 100
81 88 100
81 88 100
81 88 100
42 26 37
90 43 68
110 51 81
124 57 91
136 61 98
145 65 105
152 69 110
159 72 115
164 74 118
168 76 121
170 77 123
172 78 125
70 173 208
70 173 208
69 173 208
69 173 208
69 173 208
69 173 207
68 173 207
68 173 207
67 172 206
66 172 206
64 171 205
63 171 203
70 183 215
70 183 215
70 183 215
70 183 215
70 182 215
70 182 215
70 182 215
70 182 215
70 182 215
70 182 215
69 182 215
69 182 214
69 182 214
69 182 214
69 182 214
69 182 214
69 181 214
69 181 214
21 50 59
20 50 59
20 49 59
20 49 59
20 49 58
82 89 100
82 89 100
82 89 100
82 89 100
81 89 100
81 89 100
81 88 100
81 88 100
81 88 100
81 88 100
129 116 41
182 169 79
197 182 82
208 191 85
216 198 87
223 204 88
228 209 90
232 213 91
236 216 92
239 218 92
241 220 93
243 222 94
244 223 94
246 224 95
255 238 108
255 255 160
255 255 239
255 255 243
255 255 168
255 238 112
241 220 95
237 216 93
234 214 92
231 211 92
227 208 91
224 205 90
220 201 89
215 197 88
210 193 87
205 188 86
199 183 85
192 177 83
185 171 81
177 164 80
168 156 77
157 147 75
145 137 72
131 124 69
110 106 64
76 83 93
76 83 93
76 82 93
76 82 93
75 82 93
75 82 93
75 82 92
75 82 92
75 81 92
75 81 92
74 81 92
74 81 91
74 81 91
74 80 91
74 80 91
74 80 91
73 80 90
73 80 90
73 80 90
73 79 90
73 79 90
73 79 89
72 79 89
72 79 89
72 79 89
72 78 89
72 78 88
72 78 88
71 78 88
71 78 88
71 77 88
71 77 87
71 77 87
71 77 87
70 77 87
70 77 87
70 76 86
74 80 91
74 80 91
74 81 91
74 81 91
74 81 91
74 81 92
75 81 92
75 81 92
75 82 92
75 82 92
75 82 93
75 82 93
76 82 93
76 83 93
76 83 93
76 83 94
76 83 94
76 83 94
77 83 94
77 84 94
77 84 95
77 84 95
77 84 95
77 84 95
78 84 95
78 85 96
78 85 96
78 85 96
78 85 96
78 85 96
79 85 97
79 86 97
79 86 97
79 86 97
79 86 97
79 86 97
79 86 98
80 87 98
80 87 98
80 87 98
80 87 98
80 87 99
80 87 99
80 87 99
81 88 99
81 88 99
81 88 99
81 88 99
81 88 100
81 88 100
81 88 100
81 89 100
82 89 100
82 89 100
82 89 100
82 89 101
82 89 101
82 89 101
82 89 101
82 90 101
82 90 101
82 90 101
83 90 101
83 90 102
83 90 102
83 90 102
83 90 102
83 90 102
88 43 67
109 51 81
123 57 90
135 61 98
144 65 105
152 69 110
158 71 114
163 74 118
167 76 121
170 77 123
171 78 124
42 111 131
42 111 132
42 111 132
42 112 132
42 112 133
42 112 133
42 112 133
68 175 210
68 175 209
67 174 209
65 174 208
63 173 207
71 185 218
71 185 218
71 185 218
70 185 218
70 185 218
70 185 218
70 185 218
70 185 218
70 185 218
70 185 218
70 185 218
70 184 217
70 184 217
70 184 217
70 184 217
70 184 217
21 50 60
21 50 60
21 50 60
21 50 59
20 49 59
20 49 59
20 49 58
83 91 102
83 91 102
83 91 102
83 90 102
83 90 102
83 90 102
83 90 102
83 90 102
83 90 102
83 90 102
133 119 37
183 169 79
196 181 82
205 189 84
213 196 86
219 201 87
224 205 89
228 209 90
232 212 91
234 214 91
237 216 92
238 218 92
239 219 93
241 220 94
251 230 103
255 255 137
255 255 181
255 255 177
255 255 132
245 225 102
235 215 93
232 212 92
229 210 91
226 207 91
223 204 90
219 201 89
215 198 88
211 194 87
206 189 86
200 185 85
195 180 84
188 174 82
181 168 81
174 161 79
165 154 77
155 146 75
144 136 72
131 124 69
113 109 65
54 51 27
77 84 95
77 84 95
77 84 95
77 84 95
77 83 94
77 83 94
76 83 94
76 83 94
76 83 94
76 83 93
76 82 93
76 82 93
75 82 93
75 82 93
75 82 92
75 82 92
75 81 92
75 81 92
74 81 92
74 81 91
74 81 91
74 80 91
74 80 91
74 80 91
73 80 90
73 80 90
73 79 90
73 79 90
73 79 89
73 79 89
72 79 89
72 79 89
72 78 89
72 78 88
72 78 88
71 78 88
75 82 92
75 82 93
75 82 93
76 82 93
76 82 93
76 83 93
76 83 94
76 83 94
76 83 94
77 83 94
77 84 94
77 84 95
77 84 95
77 84 95
78 84 95
78 85 96
78 85 96
78 85 96
78 85 96
78 85 96
79 85 97
79 86 97
79 86 97
79 86 97
79 86 97
79 86 98
79 86 98
80 87 98
80 87 98
80 87 98
80 87 98
80 87 99
80 87 99
81 88 99
81 88 99
81 88 99
81 88 100
81 88 100
81 88 100
81 89 100
82 89 100
82 89 100
82 89 101
82 89 101
82 89 101
82 89 101
82 90 101
83 90 101
83 90 102
83 90 102
83 90 102
83 90 102
83 90 102
83 91 102
83 91 102
84 91 103
84 91 103
84 91 103
84 91 103
84 91 103
84 91 103
84 91 103
84 92 103
84 92 104
84 92 104
85 92 104
85 92 104
85 92 104
87 43 66
108 51 80
123 57 90
134 61 98
143 65 104
151 68 110
157 71 114
162 74 118
166 75 120
169 77 123
170 77 124
42 111 131
42 111 131
42 111 132
42 111 132
42 112 132
42 112 132
42 112 133
42 112 133
42 112 133
43 113 134
43 113 134
43 113 134
43 113 134
43 114 134
43 114 135
43 114 135
71 187 221
71 187 221
71 187 221
71 187 221
71 187 221
71 187 220
71 187 220
71 187 220
71 187 220
71 187 220
21 51 61
21 51 60
21 50 60
21 50 60
21 50 60
21 50 59
21 50 59
20 49 59
20 49 58
85 92 104
85 92 104
85 92 104
85 92 104
85 92 104
85 92 104
85 92 104
85 92 104
84 92 104
84 92 104
134 118 35
155 134 41
187 151 57
202 186 83
209 192 85
215 197 86
220 201 88
224 205 89
227 208 89
229 210 90
231 212 91
233 213 91
234 214 91
235 215 92
238 217 94
246 225 102
255 234 111
252 231 109
240 220 99
232 213 93
229 209 91
226 207 90
224 205 90
221 203 89
218 200 89
214 197 88
210 193 87
206 190 86
201 185 85
196 181 84
190 176 83
184 171 81
177 165 80
170 158 78
162 151 76
152 143 74
142 134 72
129 123 69
113 109 65
60 55 23
79 86 97
79 86 97
78 85 97
78 85 96
78 85 96
78 85 96
78 85 96
78 84 96
77 84 95
77 84 95
77 84 95
77 84 95
77 84 94
77 83 94
76 83 94
76 83 94
76 83 94
76 83 93
76 82 93
76 82 93
75 82 93
75 82 93
75 82 92
75 82 92
75 81 92
75 81 92
74 81 92
74 81 91
74 81 91
74 80 91
74 80 91
74 80 90
73 80 90
73 80 90
73 79 90
73 79 90
77 83 94
77 83 94
77 84 95
77 84 95
77 84 95
77 84 95
78 84 95
78 85 96
78 85 96
78 85 96
78 85 96
78 85 96
79 86 97
79 86 97
79 86 97
79 86 97
79 86 98
80 86 98
80 87 98
80 87 98
80 87 98
80 87 99
80 87 99
81 88 99
81 88 99
81 88 99
81 88 100
81 88 100
81 88 100
82 89 100
82 89 100
82 89 101
82 89 101
82 89 101
82 89 101
82 90 101
83 90 101
83 90 102
83 90 102
83 90 102
83 90 102
83 91 102
83 91 103
84 91 103
84 91 103
84 91 103
84 91 103
84 91 103
84 92 104
84 92 104
85 92 104
85 92 104
85 92 104
85 92 104
85 92 104
85 93 105
85 93 105
85 93 105
85 93 105
86 93 105
86 93 105
86 93 105
86 93 105
86 93 106
86 94 106
86 94 106
86 94 106
86 94 106
86 43 66
107 51 80
122 56 90
133 61 97
143 65 104
150 68 109
157 71 114
161 73 117
165 75 120
168 76 122
170 77 123
42 110 131
42 111 131
42 111 131
42 111 132
42 111 132
42 111 132
42 112 132
42 112 133
42 112 133
43 112 133
43 113 133
43 113 134
43 113 134
43 113 134
43 113 134
43 114 134
43 114 135
43 114 135
43 114 135
43 114 135
43 114 135
43 115 136
43 115 136
44 115 136
44 115 136
17 47 54
21 51 61
21 51 60
21 50 60
21 50 60
21 50 60
21 50 59
21 50 59
21 49 59
20 49 58
87 94 106
87 94 106
87 94 106
86 94 106
86 94 106
86 94 106
86 94 106
86 94 106
86 93 106
116 105 41
129 119 37
163 135 48
189 149 60
198 182 82
205 188 84
210 193 85
215 197 86
218 200 87
222 203 88
224 205 89
226 207 89
227 208 90
228 209 90
229 210 90
229 210 91
230 211 91
230 211 92
229 210 92
227 208 91
225 206 90
223 204 89
221 202 89
218 200 88
215 198 88
212 195 87
209 192 86
205 189 86
201 185 85
196 181 84
191 177 83
185 172 81
179 166 80
173 161 79
166 154 77
158 147 75
149 140 73
138 131 71
126 120 68
112 108 65
60 55 21
80 87 99
80 87 98
80 87 98
80 87 98
80 87 98
79 86 98
79 86 97
79 86 97
79 86 97
79 86 97
79 85 97
78 85 96
78 85 96
78 85 96
78 85 96
78 85 96
78 84 95
77 84 95
77 84 95
77 84 95
77 84 94
77 83 94
76 83 94
76 83 94
76 83 94
76 83 93
76 82 93
76 82 93
75 82 93
75 82 93
75 82 92
75 81 92
75 81 92
74 81 92
74 81 91
74 81 91
78 85 96
78 85 96
78 85 96
78 85 96
79 86 97
79 86 97
79 86 97
79 86 97
79 86 98
80 87 98
80 87 98
80 87 98
80 87 98
80 87 99
80 88 99
81 88 99
81 88 99
81 88 100
81 88 100
81 88 100
82 89 100
82 89 100
82 89 101
82 89 101
82 89 101
82 90 101
83 90 101
83 90 102
83 90 102
83 90 102
83 90 102
83 91 102
84 91 103
84 91 103
84 91 103
84 91 103
84 91 103
84 92 104
84 92 104
85 92 104
85 92 104
85 92 104
85 92 104
85 93 105
85 93 105
85 93 105
86 93 105
86 93 105
86 93 105
86 93 106
86 94 106
86 94 106
86 94 106
86 94 106
87 94 106
87 94 106
87 94 107
87 94 107
87 95 107
87 95 107
87 95 107
87 95 107
87 95 107
88 95 107
88 95 108
88 95 108
88 95 108
88 96 108
84 42 65
106 50 79
121 56 89
133 61 97
142 65 103
150 68 109
156 71 113
161 73 117
164 75 119
167 76 121
169 77 123
42 110 130
42 110 131
42 110 131
42 111 131
42 111 131
42 111 132
42 111 132
42 112 132
42 112 132
42 112 133
43 112 133
43 112 133
43 113 133
43 113 134
43 113 134
43 113 134
43 113 134
43 114 134
43 114 135
43 114 135
43 114 135
43 114 135
43 114 135
43 114 136
44 115 136
17 47 54
21 51 61
21 51 60
21 50 60
21 50 60
21 50 60
21 50 59
21 50 59
21 49 59
21 49 59
88 96 108
88 96 108
88 96 108
88 96 108
88 96 108
88 95 108
88 95 108
88 95 108
88 95 107
118 107 41
126 117 37
140 129 39
186 146 60
193 178 81
199 184 83
205 188 84
209 192 85
213 195 86
216 198 87
218 200 87
220 202 88
221 203 88
222 204 89
223 204 89
223 204 89
223 204 89
222 204 89
222 203 89
220 202 89
219 201 88
217 199 88
215 197 87
212 195 87
210 193 86
206 190 86
203 187 85
199 184 84
195 180 83
190 176 82
185 172 81
180 167 80
174 162 79
168 156 77
161 150 76
153 143 74
144 136 72
134 127 70
123 117 67
109 105 64
59 54 20
82 89 100
82 89 100
81 88 100
81 88 100
81 88 100
81 88 99
81 88 99
80 88 99
80 87 99
80 87 98
80 87 98
80 87 98
80 87 98
79 86 98
79 86 97
79 86 97
79 86 97
79 86 97
79 85 97
78 85 96
78 85 96
78 85 96
78 85 96
78 84 95
77 84 95
77 84 95
77 84 95
77 84 95
77 83 94
77 83 94
76 83 94
76 83 94
76 83 93
76 82 93
76 82 93
75 82 93
79 86 98
80 86 98
80 87 98
80 87 98
80 87 98
80 87 99
80 87 99
81 88 99
81 88 99
81 88 100
81 88 100
81 88 100
82 89 100
82 89 100
82 89 101
82 89 101
82 89 101
82 90 101
83 90 101
83 90 102
83 90 102
83 90 102
83 91 102
83 91 103
84 91 103
84 91 103
84 91 103
84 92 103
84 92 104
85 92 104
85 92 104
85 92 104
85 92 104
85 93 105
85 93 105
85 93 105
86 93 105
86 93 105
86 93 106
86 94 106
86 94 106
86 94 106
87 94 106
87 94 106
87 94 107
87 95 107
87 95 107
87 95 107
87 95 107
88 95 107
88 95 108
88 95 108
88 96 108
88 96 108
88 96 108
88 96 108
88 96 108
88 96 109
89 96 109
89 96 109
89 97 109
89 97 109
89 97 109
89 97 109
89 97 109
89 97 110
89 97 110
89 97 110
83 42 64
105 50 79
120 56 89
132 61 97
141 65 103
149 68 108
155 70 113
160 73 116
164 74 119
166 76 121
168 76 122
42 110 130
42 110 130
42 110 130
42 110 131
42 111 131
42 111 131
42 111 132
42 111 132
42 111 132
42 112 132
43 112 133
43 112 133
43 112 133
43 112 133
43 113 133
43 113 134
43 113 134
43 113 134
43 113 134
43 114 134
43 114 135
43 114 135
43 114 135
43 114 135
43 114 135
17 47 54
21 51 61
21 51 60
21 51 60
21 50 60
21 50 60
21 50 59
21 50 59
21 49 59
21 49 59
90 98 110
90 97 110
90 97 110
90 97 110
89 97 110
89 97 110
89 97 110
89 97 109
89 97 109
118 107 42
123 114 36
136 125 39
146 134 41
153 141 45
194 179 81
199 183 83
203 187 84
207 190 84
210 193 85
212 195 86
214 196 86
215 197 87
216 198 87
217 199 87
217 199 87
217 199 87
216 198 87
215 198 87
214 197 87
212 195 87
211 194 86
209 192 86
206 190 85
203 187 85
200 185 84
197 182 83
193 178 83
189 175 82
185 171 81
180 167 80
174 162 79
169 157 77
162 152 76
155 146 74
148 139 73
139 132 71
130 123 69
119 114 66
105 102 63
58 53 21
39 39 25
83 90 102
83 90 102
83 90 101
82 90 101
82 89 101
82 89 101
82 89 101
82 89 100
81 89 100
81 88 100
81 88 100
81 88 99
81 88 99
81 88 99
80 87 99
80 87 99
80 87 98
80 87 98
80 87 98
79 86 98
79 86 97
79 86 97
79 86 97
79 86 97
79 85 97
78 85 96
78 85 96
78 85 96
78 85 96
78 84 95
77 84 95
77 84 95
77 84 95
77 84 95
77 83 94
81 88 99
81 88 99
81 88 100
81 88 100
81 89 100
82 89 100
82 89 101
82 89 101
82 89 101
82 90 101
83 90 101
83 90 102
83 90 102
83 90 102
83 91 102
83 91 103
84 91 103
84 91 103
84 91 103
84 92 103
84 92 104
85 92 104
85 92 104
85 92 104
85 93 105
85 93 105
85 93 105
86 93 105
86 93 105
86 93 106
86 94 106
86 94 106
86 94 106
87 94 106
87 94 107
87 95 107
87 95 107
87 95 107
87 95 107
88 95 108
88 95 108
88 96 108
88 96 108
88 96 108
88 96 108
88 96 109
89 96 109
89 96 109
89 97 109
89 97 109
89 97 109
89 97 110
89 97 110
90 97 110
90 97 110
90 98 110
90 98 110
90 98 110
90 98 111
90 98 111
90 98 111
90 98 111
91 98 111
91 98 111
91 99 111
91 99 111
91 99 112
91 99 112
81 41 63
104 50 78
119 56 88
131 61 96
140 64 102
148 67 108
154 70 112
159 72 115
163 74 118
165 75 120
167 76 121
42 109 129
42 109 130
42 110 130
42 110 130
42 110 131
42 110 131
42 111 131
42 111 131
42 111 132
42 111 132
42 112 132
43 112 132
43 112 133
43 112 133
43 112 133
43 112 133
43 113 133
43 113 134
43 113 134
43 113 134
43 113 134
43 113 134
43 114 135
43 114 135
43 114 135
21 51 61
21 51 61
21 51 60
21 51 60
21 50 60
21 50 60
21 50 59
21 50 59
21 49 59
21 49 59
91 99 112
91 99 112
91 99 112
91 99 112
91 99 112
91 99 111
91 99 111
91 99 111
91 98 111
115 105 42
117 109 34
130 120 37
140 129 39
147 136 44
153 141 45
192 178 81
197 181 82
200 184 83
203 187 84
205 189 84
207 190 85
208 192 85
209 192 85
210 193 85
210 193 86
210 193 86
209 192 86
208 192 85
207 191 85
206 189 85
204 188 85
202 186 84
200 184 84
197 182 83
194 179 83
190 176 82
187 173 81
183 169 80
178 166 79
174 161 78
168 157 77
163 152 76
156 146 75
150 141 73
142 134 71
134 127 70
124 119 68
114 109 65
101 98 62
56 52 23
39 38 25
84 92 104
84 91 103
84 91 103
84 91 103
84 91 103
83 91 102
83 90 102
83 90 102
83 90 102
83 90 102
82 90 101
82 89 101
82 89 101
82 89 101
82 89 100
82 89 100
81 88 100
81 88 100
81 88 99
81 88 99
81 88 99
80 87 99
80 87 99
80 87 98
80 87 98
80 87 98
79 86 98
79 86 97
79 86 97
79 86 97
79 86 97
79 85 97
78 85 96
78 85 96
78 85 96
82 89 101
82 89 101
82 90 101
83 90 102
83 90 102
83 90 102
83 90 102
83 91 102
84 91 103
84 91 103
84 91 103
84 91 103
84 92 104
85 92 104
85 92 104
85 92 104
85 92 104
85 93 105
85 93 105
86 93 105
86 93 105
86 93 106
86 94 106
86 94 106
87 94 106
87 94 106
87 94 107
87 95 107
87 95 107
87 95 107
88 95 107
88 95 108
88 96 108
88 96 108
88 96 108
88 96 108
89 96 109
89 96 109
89 97 109
89 97 109
89 97 109
89 97 110
89 97 110
90 97 110
90 98 110
90 98 110
90 98 111
90 98 111
90 98 111
90 98 111
91 98 111
91 99 111
91 99 111
91 99 112
91 99 112
91 99 112
91 99 112
91 99 112
92 100 112
92 100 113
92 100 113
92 100 113
92 100 113
92 100 113
92 100 113
92 100 113
92 100 113
24 27 31
79 41 62
103 50 77
118 56 88
130 60 96
139 64 102
147 67 107
153 70 111
158 72 115
162 73 117
164 75 119
166 75 120
41 109 129
42 109 129
42 109 130
42 110 130
42 110 130
42 110 130
42 110 131
42 111 131
42 111 131
42 111 131
42 111 132
42 111 132
43 112 132
43 112 132
43 112 133
43 112 133
43 112 133
43 112 133
43 113 133
43 113 134
43 113 134
43 113 134
43 113 134
43 113 134
43 114 134
22 51 61
21 51 61
21 51 60
21 51 60
21 50 60
21 50 60
21 50 59
21 50 59
21 49 59
21 49 59
93 101 114
93 101 114
93 101 114
93 100 113
92 100 113
92 100 113
92 100 113
92 100 113
92 100 113
96 91 31
112 104 33
124 115 35
134 124 38
139 128 39
147 136 44
186 172 79
190 175 80
193 178 81
196 181 82
198 183 82
200 184 83
201 185 83
202 186 83
203 187 84
203 187 84
203 187 84
202 186 84
201 186 84
200 185 83
199 183 83
197 182 83
195 180 82
193 178 82
190 176 81
187 173 81
184 170 80
180 167 79
176 164 79
172 160 78
167 156 77
162 151 76
156 146 74
150 141 73
143 135 72
136 129 70
128 122 68
119 114 66
108 105 64
64 58 21
54 51 25
40 39 26
86 93 105
85 93 105
85 93 105
85 92 104
85 92 104
85 92 104
85 92 104
84 92 104
84 91 103
84 91 103
84 91 103
84 91 103
83 91 102
83 90 102
83 90 102
83 90 102
83 90 102
82 90 101
82 89 101
82 89 101
82 89 101
82 89 100
81 89 100
81 88 100
81 88 100
81 88 99
81 88 99
81 88 99
80 87 99
80 87 98
80 87 98
80 87 98
80 87 98
79 86 98
79 86 97
83 91 102
84 91 103
84 91 103
84 91 103
84 91 103
84 92 104
85 92 104
85 92 104
85 92 104
85 93 105
85 93 105
86 93 105
86 93 105
86 93 105
86 94 106
86 94 106
86 94 106
87 94 106
87 94 107
87 95 107
87 95 107
87 95 107
88 95 107
88 95 108
88 96 108
88 96 108
88 96 108
88 96 109
89 96 109
89 97 109
89 97 109
89 97 109
89 97 110
89 97 110
90 97 110
90 98 110
90 98 110
90 98 111
90 98 111
90 98 111
91 98 111
91 99 111
91 99 112
91 99 112
91 99 112
91 99 112
92 99 112
92 100 112
92 100 113
92 100 113
92 100 113
92 100 113
92 100 113
92 100 113
93 101 114
93 101 114
93 101 114
93 101 114
93 101 114
93 101 114
93 101 114
93 101 115
93 102 115
94 102 115
94 102 115
94 102 115
94 102 115
24 27 31
78 41 61
102 49 77
117 55 87
129 60 95
139 64 101
146 67 107
152 69 111
157 71 114
161 73 117
164 74 119
165 75 120
41 109 129
41 109 129
42 109 129
42 109 129
42 109 130
42 110 130
42 110 130
42 110 130
42 110 131
42 111 131
42 111 131
42 111 131
42 111 132
43 111 132
43 112 132
43 112 132
43 112 132
43 112 133
43 112 133
43 112 133
43 113 133
43 113 133
43 113 134
43 113 134
43 113 134
22 51 61
22 51 61
21 51 61
21 51 60
21 50 60
21 50 60
21 50 59
21 50 59
21 49 59
21 49 59
94 102 115
94 102 115
94 102 115
94 102 115
94 102 115
94 102 115
94 102 115
94 102 115
93 102 115
90 86 30
105 99 32
117 109 34
127 117 36
133 123 39
138 127 39
145 128 36
182 169 79
186 172 79
189 174 80
191 176 81
193 178 81
194 179 81
195 180 82
195 180 82
196 181 82
195 180 82
195 180 82
194 179 82
193 178 82
192 177 81
190 176 81
188 174 81
186 172 80
183 169 80
180 167 79
177 164 78
173 161 78
169 158 77
165 154 76
160 150 75
155 145 74
150 141 73
144 135 71
137 129 70
130 123 68
122 116 67
112 108 65
70 63 22
63 58 25
51 48 26
41 40 27
87 95 107
87 94 107
87 94 106
86 94 106
86 94 106
86 93 106
86 93 105
86 93 105
85 93 105
85 93 105
85 92 104
85 92 104
85 92 104
84 92 104
84 92 104
84 91 103
84 91 103
84 91 103
84 91 103
83 91 102
83 90 102
83 90 102
83 90 102
83 90 101
82 90 101
82 89 101
82 89 101
82 89 100
82 89 100
81 88 100
81 88 100
81 88 99
81 88 99
81 88 99
80 87 99
85 92 104
85 92 104
85 92 104
85 93 105
85 93 105
86 93 105
86 93 105
86 94 106
86 94 106
86 94 106
87 94 106
87 94 107
87 95 107
87 95 107
87 95 107
88 95 108
88 95 108
88 96 108
88 96 108
88 96 108
89 96 109
89 96 109
89 97 109
89 97 109
89 97 110
89 97 110
90 97 110
90 98 110
90 98 110
90 98 111
90 98 111
91 98 111
91 99 111
91 99 111
91 99 112
91 99 112
91 99 112
92 99 112
92 100 112
92 100 113
92 100 113
92 100 113
92 100 113
92 100 113
93 101 114
93 101 114
93 101 114
93 101 114
93 101 114
93 101 114
93 102 115
94 102 115
94 102 115
94 102 115
94 102 115
94 102 115
94 102 116
94 102 116
94 103 116
95 103 116
95 103 116
95 103 116
95 103 116
95 103 116
95 103 117
95 103 117
95 103 117
24 27 31
76 40 60
101 49 76
116 55 87
128 60 95
138 64 101
145 67 106
151 69 110
156 71 114
160 73 116
163 74 118
164 74 119
41 108 128
41 108 128
41 109 129
42 109 129
42 109 129
42 109 129
42 110 130
42 110 130
42 110 130
42 110 130
42 110 131
42 111 131
42 111 131
42 111 131
43 111 132
43 111 132
43 111 132
43 112 132
43 112 132
43 112 133
43 112 133
43 112 133
43 112 133
43 113 133
43 113 133
22 51 61
22 51 61
22 51 61
21 51 60
21 50 60
21 50 60
21 50 59
21 50 59
21 49 59
21 49 59
96 104 117
95 104 117
95 104 117
95 104 117
95 103 117
95 103 117
95 103 116
95 103 116
95 103 116
82 78 27
99 93 31
110 103 33
119 111 35
126 117 38
132 122 39
148 133 47
149 133 44
148 131 39
147 129 35
183 170 79
185 171 79
186 172 79
187 173 80
188 174 80
188 174 80
188 174 80
187 173 80
187 173 80
186 172 80
184 171 79
182 169 79
180 167 79
178 165 78
176 163 78
173 161 77
169 158 77
166 155 76
162 151 75
158 148 74
153 144 73
148 139 72
143 134 71
137 129 70
130 123 68
123 117 67
81 72 23
76 69 26
69 63 27
60 56 28
46 45 27
41 41 28
88 96 108
88 96 108
88 95 108
88 95 108
87 95 107
87 95 107
87 95 107
87 94 107
87 94 106
87 94 106
86 94 106
86 94 106
86 93 105
86 93 105
86 93 105
85 93 105
85 93 105
85 92 104
85 92 104
85 92 104
84 92 104
84 91 103
84 91 103
84 91 103
84 91 103
83 91 102
83 90 102
83 90 102
83 90 102
83 90 101
82 90 101
82 89 101
82 89 101
82 89 100
82 89 100
86 93 106
86 94 106
86 94 106
87 94 106
87 94 107
87 95 107
87 95 107
87 95 107
88 95 107
88 95 108
88 96 108
88 96 108
88 96 108
89 96 109
89 96 109
89 97 109
89 97 109
89 97 110
89 97 110
90 97 110
90 98 110
90 98 110
90 98 111
90 98 111
91 98 111
91 99 111
91 99 112
91 99 112
91 99 112
92 99 112
92 100 112
92 100 113
92 100 113
92 100 113
92 100 113
93 101 114
93 101 114
93 101 114
93 101 114
93 101 114
93 101 114
94 102 115
94 102 115
94 102 115
94 102 115
94 102 115
94 102 116
94 103 116
95 103 116
95 103 116
95 103 116
95 103 116
95 103 117
95 103 117
95 104 117
95 104 117
96 104 117
96 104 117
96 104 117
96 104 118
96 104 118
96 104 118
96 105 118
96 105 118
96 105 118
97 105 118
97 105 118
24 27 31
74 40 59
99 49 76
115 55 86
127 60 94
137 63 100
144 66 105
151 69 110
155 71 113
159 72 115
162 73 117
163 74 118
41 108 128
41 108 128
41 108 128
41 108 128
42 109 129
42 109 129
42 109 129
42 109 129
42 110 130
42 110 130
42 110 130
42 110 130
42 110 131
42 111 131
42 111 131
42 111 131
43 111 132
43 111 132
43 111 132
43 112 132
43 112 132
43 112 132
43 112 133
43 112 133
43 112 133
16 45 54
16 45 54
22 51 61
22 51 60
21 50 60
21 50 60
21 50 60
21 50 59
21 50 59
21 49 59
97 105 119
97 105 119
97 105 119
97 105 118
97 105 118
96 105 118
96 105 118
96 105 118
96 104 118
73 71 25
91 86 29
102 96 32
111 103 33
119 111 36
125 116 38
147 133 53
150 136 52
152 137 51
152 137 49
151 135 46
150 133 42
148 131 39
146 129 36
180 167 78
180 167 78
180 167 78
180 166 78
179 166 78
178 165 78
176 164 78
175 162 77
173 161 77
170 159 76
168 156 76
165 154 75
162 151 75
158 148 74
154 145 73
150 141 72
146 137 71
141 133 70
135 128 69
95 85 25
92 82 27
87 79 29
81 74 30
75 69 31
66 61 30
55 52 29
41 40 27
42 41 28
89 97 110
89 97 110
89 97 109
89 97 109
89 96 109
89 96 109
88 96 108
88 96 108
88 96 108
88 95 108
88 95 107
87 95 107
87 95 107
87 94 107
87 94 106
87 94 106
86 94 106
86 94 106
86 93 106
86 93 105
86 93 105
85 93 105
85 93 105
85 92 104
85 92 104
85 92 104
84 92 104
84 91 103
84 91 103
84 91 103
84 91 103
83 91 102
83 90 102
83 90 102
83 90 102
87 95 107
87 95 107
88 95 108
88 95 108
88 96 108
88 96 108
88 96 109
89 96 109
89 97 109
89 97 109
89 97 109
89 97 110
90 97 110
90 98 110
90 98 110
90 98 111
90 98 111
91 98 111
91 99 111
91 99 112
91 99 112
91 99 112
92 99 112
92 100 113
92 100 113
92 100 113
92 100 113
92 100 113
93 101 114
93 101 114
93 101 114
93 101 114
93 101 114
94 102 115
94 102 115
94 102 115
94 102 115
94 102 116
94 102 116
95 103 116
95 103 116
95 103 116
95 103 116
95 103 117
95 104 117
95 104 117
96 104 117
96 104 117
96 104 118
96 104 118
96 104 118
96 105 118
96 105 118
97 105 118
97 105 119
97 105 119
97 105 119
97 105 119
97 106 119
97 106 119
97 106 119
98 106 119
98 106 120
98 106 120
98 106 120
98 106 120
98 106 120
98 106 120
72 39 58
98 49 75
115 55 86
127 59 93
136 63 100
144 66 105
150 68 109
155 70 112
158 72 115
161 73 117
162 73 118
41 107 127
41 108 127
41 108 128
41 108 128
41 108 128
42 109 129
42 109 129
42 109 129
42 109 129
42 109 130
42 110 130
42 110 130
42 110 130
42 110 130
42 110 131
42 110 131
42 111 131
43 111 131
43 111 131
43 111 132
43 111 132
43 111 132
43 112 132
43 112 132
43 112 132
16 45 54
16 44 53
16 44 53
16 44 53
22 50 60
21 50 60
21 50 60
21 50 59
21 50 59
21 49 59
98 107 120
98 107 120
98 106 120
98 106 120
98 106 120
98 106 120
98 106 120
98 106 120
97 106 119
83 77 40
82 78 27
94 89 30
104 98 33
111 104 35
117 109 36
141 129 54
145 132 55
149 135 55
151 137 56
153 139 56
154 139 55
154 139 54
153 138 52
151 136 49
149 134 47
147 131 44
145 129 42
142 126 40
140 124 38
137 122 36
135 119 35
132 117 34
130 115 33
127 112 33
124 110 32
122 108 32
119 105 32
116 103 32
113 101 33
109 98 33
106 95 34
102 92 35
97 88 35
92 84 35
86 79 35
79 73 34
70 66 33
61 57 32
49 47 30
42 41 29
43 42 29
91 99 111
91 98 111
90 98 111
90 98 111
90 98 110
90 97 110
90 97 110
89 97 110
89 97 109
89 97 109
89 96 109
89 96 109
88 96 108
88 96 108
88 96 108
88 95 108
88 95 107
87 95 107
87 95 107
87 94 107
87 94 106
87 94 106
86 94 106
86 94 106
86 93 105
86 93 105
85 93 105
85 93 105
85 92 104
85 92 104
85 92 104
84 92 104
84 92 103
84 91 103
84 91 103
88 96 109
89 96 109
89 97 109
89 97 109
89 97 110
89 97 110
90 97 110
90 98 110
90 98 111
90 98 111
90 98 111
91 99 111
91 99 111
91 99 112
91 99 112
91 99 112
92 100 112
92 100 113
92 100 113
92 100 113
92 100 113
93 101 114
93 101 114
93 101 114
93 101 114
93 101 115
94 102 115
94 102 115
94 102 115
94 102 115
94 102 116
94 103 116
95 103 116
95 103 116
95 103 116
95 103 117
95 104 117
95 104 117
96 104 117
96 104 117
96 104 118
96 104 118
96 105 118
96 105 118
97 105 118
97 105 119
97 105 119
97 105 119
97 106 119
97 106 119
97 106 119
98 106 120
98 106 120
98 106 120
98 106 120
98 107 120
98 107 120
98 107 121
98 107 121
99 107 121
99 107 121
99 107 121
99 107 121
99 107 121
99 108 121
99 108 122
99 108 122
99 108 122
70 38 57
97 48 74
114 54 85
126 59 93
135 63 99
143 66 104
149 68 108
154 70 112
157 71 114
160 72 116
162 73 117
41 107 127
41 107 127
41 107 127
41 108 127
41 108 128
41 108 128
42 108 128
42 109 129
42 109 129
42 109 129
42 109 129
42 109 129
42 110 130
42 110 130
42 110 130
42 110 130
42 110 131
42 110 131
42 111 131
43 111 131
43 111 131
43 111 131
43 111 132
43 111 132
43 111 132
16 45 54
16 44 53
16 44 53
16 44 53
15 44 53
15 44 52
21 50 60
21 50 59
21 50 59
21 49 59
99 108 122
99 108 122
99 108 122
99 108 122
99 108 121
99 108 121
99 107 121
99 107 121
99 107 121
54 49 17
72 70 25
84 80 28
95 90 32
103 97 33
109 102 34
134 122 53
138 126 54
142 129 55
145 132 56
147 134 57
149 136 57
150 137 58
151 138 58
151 138 57
151 137 57
150 137 56
149 135 55
148 134 54
146 132 53
143 130 51
141 127 50
138 125 49
135 122 48
132 120 47
129 117 46
126 114 45
122 111 44
119 108 43
115 104 43
110 100 42
105 96 41
100 92 40
95 87 39
88 82 38
81 75 37
73 69 35
65 61 34
54 52 32
43 42 29
43 42 30
92 100 113
92 100 113
92 100 112
92 99 112
91 99 112
91 99 112
91 99 112
91 99 111
91 98 111
90 98 111
90 98 111
90 98 110
90 97 110
90 97 110
89 97 110
89 97 109
89 97 109
89 96 109
88 96 109
88 96 108
88 96 108
88 95 108
88 95 108
87 95 107
87 95 107
87 95 107
87 94 107
87 94 106
86 94 106
86 94 106
86 93 106
86 93 105
86 93 105
85 93 105
85 93 105
85 92 104
90 97 110
90 98 110
90 98 110
90 98 111
90 98 111
91 99 111
91 99 111
91 99 112
91 99 112
91 99 112
92 100 112
92 100 113
92 100 113
92 100 113
93 100 113
93 101 114
93 101 114
93 101 114
93 101 114
93 102 115
94 102 115
94 102 115
94 102 115
94 102 116
94 103 116
95 103 116
95 103 116
95 103 116
95 103 117
95 104 117
96 104 117
96 104 117
96 104 118
96 104 118
96 105 118
96 105 118
97 105 118
97 105 119
97 105 119
97 105 119
97 106 119
97 106 119
98 106 120
98 106 120
98 106 120
98 106 120
98 107 120
98 107 120
98 107 121
99 107 121
99 107 121
99 107 121
99 107 121
99 108 121
99 108 122
99 108 122
100 108 122
100 108 122
100 108 122
100 108 122
100 109 122
100 109 123
100 109 123
100 109 123
100 109 123
100 109 123
101 109 123
101 109 123
68 38 55
96 48 74
113 54 84
125 59 92
134 62 99
142 65 104
148 68 108
153 69 111
156 71 113
159 72 115
161 73 116
41 107 126
41 107 126
41 107 127
41 107 127
41 107 127
41 108 128
41 108 128
41 108 128
42 108 128
42 109 129
42 109 129
42 109 129
42 109 129
42 109 129
42 109 130
42 110 130
42 110 130
42 110 130
42 110 130
42 110 131
42 110 131
43 111 131
43 111 131
43 111 131
43 111 131
16 44 53
16 44 53
16 44 53
15 44 53
15 44 52
15 44 52
22 50 60
21 50 59
21 50 59
21 49 59
101 109 123
101 109 123
101 109 123
100 109 123
100 109 123
100 109 123
100 109 123
100 109 123
100 108 122
56 55 35
61 60 23
74 72 26
86 82 29
94 89 31
100 94 33
126 115 52
130 119 53
134 122 54
137 125 55
139 127 55
141 129 56
143 131 57
144 132 57
145 132 57
145 132 57
145 132 57
144 131 57
143 131 56
142 129 56
140 128 55
138 126 54
135 124 53
133 121 52
130 119 51
127 116 50
123 113 49
119 109 48
115 105 47
111 102 45
106 97 44
101 93 43
95 88 42
89 83 40
82 77 39
75 70 37
67 63 35
58 55 33
47 46 31
44 43 30
43 43 30
93 101 114
93 101 114
93 101 114
93 101 114
92 100 113
92 100 113
92 100 113
92 100 113
92 100 112
91 99 112
91 99 112
91 99 112
91 99 111
91 98 111
90 98 111
90 98 111
90 98 110
90 98 110
90 97 110
89 97 110
89 97 109
89 97 109
89 96 109
89 96 109
88 96 108
88 96 108
88 96 108
88 95 108
88 95 107
87 95 107
87 95 107
87 94 107
87 94 106
86 94 106
86 94 106
86 94 106
91 99 111
91 99 112
91 99 112
91 99 112
92 100 112
92 100 113
92 100 113
92 100 113
92 100 113
93 101 114
93 101 114
93 101 114
93 101 114
93 102 115
94 102 115
94 102 115
94 102 115
94 102 116
94 103 116
95 103 116
95 103 116
95 103 117
95 103 117
95 104 117
96 104 117
96 104 117
96 104 118
96 104 118
96 105 118
97 105 118
97 105 119
97 105 119
97 105 119
97 106 119
97 106 119
98 106 120
98 106 120
98 106 120
98 107 120
98 107 120
98 107 121
99 107 121
99 107 121
99 107 121
99 108 121
99 108 122
99 108 122
100 108 122
100 108 122
100 108 122
100 108 122
100 109 123
100 109 123
100 109 123
100 109 123
101 109 123
101 109 123
101 109 124
101 110 124
101 110 124
101 110 124
101 110 124
101 110 124
101 110 124
102 110 124
102 110 125
102 110 125
102 111 125
65 37 54
95 48 73
112 54 84
124 58 92
133 62 98
141 65 103
147 67 107
152 69 110
155 70 113
158 71 114
160 72 116
41 106 126
41 106 126
41 107 126
41 107 127
41 107 127
41 107 127
41 107 127
41 108 128
41 108 128
42 108 128
42 108 128
42 108 128
42 109 129
42 109 129
42 109 129
42 109 129
42 109 130
42 110 130
42 110 130
42 110 130
42 110 130
42 110 130
42 110 131
42 110 131
16 45 53
16 44 53
16 44 53
16 44 53
15 44 53
15 44 52
15 43 52
15 43 52
21 50 59
21 50 59
21 49 59
102 111 125
102 110 125
102 110 125
102 110 124
102 110 124
101 110 124
101 110 124
101 110 124
101 110 124
101 110 124
50 51 22
65 64 25
76 73 27
84 80 29
90 86 31
116 107 50
121 111 51
125 115 52
128 118 53
131 120 54
133 122 54
134 123 55
135 124 55
136 125 55
136 125 55
136 125 55
136 124 55
135 124 55
134 123 55
132 121 54
131 120 53
128 118 53
126 115 52
123 113 51
120 110 50
116 107 49
113 104 48
108 100 47
104 96 45
99 92 44
94 87 43
88 82 41
82 77 40
75 71 38
68 64 37
59 57 35
49 48 32
44 44 31
44 44 31
44 43 31
94 102 116
94 102 115
94 102 115
94 102 115
94 102 115
93 101 114
93 101 114
93 101 114
93 101 114
93 101 114
92 100 113
92 100 113
92 100 113
92 100 113
92 99 112
91 99 112
91 99 112
91 99 112
91 99 111
91 98 111
90 98 111
90 98 111
90 98 110
90 97 110
89 97 110
89 97 109
89 97 109
89 97 109
89 96 109
88 96 108
88 96 108
88 96 108
88 95 108
88 95 107
87 95 107
87 95 107
92 100 113
92 100 113
92 100 113
93 101 114
93 101 114
93 101 114
93 101 114
93 101 115
94 102 115
94 102 115
94 102 115
94 102 116
94 103 116
95 103 116
95 103 116
95 103 117
95 103 117
95 104 117
96 104 117
96 104 117
96 104 118
96 105 118
96 105 118
97 105 118
97 105 119
97 105 119
97 106 119
97 106 119
98 106 120
98 106 120
98 106 120
98 107 120
98 107 120
98 107 121
99 107 121
99 107 121
99 107 121
99 108 121
99 108 122
99 108 122
100 108 122
100 108 122
100 109 122
100 109 123
100 109 123
100 109 123
101 109 123
101 109 123
101 109 124
101 110 124
101 110 124
101 110 124
101 110 124
102 110 124
102 110 124
102 110 125
102 111 125
102 111 125
102 111 125
102 111 125
102 111 125
102 111 125
103 111 126
103 111 126
103 112 126
103 112 126
103 112 126
103 112 126
62 36 52
94 47 72
111 54 83
123 58 91
132 62 97
140 64 102
146 67 106
151 69 110
155 70 112
157 71 114
159 72 115
41 106 125
41 106 125
41 106 126
41 106 126
41 107 126
41 107 127
41 107 127
41 107 127
41 107 127
41 108 128
41 108 128
42 108 128
42 108 128
42 108 128
42 109 129
42 109 129
42 109 129
42 109 129
42 109 129
42 109 130
42 110 130
42 110 130
42 110 130
42 110 130
16 44 53
16 44 53
16 44 53
15 44 53
15 44 52
15 44 52
15 43 52
15 43 52
22 50 59
21 50 59
21 49 59
103 112 126
103 112 126
103 112 126
103 112 126
103 111 126
103 111 126
102 111 125
102 111 125
102 111 125
102 111 125
36 33 13
53 54 23
65 64 25
74 71 27
81 77 29
86 82 30
112 103 49
116 107 50
119 109 51
122 112 52
124 114 52
125 115 53
126 116 53
127 117 53
128 117 53
128 117 53
127 117 53
126 116 53
125 115 53
124 114 52
122 112 52
120 111 51
118 108 50
115 106 50
112 103 49
108 100 48
105 97 47
101 93 46
96 89 44
91 85 43
86 81 42
80 75 40
74 70 39
67 64 37
59 57 35
51 49 33
45 45 32
45 44 32
44 44 31
44 43 31
95 104 117
95 103 117
95 103 117
95 103 116
95 103 116
94 103 116
94 102 116
94 102 115
94 102 115
94 102 115
93 101 115
93 101 114
93 101 114
93 101 114
93 101 114
92 100 113
92 100 113
92 100 113
92 100 113
92 99 112
91 99 112
91 99 112
91 99 112
91 99 111
91 98 111
90 98 111
90 98 111
90 98 110
90 97 110
89 97 110
89 97 109
89 97 109
89 97 109
89 96 109
88 96 108
88 96 108
93 101 114
93 101 114
94 102 115
94 102 115
94 102 115
94 102 115
94 102 116
95 103 116
95 103 116
95 103 116
95 103 117
95 104 117
96 104 117
96 104 117
96 104 118
96 104 118
96 105 118
97 105 118
97 105 119
97 105 119
97 106 119
97 106 119
98 106 120
98 106 120
98 106 120
98 107 120
98 107 120
99 107 121
99 107 121
99 107 121
99 108 121
99 108 122
99 108 122
100 108 122
100 108 122
100 109 122
100 109 123
100 109 123
100 109 123
101 109 123
101 109 123
101 110 124
101 110 124
101 110 124
101 110 124
102 110 124
102 110 125
102 111 125
102 111 125
102 111 125
102 111 125
102 111 125
103 111 126
103 111 126
103 112 126
103 112 126
103 112 126
103 112 126
103 112 126
103 112 127
103 112 127
104 112 127
104 113 127
104 113 127
104 113 127
104 113 127
104 113 127
104 113 128
100 107 121
92 47 71
110 53 83
122 58 91
132 61 97
139 64 102
145 66 106
150 68 109
154 70 111
156 71 113
158 71 114
40 105 125
41 106 125
41 106 125
41 106 126
41 106 126
41 106 126
41 107 126
41 107 127
41 107 127
41 107 127
41 107 127
41 108 127
41 108 128
42 108 128
42 108 128
42 108 128
42 109 128
42 109 129
42 109 129
42 109 129
42 109 129
42 109 129
42 109 130
42 110 130
16 44 53
16 44 53
16 44 53
15 44 53
15 44 52
15 43 52
15 43 52
22 50 60
22 50 59
22 50 59
21 49 59
24 27 31
24 27 31
104 113 127
104 113 127
104 113 127
104 113 127
104 112 127
103 112 127
103 112 127
103 112 126
46 46 34
40 42 20
53 53 23
63 62 25
89 83 43
95 89 44
102 94 47
106 98 48
109 101 49
112 104 49
114 105 50
116 107 50
117 108 51
118 109 51
118 109 51
118 109 51
118 109 51
117 108 51
116 107 51
115 106 50
113 105 50
111 103 49
109 101 49
106 99 48
103 96 47
100 93 46
96 90 45
92 86 44
88 82 43
83 78 42
78 73 40
72 68 39
65 62 37
58 56 36
50 49 34
46 45 33
45 45 32
45 45 32
45 44 32
97 105 119
97 105 118
96 105 118
96 104 118
96 104 118
96 104 117
96 104 117
95 104 117
95 103 117
95 103 116
95 103 116
95 103 116
94 102 116
94 102 115
94 102 115
94 102 115
93 102 115
93 101 114
93 101 114
93 101 114
93 101 114
92 100 113
92 100 113
92 100 113
92 100 113
92 99 112
91 99 112
91 99 112
91 99 112
91 99 111
90 98 111
90 98 111
90 98 110
90 98 110
90 97 110
89 97 110
89 97 109
94 102 115
94 103 116
95 103 116
95 103 116
95 103 117
95 103 117
95 104 117
96 104 117
96 104 118
96 104 118
96 105 118
97 105 118
97 105 119
97 105 119
97 105 119
97 106 119
98 106 119
98 106 120
98 106 120
98 107 120
98 107 120
98 107 121
99 107 121
99 107 121
99 108 121
99 108 122
99 108 122
100 108 122
100 108 122
100 109 122
100 109 123
100 109 123
101 109 123
101 109 123
101 110 124
101 110 124
101 110 124
101 110 124
102 110 124
102 110 125
102 111 125
102 111 125
102 111 125
102 111 125
103 111 126
103 111 126
103 112 126
103 112 126
103 112 126
103 112 126
103 112 127
104 112 127
104 112 127
104 113 127
104 113 127
104 113 127
104 113 128
104 113 128
104 113 128
104 113 128
105 114 128
105 114 128
105 114 128
105 114 128
105 114 129
105 114 129
105 114 129
105 114 129
100 108 122
102 108 123
109 53 82
121 57 90
131 61 96
138 64 101
144 66 105
149 68 108
153 69 111
155 70 112
157 71 114
40 105 124
40 105 124
41 105 125
41 106 125
41 106 125
41 106 126
41 106 126
41 106 126
41 107 126
41 107 126
41 107 127
41 107 127
41 107 127
41 108 127
41 108 128
42 108 128
42 108 128
42 108 128
42 108 128
42 109 129
42 109 129
42 109 129
42 109 129
42 109 129
16 44 53
16 44 53
15 44 53
15 44 52
15 44 52
15 43 52
22 50 60
22 50 59
22 50 59
22 50 59
21 49 59
24 27 31
24 27 31
105 114 129
105 114 128
105 114 128
105 114 128
105 114 128
105 113 128
104 113 128
104 113 128
104 113 128
47 47 34
58 56 36
69 66 38
78 73 40
84 79 42
91 85 45
96 89 46
99 92 47
102 95 47
104 97 48
106 99 48
108 100 49
109 100 49
109 101 49
109 101 49
109 101 49
108 100 49
107 99 49
106 98 48
104 97 48
102 95 47
100 93 47
97 91 46
94 88 45
91 85 44
87 82 43
83 78 42
79 74 41
74 70 40
69 65 39
63 60 37
56 54 36
49 48 34
46 46 33
46 45 33
46 45 33
45 45 32
45 44 32
98 106 120
98 106 120
97 106 119
97 105 119
97 105 119
97 105 119
97 105 118
96 105 118
96 104 118
96 104 118
96 104 117
96 104 117
95 104 117
95 103 117
95 103 116
95 103 116
94 103 116
94 102 116
94 102 115
94 102 115
94 102 115
93 101 115
93 101 114
93 101 114
93 101 114
93 101 113
92 100 113
92 100 113
92 100 113
92 100 112
91 99 112
91 99 112
91 99 112
91 99 111
91 98 111
90 98 111
90 98 111
95 103 117
95 104 117
96 104 117
96 104 118
96 104 118
96 105 118
97 105 118
97 105 119
97 105 119
97 106 119
97 106 119
98 106 120
98 106 120
98 106 120
98 107 120
98 107 121
99 107 121
99 107 121
99 107 121
99 108 122
99 108 122
100 108 122
100 108 122
100 109 122
100 109 123
100 109 123
101 109 123
101 109 123
101 110 124
101 110 124
101 110 124
101 110 124
102 110 124
102 110 125
102 111 125
102 111 125
102 111 125
102 111 125
103 111 126
103 112 126
103 112 126
103 112 126
103 112 126
103 112 127
104 112 127
104 113 127
104 113 127
104 113 127
104 113 128
104 113 128
104 113 128
105 113 128
105 114 128
105 114 128
105 114 128
105 114 129
105 114 129
105 114 129
105 114 129
106 115 129
106 115 129
106 115 129
106 115 130
106 115 130
106 115 130
106 115 130
106 115 130
106 115 130
101 109 123
103 110 124
104 110 125
104 110 125
105 110 126
137 63 101
143 66 105
148 67 108
152 69 110
155 70 112
156 70 113
40 104 124
40 105 124
40 105 124
40 105 125
41 105 125
41 106 125
41 106 125
41 106 126
41 106 126
41 106 126
41 107 126
41 107 126
41 107 127
41 107 127
41 107 127
41 107 127
41 108 127
42 108 128
42 108 128
42 108 128
42 108 128
42 108 128
42 109 129
42 109 129
16 44 53
16 44 53
15 44 53
15 44 52
15 43 52
22 50 60
22 50 60
22 50 59
22 50 59
22 50 59
22 49 59
24 27 31
24 27 31
106 115 130
106 115 130
106 115 130
106 115 129
106 115 129
106 115 129
105 114 129
105 114 129
105 114 129
47 46 34
46 45 33
56 54 35
65 63 38
73 69 39
78 74 41
85 80 43
89 83 44
92 86 45
94 88 46
96 90 46
98 91 46
99 92 47
99 92 47
99 93 47
99 92 47
99 92 47
98 91 46
96 90 46
95 89 46
93 87 45
91 85 45
88 83 44
85 80 43
82 77 42
78 74 42
74 70 41
69 66 39
64 62 38
59 57 37
53 52 36
47 46 34
46 46 34
46 46 34
46 46 33
46 45 33
45 45 32
24 27 31
99 107 121
99 107 121
98 107 121
98 107 120
98 106 120
98 106 120
98 106 120
97 106 119
97 105 119
97 105 119
97 105 119
97 105 118
96 105 118
96 104 118
96 104 118
96 104 117
95 104 117
95 103 117
95 103 116
95 103 116
95 103 116
94 103 116
94 102 115
94 102 115
94 102 115
94 102 115
93 101 114
93 101 114
93 101 114
93 101 114
92 100 113
92 100 113
92 100 113
92 100 113
92 100 112
91 99 112
91 99 112
96 105 118
97 105 118
97 105 119
97 105 119
97 106 119
97 106 119
98 106 120
98 106 120
98 106 120
98 107 120
98 107 121
99 107 121
99 107 121
99 108 121
99 108 122
99 108 122
100 108 122
100 108 122
100 109 123
100 109 123
100 109 123
101 109 123
101 109 123
101 110 124
101 110 124
101 110 124
102 110 124
102 110 125
102 111 125
102 111 125
102 111 125
102 111 125
103 111 126
103 112 126
103 112 126
103 112 126
103 112 127
104 112 127
104 113 127
104 113 127
104 113 127
104 113 128
104 113 128
104 113 128
105 114 128
105 114 128
105 114 128
105 114 129
105 114 129
105 114 129
105 114 129
106 115 129
106 115 129
106 115 130
106 115 130
106 115 130
106 115 130
106 115 130
106 116 130
107 116 130
107 116 131
107 116 131
107 116 131
107 116 131
107 116 131
107 116 131
107 116 131
107 116 131
107 117 131
104 111 126
105 111 126
105 111 127
106 111 127
106 112 127
106 112 127
107 112 128
107 112 128
107 112 128
107 112 128
40 104 123
40 104 123
40 104 124
40 105 124
40 105 124
40 105 125
41 105 125
41 106 125
41 106 125
41 106 125
41 106 126
41 106 126
41 106 126
41 107 126
41 107 127
41 107 127
41 107 127
41 107 127
41 107 127
41 108 127
42 108 128
42 108 128
42 108 128
42 108 128
16 44 53
15 44 53
22 51 61
22 51 60
22 51 60
22 50 60
22 50 60
22 50 59
22 50 59
22 50 59
22 49 59
24 27 31
107 116 131
107 116 131
107 116 131
107 116 131
107 116 131
107 116 130
107 116 130
106 115 130
106 115 130
106 115 130
106 115 130
47 47 35
46 46 33
52 51 35
60 58 37
66 64 38
72 68 39
77 73 42
81 76 43
84 79 43
86 81 44
88 82 45
89 84 45
90 85 46
90 85 45
90 84 45
89 83 45
88 82 44
87 81 44
85 80 44
83 78 43
81 76 43
78 74 42
75 71 41
72 69 40
68 65 40
64 62 39
59 58 37
54 53 36
49 48 35
47 47 34
47 46 34
47 46 34
46 46 34
46 46 33
46 45 33
28 26 12
24 27 31
24 27 31
24 27 31
24 27 31
99 108 121
99 107 121
99 107 121
99 107 121
98 107 120
98 107 120
98 106 120
98 106 120
97 106 119
97 106 119
97 105 119
97 105 119
97 105 118
96 105 118
96 104 118
96 104 118
96 104 117
96 104 117
95 104 117
95 103 117
95 103 116
95 103 116
95 103 116
94 102 116
94 102 115
94 102 115
94 102 115
93 101 115
93 101 114
93 101 114
93 101 114
93 101 113
92 100 113
92 100 113
97 106 119
98 106 120
98 106 120
98 106 120
98 107 120
98 107 121
99 107 121
99 107 121
99 107 121
99 108 122
99 108 122
100 108 122
100 108 122
100 109 123
100 109 123
100 109 123
101 109 123
101 109 124
101 110 124
101 110 124
101 110 124
102 110 124
102 111 125
102 111 125
102 111 125
102 111 125
103 111 126
103 112 126
103 112 126
103 112 126
103 112 126
103 112 127
104 112 127
104 113 127
104 113 127
104 113 128
104 113 128
105 113 128
105 114 128
105 114 128
105 114 129
105 114 129
105 114 129
105 114 129
106 115 129
106 115 129
106 115 130
106 115 130
106 115 130
106 115 130
106 116 130
107 116 130
107 116 131
107 116 131
107 116 131
107 116 131
107 116 131
107 116 131
107 117 131
108 117 132
108 117 132
108 117 132
108 117 132
108 117 132
108 117 132
108 117 132
108 117 132
108 118 133
108 118 133
105 112 127
106 112 127
106 112 128
107 112 128
107 113 128
107 113 129
108 113 129
108 113 129
108 113 129
108 113 129
40 104 123
40 104 123
40 104 123
40 104 124
40 104 124
40 105 124
40 105 124
40 105 124
41 105 125
41 105 125
41 106 125
41 106 125
41 106 126
41 106 126
41 106 126
41 107 126
41 107 126
41 107 127
41 107 127
41 107 127
41 107 127
41 107 127
42 108 127
42 108 128
22 51 61
22 51 61
22 51 61
22 51 60
22 51 60
22 50 60
22 50 60
22 50 59
22 50 59
22 50 59
24 27 31
24 27 31
108 117 132
108 117 132
108 117 132
108 117 132
108 117 132
108 117 132
107 117 132
107 116 131
107 116 131
107 116 131
107 116 131
24 27 31
47 47 35
46 46 34
46 46 34
53 52 36
59 57 37
64 61 38
69 66 40
72 69 41
75 71 42
79 75 44
84 80 48
88 84 51
88 84 51
84 80 48
81 76 44
78 74 43
76 72 42
75 71 41
73 69 41
71 67 40
68 65 40
65 63 39
62 60 38
58 56 37
54 53 36
49 48 35
47 47 35
47 47 35
47 47 34
47 46 34
47 46 34
46 46 34
46 46 33
28 26 12
24 27 31
24 27 31
24 27 31
24 27 31
24 27 31
24 27 31
100 108 122
100 108 122
99 108 122
99 108 122
99 108 121
99 107 121
99 107 121
98 107 121
98 107 120
98 106 120
98 106 120
98 106 120
97 106 119
97 105 119
97 105 119
97 105 119
97 105 118
96 105 118
96 104 118
96 104 117
96 104 117
95 104 117
95 103 117
95 103 116
95 103 116
95 103 116
94 102 116
94 102 115
94 102 115
94 102 115
93 102 115
93 101 114
93 101 114
98 107 120
99 107 121
99 107 121
99 107 121
99 108 121
99 108 122
100 108 122
100 108 122
100 109 122
100 109 123
100 109 123
101 109 123
101 109 123
101 110 124
101 110 124
101 110 124
102 110 124
102 111 125
102 111 125
102 111 125
102 111 125
103 111 126
103 112 126
103 112 126
103 112 126
103 112 127
104 112 127
104 113 127
104 113 127
104 113 127
104 113 128
104 113 128
105 114 128
105 114 128
105 114 129
105 114 129
105 114 129
105 114 129
106 115 129
106 115 130
106 115 130
106 115 130
106 115 130
106 115 130
107 116 130
107 116 131
107 116 131
107 116 131
107 116 131
107 116 131
107 117 131
108 117 132
108 117 132
108 117 132
108 117 132
108 117 132
108 117 132
108 117 132
108 118 133
109 118 133
109 118 133
109 118 133
109 118 133
109 118 133
109 118 133
109 118 133
109 118 134
109 119 134
109 119 134
106 113 128
107 113 128
107 113 129
108 113 129
108 114 130
108 114 130
109 114 130
109 114 130
109 114 130
109 114 130
40 103 122
40 103 122
40 104 123
40 104 123
40 104 123
40 104 123
40 104 124
40 105 124
40 105 124
40 105 124
41 105 125
41 105 125
41 106 125
41 106 125
41 106 125
41 106 126
41 106 126
41 106 126
41 107 126
41 107 126
41 107 127
41 107 127
41 107 127
41 107 127
22 51 61
22 51 61
22 51 61
22 51 60
22 51 60
22 50 60
22 50 60
22 50 59
22 50 59
22 49 59
24 27 31
109 118 133
109 118 133
109 118 133
109 118 133
109 118 133
109 118 133
108 118 133
108 118 133
108 117 132
108 117 132
108 117 132
24 27 31
24 27 31
28 26 12
47 47 35
46 46 34
46 46 34
46 46 34
53 52 37
57 55 38
60 58 38
63 61 39
68 65 42
78 75 51
90 87 62
96 92 66
89 85 60
78 75 50
70 67 43
66 64 40
64 62 39
62 60 39
60 58 38
57 56 38
54 53 37
51 50 36
48 47 35
48 47 35
47 47 35
47 47 35
47 47 35
47 47 34
47 46 34
47 46 34
46 46 34
28 26 12
24 27 31
24 27 31
24 27 31
24 27 31
24 27 31
24 27 31
24 27 31
24 27 31
24 27 31
100 109 123
100 109 123
100 109 122
100 108 122
100 108 122
99 108 122
99 108 121
99 107 121
99 107 121
98 107 121
98 107 120
98 106 120
98 106 120
98 106 120
97 106 119
97 106 119
97 105 119
97 105 119
97 105 118
96 105 118
96 104 118
96 104 118
96 104 117
95 104 117
95 103 117
95 103 116
95 103 116
95 103 116
94 102 116
94 102 115
94 102 115
99 108 122
99 108 122
100 108 122
100 108 122
100 109 123
100 109 123
101 109 123
101 109 123
101 110 124
101 110 124
101 110 124
102 110 124
102 110 125
102 111 125
102 111 125
102 111 125
103 111 126
103 112 126
103 112 126
103 112 126
103 112 127
104 112 127
104 113 127
104 113 127
104 113 127
104 113 128
105 113 128
105 114 128
105 114 128
105 114 129
105 114 129
105 114 129
106 115 129
106 115 129
106 115 130
106 115 130
106 115 130
106 115 130
107 116 130
107 116 131
107 116 131
107 116 131
107 116 131
107 116 131
108 117 132
108 117 132
108 117 132
108 117 132
108 117 132
108 117 132
108 118 133
108 118 133
109 118 133
109 118 133
109 118 133
109 118 133
109 118 133
109 118 134
109 119 134
109 119 134
110 119 134
110 119 134
110 119 134
110 119 134
110 119 134
110 119 135
110 119 135
110 119 135
110 120 135
107 114 129
107 114 130
108 114 130
109 114 130
109 115 131
109 115 131
109 115 131
110 115 131
110 115 131
110 115 131
40 103 122
40 103 122
40 103 122
40 103 122
40 104 123
40 104 123
40 104 123
40 104 123
40 104 124
40 105 124
40 105 124
40 105 124
41 105 125
41 105 125
41 106 125
41 106 125
41 106 125
41 106 126
41 106 126
41 106 126
41 106 126
41 107 126
41 107 126
41 107 127
22 51 61
22 51 61
22 51 61
22 51 60
22 51 60
22 50 60
22 50 60
22 50 59
22 50 59
22 49 59
110 119 135
110 119 134
110 119 134
110 119 134
110 119 134
110 119 134
109 119 134
109 119 134
109 118 134
109 118 134
109 118 133
109 118 133
24 27 31
24 27 31
24 27 31
28 26 12
47 47 35
46 46 34
48 48 36
48 48 36
48 48 36
48 48 36
50 50 36
53 53 38
60 58 42
71 69 52
80 78 60
79 77 59
69 67 50
60 59 42
55 54 38
53 52 37
51 50 36
48 48 36
48 48 36
48 48 36
48 47 35
48 47 35
48 47 35
47 47 35
47 47 35
47 47 35
47 47 34
47 46 34
28 26 12
28 26 12
24 27 31
24 27 31
24 27 31
24 27 31
24 27 31
24 27 31
24 27 31
24 27 31
24 27 31
24 27 31
24 27 31
101 110 124
101 109 123
101 109 123
100 109 123
100 109 123
100 109 122
100 108 122
100 108 122
99 108 122
99 108 121
99 107 121
99 107 121
99 107 121
98 107 120
98 106 120
98 106 120
98 106 120
97 106 119
97 106 119
97 105 119
97 105 119
97 105 118
96 105 118
96 104 118
96 104 118
96 104 117
95 104 117
95 103 117
95 103 116
95 103 116
100 109 123
100 109 123
101 109 123
101 109 124
101 110 124
101 110 124
101 110 124
102 110 125
102 111 125
102 111 125
102 111 125
103 111 126
103 111 126
103 112 126
103 112 126
103 112 126
104 112 127
104 113 127
104 113 127
104 113 127
104 113 128
104 113 128
105 114 128
105 114 128
105 114 129
105 114 129
105 114 129
106 115 129
106 115 129
106 115 130
106 115 130
106 115 130
106 116 130
107 116 131
107 116 131
107 116 131
107 116 131
107 116 131
107 117 132
108 117 132
108 117 132
108 117 132
108 117 132
108 117 132
108 118 133
109 118 133
109 118 133
109 118 133
109 118 133
109 118 133
109 118 134
109 119 134
109 119 134
110 119 134
110 119 134
110 119 134
110 119 135
110 119 135
110 120 135
110 120 135
110 120 135
110 120 135
111 120 135
111 120 135
111 120 135
111 120 136
111 120 136
111 120 136
111 120 136
107 114 130
108 115 131
109 115 131
109 115 131
110 115 132
110 116 132
110 116 132
111 116 132
111 116 132
111 116 132
39 102 121
40 103 121
40 103 122
40 103 122
40 103 122
40 103 122
40 104 123
40 104 123
40 104 123
40 104 123
40 104 124
40 105 124
40 105 124
40 105 124
41 105 124
41 105 125
41 105 125
41 106 125
41 106 125
41 106 125
41 106 126
41 106 126
41 106 126
41 106 126
22 51 61
22 51 61
22 51 61
22 51 60
22 51 60
22 50 60
22 50 60
22 50 59
22 50 59
104 114 129
111 120 136
111 120 135
111 120 135
111 120 135
110 120 135
110 120 135
110 120 135
110 120 135
110 119 135
110 119 135
110 119 134
110 119 134
24 27 31
24 27 31
24 27 31
24 27 31
28 26 12
48 47 35
48 47 35
48 48 36
48 48 36
48 48 36
48 48 36
48 48 36
49 48 36
50 50 38
53 53 40
54 54 42
53 52 40
50 50 38
49 48 36
48 48 36
48 48 36
48 48 36
48 48 36
48 48 35
48 47 35
48 47 35
47 47 35
47 47 35
47 47 35
47 47 35
47 47 34
28 26 12
28 26 12
24 27 31
24 27 31
24 27 31
24 27 31
24 27 31
24 27 31
24 27 31
24 27 31
24 27 31
24 27 31
24 27 31
24 27 31
102 111 125
102 110 125
101 110 124
101 110 124
101 110 124
101 109 124
101 109 123
100 109 123
100 109 123
100 109 122
100 108 122
100 108 122
99 108 122
99 108 121
99 107 121
99 107 121
99 107 121
98 107 120
98 106 120
98 106 120
98 106 120
97 106 119
97 106 119
97 105 119
97 105 119
97 105 118
96 105 118
96 104 118
96 104 118
96 104 117
101 110 124
101 110 124
102 110 124
102 110 125
102 111 125
102 111 125
102 111 125
103 111 126
103 112 126
103 112 126
103 112 126
103 112 127
104 112 127
104 113 127
104 113 127
104 113 128
104 113 128
105 114 128
105 114 128
105 114 129
105 114 129
105 114 129
106 115 129
106 115 129
106 115 130
106 115 130
106 115 130
106 116 130
107 116 131
107 116 131
107 116 131
107 116 131
107 116 131
108 117 132
108 117 132
108 117 132
108 117 132
108 117 132
108 118 133
109 118 133
109 118 133
109 118 133
109 118 133
109 118 133
109 119 134
109 119 134
110 119 134
110 119 134
110 119 134
110 119 135
110 119 135
110 120 135
110 120 135
110 120 135
111 120 135
111 120 135
111 120 136
111 120 136
111 120 136
111 121 136
111 121 136
111 121 136
111 121 136
112 121 136
112 121 136
112 121 137
112 121 137
112 121 137
112 121 137
108 115 131
109 116 132
110 116 132
110 116 132
111 116 133
111 117 133
111 117 133
111 117 133
112 117 133
112 117 133
39 102 121
39 102 121
39 102 121
40 103 121
40 103 122
40 103 122
40 103 122
40 103 122
40 104 123
40 104 123
40 104 123
40 104 123
40 104 124
40 104 124
40 105 124
40 105 124
40 105 124
41 105 124
41 105 125
41 105 125
41 106 125
41 106 125
41 106 125
41 106 125
22 51 61
22 51 61
22 51 60
22 51 60
22 50 60
22 50 60
22 50 60
22 50 59
105 115 130
105 115 130
112 121 137
112 121 136
111 121 136
111 121 136
111 121 136
111 121 136
111 120 136
111 120 136
111 120 136
111 120 135
111 120 135
111 120 135
24 27 31
24 27 31
24 27 31
24 27 31
24 27 31
24 27 31
28 26 12
46 46 33
46 46 33
46 46 33
47 46 34
47 46 34
47 46 34
47 46 34
47 47 34
47 47 34
48 47 35
48 48 36
48 48 36
48 48 36
48 48 36
48 48 35
48 48 35
48 47 35
48 47 35
48 47 35
47 47 35
47 47 35
47 47 35
28 26 12
28 26 12
28 26 12
24 27 31
24 27 31
24 27 31
24 27 31
24 27 31
24 27 31
24 27 31
24 27 31
24 27 31
24 27 31
24 27 31
24 27 31
24 27 31
24 27 31
103 111 126
102 111 125
102 111 125
102 111 125
102 110 124
101 110 124
101 110 124
101 110 124
101 109 123
101 109 123
100 109 123
100 109 123
100 109 122
100 108 122
100 108 122
99 108 122
99 108 121
99 107 121
99 107 121
98 107 121
98 107 120
98 106 120
98 106 120
98 106 120
97 106 119
97 105 119
97 105 119
97 105 119
96 105 118
102 111 125
102 111 125
102 111 125
103 111 126
103 112 126
103 112 126
103 112 126
103 112 127
104 112 127
104 113 127
104 113 127
104 113 128
104 113 128
105 114 128
105 114 128
105 114 129
105 114 129
105 114 129
106 115 129
106 115 130
106 115 130
106 115 130
106 115 130
107 116 130
107 116 131
107 116 131
107 116 131
107 116 131
108 117 132
108 117 132
108 117 132
108 117 132
108 117 132
108 118 133
109 118 133
109 118 133
109 118 133
109 118 133
109 118 134
109 119 134
109 119 134
110 119 134
110 119 134
110 119 134
110 119 135
110 120 135
110 120 135
111 120 135
111 120 135
111 120 135
111 120 136
111 120 136
111 121 136
111 121 136
111 121 136
111 121 136
112 121 137
112 121 137
112 121 137
112 121 137
112 121 137
112 122 137
112 122 137
112 122 137
112 122 137
112 122 138
113 122 138
113 122 138
113 122 138
109 116 132
110 117 132
111 117 133
111 117 133
111 117 134
112 117 134
112 117 134
112 118 134
112 118 134
112 118 134
39 101 120
39 102 120
39 102 121
39 102 121
39 102 121
40 103 121
40 103 122
40 103 122
40 103 122
40 103 122
40 103 123
40 104 123
40 104 123
40 104 123
40 104 123
40 104 124
40 105 124
40 105 124
40 105 124
40 105 124
41 105 124
41 105 125
41 105 125
41 106 125
22 51 61
22 51 61
22 51 60
22 51 60
22 50 60
22 50 60
22 50 60
106 116 131
106 116 131
106 116 131
112 122 137
112 122 137
112 122 137
112 122 137
112 122 137
112 121 137
112 121 137
112 121 137
112 121 137
112 121 136
111 121 136
111 121 136
111 121 136
24 27 31
24 27 31
24 27 31
24 27 31
24 27 31
24 27 31
27 25 10
27 25 10
46 46 33
46 46 34
46 46 34
46 46 34
46 46 34
46 46 34
46 46 34
47 46 34
47 46 34
47 46 34
47 46 34
46 46 34
46 46 34
46 46 34
46 46 33
46 46 33
46 46 33
28 26 12
28 26 12
28 26 12
28 26 12
24 27 31
24 27 31
24 27 31
24 27 31
24 27 31
24 27 31
24 27 31
24 27 31
24 27 31
24 27 31
24 27 31
24 27 31
24 27 31
24 27 31
24 27 31
24 27 31
103 112 126
103 112 126
103 112 126
103 111 126
102 111 125
102 111 125
102 111 125
102 111 125
102 110 124
101 110 124
101 110 124
101 110 124
101 109 123
101 109 123
100 109 123
100 109 123
100 108 122
100 108 122
99 108 122
99 108 122
99 108 121
99 107 121
99 107 121
98 107 121
98 107 120
98 106 120
98 106 120
98 106 119
97 106 119
103 112 126
103 112 126
103 112 126
103 112 127
104 113 127
104 113 127
104 113 127
104 113 128
105 113 128
105 114 128
105 114 128
105 114 129
105 114 129
106 114 129
106 115 129
106 115 130
106 115 130
106 115 130
106 116 130
107 116 131
107 116 131
107 116 131
107 116 131
107 117 131
108 117 132
108 117 132
108 117 132
108 117 132
108 118 133
109 118 133
109 118 133
109 118 133
109 118 133
109 118 134
109 119 134
110 119 134
110 119 134
110 119 134
110 119 135
110 119 135
110 120 135
110 120 135
111 120 135
111 120 135
111 120 136
111 120 136
111 121 136
111 121 136
111 121 136
112 121 136
112 121 137
112 121 137
112 121 137
112 122 137
112 122 137
112 122 137
112 122 137
112 122 138
113 122 138
113 122 138
113 122 138
113 122 138
113 123 138
113 123 138
113 123 138
113 123 138
113 123 139
113 123 139
113 123 139
110 117 133
111 117 133
111 118 134
112 118 134
112 118 134
112 118 135
113 118 135
113 118 135
113 118 135
113 119 135
108 119 135
39 101 120
39 101 120
39 102 120
39 102 121
39 102 121
39 102 121
40 102 121
40 103 122
40 103 122
40 103 122
40 103 122
40 103 122
40 104 123
40 104 123
40 104 123
40 104 123
40 104 123
40 104 124
40 105 124
40 105 124
40 105 124
40 105 124
41 105 124
23 51 61
22 51 61
22 51 60
22 51 60
22 50 60
22 50 60
107 117 132
107 117 132
107 117 132
107 116 132
113 123 138
113 123 138
113 123 138
113 122 138
113 122 138
113 122 138
113 122 138
112 122 138
112 122 137
112 122 137
112 122 137
112 121 137
112 121 137
112 121 137
24 27 31
24 27 31
24 27 31
24 27 31
24 27 31
24 27 31
24 27 31
27 25 10
27 25 10
27 25 10
27 25 10
46 46 33
46 46 34
46 46 34
46 46 34
46 46 33
46 46 33
46 46 33
46 46 33
46 46 33
27 25 10
27 25 10
27 25 10
27 25 10
27 25 10
28 26 12
28 26 12
24 27 31
24 27 31
24 27 31
24 27 31
24 27 31
24 27 31
24 27 31
24 27 31
24 27 31
24 27 31
24 27 31
24 27 31
24 27 31
24 27 31
24 27 31
24 27 31
104 113 128
104 113 127
104 113 127
104 112 127
103 112 127
103 112 126
103 112 126
103 112 126
103 111 126
102 111 125
102 111 125
102 111 125
102 110 125
102 110 124
101 110 124
101 110 124
101 110 124
101 109 123
100 109 123
100 109 123
100 109 123
100 108 122
100 108 122
99 108 122
99 108 121
99 107 121
99 107 121
99 107 121
98 107 120
98 106 120
104 113 127
104 113 127
104 113 127
104 113 128
105 113 128
105 114 128
105 114 128
105 114 129
105 114 129
106 114 129
106 115 129
106 115 130
106 115 130
106 115 130
107 116 130
107 116 131
107 116 131
107 116 131
107 116 131
107 117 132
108 117 132
108 117 132
108 117 132
108 117 132
108 118 133
109 118 133
109 118 133
109 118 133
109 118 133
109 119 134
109 119 134
110 119 134
110 119 134
110 119 135
110 119 135
110 120 135
110 120 135
111 120 135
111 120 135
111 120 136
111 120 136
111 121 136
111 121 136
111 121 136
112 121 137
112 121 137
112 121 137
112 122 137
112 122 137
112 122 137
112 122 137
113 122 138
113 122 138
113 122 138
113 122 138
113 123 138
113 123 138
113 123 138
113 123 139
113 123 139
114 123 139
114 123 139
114 123 139
114 123 139
114 123 139
114 124 139
114 124 139
114 124 140
114 124 140
110 118 134
111 118 134
112 118 135
112 119 135
113 119 135
113 119 136
113 119 136
114 119 136
114 119 136
114 119 136
114 119 136
109 120 136
109 120 136
109 120 136
109 120 136
109 120 136
39 102 121
39 102 121
39 102 121
40 102 121
40 103 122
40 103 122
40 103 122
40 103 122
40 103 122
40 103 123
40 104 123
40 104 123
40 104 123
40 104 123
40 104 123
40 104 124
40 104 124
40 105 124
23 51 61
22 51 61
22 51 60
22 51 60
108 118 133
108 118 133
107 117 133
107 117 133
107 117 133
107 117 132
114 123 139
114 123 139
114 123 139
114 123 139
113 123 139
113 123 139
113 123 139
113 123 138
113 123 138
113 123 138
113 122 138
113 122 138
113 122 138
112 122 138
112 122 137
24 27 31
24 27 31
24 27 31
24 27 31
19 21 24
19 21 23
18 19 22
18 19 22
27 25 10
27 25 10
27 25 10
27 25 10
27 25 10
27 25 10
27 25 10
27 25 10
27 25 10
27 25 10
27 25 10
27 25 10
27 25 10
27 25 10
27 25 10
24 27 31
24 27 31
24 27 31
24 27 31
24 27 31
24 27 31
24 27 31
24 27 31
24 27 31
24 27 31
24 27 31
24 27 31
24 27 31
24 27 31
24 27 31
24 27 31
24 27 31
24 27 31
24 27 31
105 114 129
105 114 128
105 114 128
104 113 128
104 113 128
104 113 127
104 113 127
104 112 127
103 112 127
103 112 126
103 112 126
103 111 126
103 111 126
102 111 125
102 111 125
102 111 125
102 110 124
101 110 124
101 110 124
101 110 124
101 109 123
101 109 123
100 109 123
100 109 123
100 108 122
100 108 122
99 108 122
99 108 122
99 108 121
99 107 121
104 113 128
105 114 128
105 114 128
105 114 129
105 114 129
106 114 129
106 115 129
106 115 130
106 115 130
106 115 130
107 116 130
107 116 131
107 116 131
107 116 131
107 116 131
107 117 132
108 117 132
108 117 132
108 117 132
108 117 132
108 118 133
109 118 133
109 118 133
109 118 133
109 118 134
109 119 134
110 119 134
110 119 134
110 119 134
110 119 135
110 120 135
110 120 135
111 120 135
111 120 135
111 120 136
111 120 136
111 121 136
111 121 136
111 121 136
112 121 137
112 121 137
112 121 137
112 122 137
112 122 137
112 122 137
113 122 138
113 122 138
113 122 138
113 122 138
113 123 138
113 123 138
113 123 139
113 123 139
114 123 139
114 123 139
114 123 139
114 123 139
114 124 139
114 124 139
114 124 140
114 124 140
114 124 140
114 124 140
114 124 140
115 124 140
115 124 140
115 124 140
115 124 140
115 125 140
111 118 134
112 119 135
113 119 135
113 119 136
114 120 136
114 120 136
114 120 137
114 120 137
115 120 137
115 120 137
115 120 137
109 121 137
109 121 137
109 121 137
110 121 137
110 121 137
110 121 137
110 121 137
110 121 137
110 121 137
110 121 137
40 102 121
40 103 121
40 103 122
40 103 122
40 103 122
40 103 122
40 103 122
40 103 123
40 104 123
40 104 123
40 104 123
40 104 123
40 104 123
22 51 60
22 51 61
22 51 60
108 118 134
108 118 134
108 118 134
108 118 134
108 118 133
108 118 133
108 118 133
115 124 140
114 124 140
114 124 140
114 124 140
114 124 140
114 124 139
114 124 139
114 123 139
114 123 139
114 123 139
114 123 139
113 123 139
113 123 139
113 123 138
113 123 138
113 122 138
113 122 138
19 21 24
18 20 22
18 19 22
18 19 22
18 19 22
18 19 22
18 19 22
18 19 22
18 19 22
18 19 22
27 25 10
27 25 10
27 25 10
27 25 10
27 25 10
27 25 10
27 25 10
27 25 10
18 20 22
24 27 31
24 27 31
24 27 31
24 27 31
24 27 31
24 27 31
24 27 31
24 27 31
24 27 31
24 27 31
24 27 31
24 27 31
24 27 31
24 27 31
24 27 31
24 27 31
24 27 31
24 27 31
24 27 31
24 27 31
106 115 130
106 115 129
106 114 129
105 114 129
105 114 129
105 114 128
105 114 128
105 113 128
104 113 128
104 113 127
104 113 127
104 112 127
103 112 127
103 112 126
103 112 126
103 112 126
103 111 126
102 111 125
102 111 125
102 111 125
102 110 125
102 110 124
101 110 124
101 110 124
101 109 124
101 109 123
100 109 123
100 109 123
100 109 122
100 108 122
100 108 122
105 114 129
105 114 129
106 115 129
106 115 130
106 115 130
106 115 130
106 116 130
107 116 131
107 116 131
107 116 131
107 116 131
107 117 131
108 117 132
108 117 132
108 117 132
108 117 132
108 118 133
109 118 133
109 118 133
109 118 133
109 118 134
109 119 134
110 119 134
110 119 134
110 119 134
110 119 135
110 120 135
110 120 135
111 120 135
111 120 135
111 120 136
111 121 136
111 121 136
111 121 136
112 121 136
112 121 137
112 121 137
112 122 137
112 122 137
112 122 137
113 122 138
113 122 138
113 122 138
113 122 138
113 123 138
113 123 138
113 123 139
113 123 139
114 123 139
114 123 139
114 123 139
114 124 139
114 124 139
114 124 140
114 124 140
114 124 140
115 124 140
115 124 140
115 124 140
115 124 140
115 125 140
115 125 141
115 125 141
115 125 141
115 125 141
115 125 141
115 125 141
115 125 141
116 125 141
111 119 135
113 120 136
113 120 136
114 120 137
114 120 137
115 120 137
115 120 137
115 121 138
115 121 138
115 121 138
115 121 138
110 122 138
110 122 138
110 122 138
110 122 138
110 122 138
110 122 138
110 122 138
110 122 138
110 122 138
110 122 138
110 122 138
110 122 138
110 122 138
110 122 138
110 122 138
110 122 138
40 103 122
40 103 122
40 103 122
40 103 122
40 103 123
40 104 123
40 104 123
22 51 60
22 51 60
109 119 135
109 119 135
109 119 135
109 119 134
109 119 134
109 119 134
109 119 134
109 119 134
115 125 141
115 125 141
115 125 141
115 125 140
115 124 140
115 124 140
115 124 140
114 124 140
114 124 140
114 124 140
114 124 140
114 124 139
114 124 139
114 123 139
114 123 139
114 123 139
108 117 131
107 116 130
106 115 129
18 19 22
18 19 22
18 19 22
18 19 22
18 19 22
18 19 22
18 19 22
18 19 22
18 19 22
18 19 22
18 19 22
18 19 22
18 19 22
18 19 22
18 19 22
18 19 22
18 19 22
18 19 22
19 21 23
24 27 31
24 27 31
24 27 31
24 27 31
24 27 31
24 27 31
24 27 31
24 27 31
24 27 31
24 27 31
24 27 31
24 27 31
24 27 31
24 27 31
24 27 31
24 27 31
107 116 131
107 116 131
107 116 130
106 115 130
106 115 130
106 115 130
106 115 129
106 115 129
105 114 129
105 114 129
105 114 128
105 114 128
105 113 128
104 113 128
104 113 127
104 113 127
104 113 127
104 112 127
103 112 126
103 112 126
103 112 126
103 111 126
102 111 125
102 111 125
102 111 125
102 110 125
102 110 124
101 110 124
101 110 124
101 110 124
101 109 123
101 109 123
100 109 123
106 115 130
106 115 130
106 115 130
107 116 130
107 116 131
107 116 131
107 116 131
107 117 131
108 117 132
108 117 132
108 117 132
108 117 132
108 118 133
109 118 133
109 118 133
109 118 133
109 118 134
109 119 134
110 119 134
110 119 134
110 119 134
110 119 135
110 120 135
110 120 135
111 120 135
111 120 136
111 120 136
111 121 136
111 121 136
111 121 136
112 121 137
112 121 137
112 121 137
112 122 137
112 122 137
112 122 137
113 122 138
113 122 138
113 122 138
113 123 138
113 123 138
113 123 139
113 123 139
114 123 139
114 123 139
114 123 139
114 124 139
114 124 140
114 124 140
114 124 140
114 124 140
115 124 140
115 124 140
115 125 140
115 125 141
115 125 141
115 125 141
115 125 141
115 125 141
115 125 141
116 125 141
116 125 141
116 125 141
116 126 142
116 126 142
116 126 142
116 126 142
116 126 142
116 126 142
112 120 136
113 120 137
114 120 137
114 121 137
115 121 138
115 121 138
115 121 138
116 121 138
116 121 138
116 121 139
116 121 139
111 122 138
111 122 138
111 122 138
111 122 138
111 122 138
111 122 138
111 122 138
111 122 138
111 122 138
111 122 138
111 122 138
111 122 138
111 122 138
111 122 138
111 122 138
111 122 138
111 122 138
111 122 138
111 122 138
111 122 138
111 122 138
40 103 122
40 103 122
22 51 60
110 120 135
110 120 135
110 120 135
109 120 135
109 120 135
109 119 135
109 119 135
109 119 135
109 119 135
116 125 141
116 125 141
116 125 141
115 125 141
115 125 141
115 125 141
115 125 141
115 125 141
115 125 141
115 125 140
115 124 140
115 124 140
115 124 140
114 124 140
114 124 140
109 118 132
108 117 131
107 116 130
107 116 130
107 116 130
107 115 130
107 115 129
18 19 22
18 19 22
18 19 22
18 19 22
18 19 22
18 19 22
18 19 22
18 19 22
18 19 22
18 19 22
18 19 22
18 19 22
18 19 22
18 19 22
18 19 22
18 19 22
18 20 23
24 27 31
24 27 31
24 27 31
24 27 31
24 27 31
24 27 31
24 27 31
24 27 31
24 27 31
24 27 31
24 27 31
24 27 31
24 27 31
108 117 132
108 117 132
108 117 132
107 117 132
107 116 131
107 116 131
107 116 131
107 116 131
106 116 130
106 115 130
106 115 130
106 115 130
106 115 129
105 114 129
105 114 129
105 114 129
105 114 128
105 114 128
104 113 128
104 113 128
104 113 127
104 113 127
104 112 127
103 112 127
103 112 126
103 112 126
103 111 126
102 111 125
102 111 125
102 111 125
102 111 125
102 110 124
101 110 124
101 110 124
101 110 124
107 116 131
107 116 131
107 116 131
107 116 131
108 117 132
108 117 132
108 117 132
108 117 132
108 118 133
109 118 133
109 118 133
109 118 133
109 118 133
109 119 134
109 119 134
110 119 134
110 119 134
110 119 135
110 120 135
110 120 135
111 120 135
111 120 135
111 120 136
111 121 136
111 121 136
111 121 136
112 121 137
112 121 137
112 121 137
112 122 137
112 122 137
112 122 138
113 122 138
113 122 138
113 122 138
113 123 138
113 123 138
113 123 139
114 123 139
114 123 139
114 123 139
114 124 139
114 124 140
114 124 140
114 124 140
115 124 140
115 124 140
115 124 140
115 125 140
115 125 141
115 125 141
115 125 141
115 125 141
115 125 141
116 125 141
116 125 141
116 126 142
116 126 142
116 126 142
116 126 142
116 126 142
116 126 142
116 126 142
116 126 142
116 126 142
117 126 142
117 126 143
117 127 143
117 127 143
112 120 136
114 121 137
114 121 138
115 121 138
115 122 138
116 122 139
116 122 139
116 122 139
116 122 139
117 122 139
117 122 139
111 123 139
111 123 139
111 123 139
111 123 139
111 123 139
111 123 139
111 123 139
111 123 139
111 123 139
111 123 139
111 123 139
111 123 139
111 123 139
111 123 139
111 123 139
111 123 139
111 123 139
111 123 139
111 123 139
111 123 139
111 123 139
111 123 139
111 123 139
110 120 136
110 120 136
110 120 136
110 120 136
110 120 136
110 120 136
110 120 136
110 120 136
110 120 136
110 120 135
116 126 142
116 126 142
116 126 142
116 126 142
116 126 142
116 126 142
116 126 142
116 125 141
116 125 141
115 125 141
115 125 141
115 125 141
115 125 141
110 119 133
108 117 131
109 118 132
109 117 132
108 117 131
108 116 131
107 116 131
107 116 130
107 116 130
107 116 130
107 116 130
107 115 130
107 115 130
18 19 22
18 19 22
18 19 22
18 19 22
18 19 22
18 19 22
18 19 22
18 19 22
18 19 22
18 19 22
18 19 22
18 19 22
18 19 22
18 19 22
19 21 24
24 27 31
24 27 31
24 27 31
24 27 31
24 27 31
24 27 31
24 27 31
24 27 31
109 119 134
109 118 133
109 118 133
109 118 133
109 118 133
108 117 133
108 117 132
108 117 132
108 117 132
108 117 132
107 116 131
107 116 131
107 116 131
107 116 131
107 116 130
106 115 130
106 115 130
106 115 130
106 115 129
105 114 129
105 114 129
105 114 129
105 114 128
105 114 128
104 113 128
104 113 128
104 113 127
104 113 127
104 112 127
103 112 127
103 112 126
103 112 126
103 111 126
103 111 125
102 111 125
102 111 125
102 111 125
102 110 124
107 117 131
108 117 132
108 117 132
108 117 132
108 117 132
108 118 133
109 118 133
109 118 133
109 118 133
109 118 134
109 119 134
110 119 134
110 119 134
110 119 135
110 119 135
110 120 135
111 120 135
111 120 135
111 120 136
111 120 136
111 121 136
111 121 136
112 121 136
112 121 137
112 121 137
112 122 137
112 122 137
112 122 138
113 122 138
113 122 138
113 122 138
113 123 138
113 123 138
113 123 139
114 123 139
114 123 139
114 123 139
114 124 139
114 124 140
114 124 140
114 124 140
115 124 140
115 124 140
115 125 140
115 125 141
115 125 141
115 125 141
115 125 141
115 125 141
116 125 141
116 125 141
116 126 142
116 126 142
116 126 142
116 126 142
116 126 142
116 126 142
116 126 142
117 126 142
117 126 143
117 127 143
117 127 143
117 127 143
117 127 143
117 127 143
117 127 143
117 127 143
117 127 143
117 127 143
113 121 137
114 121 138
115 122 138
116 122 139
116 122 139
116 122 139
117 122 140
117 123 140
117 123 140
117 123 140
117 123 140
112 124 140
112 124 140
112 124 140
112 124 140
112 124 140
112 124 140
112 124 140
112 124 140
112 124 140
112 124 140
112 124 140
112 124 140
112 124 140
112 124 140
112 124 140
112 124 140
112 123 140
112 123 140
112 123 140
112 123 140
112 123 140
112 123 139
112 123 139
110 121 136
110 121 136
111 121 137
111 121 137
111 121 137
111 121 136
110 121 136
110 121 136
110 121 136
110 120 136
117 127 143
117 127 143
117 127 143
117 126 143
117 126 142
116 126 142
116 126 142
116 126 142
116 126 142
116 126 142
116 126 142
116 126 142
116 125 141
110 119 134
109 118 132
109 118 133
109 118 133
109 118 133
109 118 132
108 117 131
108 117 131
108 116 131
108 116 131
107 116 131
107 116 130
107 116 130
107 116 130
107 116 130
107 115 130
107 115 129
106 115 129
106 115 129
18 19 22
18 19 22
18 19 22
18 19 22
18 19 22
18 19 22
18 19 22
18 19 22
18 20 23
19 21 24
24 27 31
111 120 136
111 120 136
111 120 135
110 120 135
110 120 135
110 119 135
110 119 134
110 119 134
110 119 134
109 119 134
109 118 133
109 118 133
109 118 133
109 118 133
108 118 133
108 117 132
108 117 132
108 117 132
108 117 132
107 116 131
107 116 131
107 116 131
107 116 131
107 116 130
106 115 130
106 115 130
106 115 130
106 115 129
105 114 129
105 114 129
105 114 129
105 114 128
105 114 128
104 113 128
104 113 128
104 113 127
104 113 127
104 112 127
103 112 127
103 112 126
103 112 126
103 111 126
103 111 126
102 111 125
108 117 132
108 117 132
108 118 133
109 118 133
109 118 133
109 118 133
109 119 134
109 119 134
110 119 134
110 119 134
110 119 135
110 120 135
110 120 135
111 120 135
111 120 136
111 120 136
111 121 136
111 121 136
112 121 136
112 121 137
112 121 137
112 122 137
112 122 137
112 122 137
113 122 138
113 122 138
113 122 138
113 123 138
113 123 138
113 123 139
114 123 139
114 123 139
114 123 139
114 124 139
114 124 140
114 124 140
114 124 140
115 124 140
115 124 140
115 125 140
115 125 141
115 125 141
115 125 141
115 125 141
116 125 141
116 125 141
116 126 142
116 126 142
116 126 142
116 126 142
116 126 142
116 126 142
117 126 142
117 126 143
117 127 143
117 127 143
117 127 143
117 127 143
117 127 143
117 127 143
117 127 143
117 127 143
117 127 144
118 127 144
118 127 144
118 128 144
118 128 144
118 128 144
118 128 144
113 121 138
115 122 138
115 122 139
116 122 139
117 123 140
117 123 140
117 123 140
117 123 140
118 123 140
118 123 141
118 123 141
112 124 140
112 124 140
112 124 140
112 124 140
112 124 140
112 124 140
112 124 140
112 124 140
112 124 140
112 124 140
112 124 140
112 124 140
112 124 140
112 124 140
112 124 140
112 124 140
112 124 140
112 124 140
112 124 140
112 124 140
112 124 140
112 124 140
112 124 140
111 121 137
111 121 137
111 121 137
111 121 137
111 121 137
111 121 137
111 121 137
111 121 137
111 121 137
111 121 137
117 127 143
117 127 143
117 127 143
117 127 143
117 127 143
117 127 143
117 127 143
117 127 143
117 126 143
117 126 142
116 126 142
116 126 142
111 120 135
110 119 134
109 118 133
110 119 133
110 119 133
110 118 133
109 118 133
109 118 133
109 118 133
108 117 132
108 117 131
108 117 131
108 117 131
108 116 131
108 116 131
107 116 130
107 116 130
107 116 130
107 116 130
107 115 130
107 115 130
106 115 129
106 115 129
106 115 129
106 115 129
106 114 129
106 114 128
106 114 128
105 114 128
106 114 128
106 115 129
112 121 136
111 121 136
111 121 136
111 120 136
111 120 136
111 120 135
110 120 135
110 120 135
110 119 135
110 119 134
110 119 134
110 119 134
109 119 134
109 118 133
109 118 133
109 118 133
109 118 133
108 118 133
108 117 132
108 117 132
108 117 132
108 117 132
107 116 131
107 116 131
107 116 131
107 116 131
107 116 130
106 115 130
106 115 130
106 115 130
106 115 129
105 114 129
105 114 129
105 114 129
105 114 128
105 114 128
104 113 128
104 113 128
104 113 127
104 113 127
104 112 127
103 112 127
103 112 126
103 112 126
109 118 133
109 118 133
109 118 134
109 119 134
110 119 134
110 119 134
110 119 134
110 119 135
110 120 135
110 120 135
111 120 135
111 120 136
111 120 136
111 121 136
111 121 136
112 121 136
112 121 137
112 121 137
112 122 137
112 122 137
112 122 138
113 122 138
113 122 138
113 123 138
113 123 138
113 123 139
114 123 139
114 123 139
114 123 139
114 124 139
114 124 140
114 124 140
114 124 140
115 124 140
115 124 140
115 125 140
115 125 141
115 125 141
115 125 141
115 125 141
116 125 141
116 125 141
116 126 142
116 126 142
116 126 142
116 126 142
116 126 142
116 126 142
117 126 143
117 127 143
117 127 143
117 127 143
117 127 143
117 127 143
117 127 143
117 127 143
117 127 144
118 127 144
118 128 144
118 128 144
118 128 144
118 128 144
118 128 144
118 128 144
118 128 144
118 128 144
118 128 145
118 128 145
118 128 145
114 122 138
115 122 139
116 123 140
117 123 140
117 123 140
117 123 141
118 124 141
118 124 141
118 124 141
118 124 141
118 124 141
113 125 141
113 125 141
113 125 141
113 125 141
113 125 141
113 125 141
113 125 141
113 125 141
113 125 141
113 125 141
113 125 141
113 125 141
113 125 141
113 125 141
113 125 141
113 125 141
113 125 141
113 125 141
113 125 141
113 124 141
113 124 141
113 124 141
113 124 141
111 122 137
111 122 137
112 122 138
112 122 138
112 122 138
112 122 138
111 122 138
111 122 138
111 122 137
111 122 137
118 128 144
118 128 144
118 128 144
118 128 144
118 127 144
117 127 144
117 127 143
117 127 143
117 127 143
117 127 143
117 127 143
111 121 135
110 119 134
110 119 133
110 119 134
110 119 134
110 119 134
110 119 134
110 119 134
110 119 133
110 119 133
110 119 133
109 118 133
109 118 133
108 117 132
108 117 131
108 117 131
108 117 131
108 117 131
108 116 131
107 116 131
107 116 130
107 116 130
107 116 130
107 116 130
107 115 130
107 115 129
106 115 129
106 115 129
106 115 129
106 115 129
106 114 128
107 116 130
112 122 137
112 121 137
112 121 137
112 121 136
111 121 136
111 121 136
111 120 136
111 120 136
111 120 135
110 120 135
110 120 135
110 119 135
110 119 134
110 119 134
110 119 134
109 119 134
109 118 133
109 118 133
109 118 133
109 118 133
108 117 133
108 117 132
108 117 132
108 117 132
108 117 132
107 116 131
107 116 131
107 116 131
107 116 131
106 116 130
106 115 130
106 115 130
106 115 130
106 115 129
105 114 129
105 114 129
105 114 129
105 114 128
105 113 128
104 113 128
104 113 128
104 113 127
104 113 127
104 112 127
109 119 134
110 119 134
110 119 134
110 119 134
110 119 135
110 120 135
111 120 135
111 120 135
111 120 136
111 120 136
111 121 136
111 121 136
112 121 137
112 121 137
112 121 137
112 122 137
112 122 137
113 122 138
113 122 138
113 122 138
113 123 138
113 123 138
113 123 139
114 123 139
114 123 139
114 124 139
114 124 139
114 124 140
114 124 140
115 124 140
115 124 140
115 125 140
115 125 141
115 125 141
115 125 141
115 125 141
116 125 141
116 125 141
116 126 142
116 126 142
116 126 142
116 126 142
116 126 142
117 126 142
117 126 143
117 127 143
117 127 143
117 127 143
117 127 143
117 127 143
117 127 143
117 127 144
118 127 144
118 128 144
118 128 144
118 128 144
118 128 144
118 128 144
118 128 144
118 128 144
118 128 145
118 128 145
118 128 145
119 129 145
119 129 145
119 129 145
119 129 145
119 129 145
119 129 145
114 122 138
116 123 140
116 123 140
117 124 141
117 124 141
118 124 141
118 124 141
118 124 142
119 124 142
119 124 142
119 124 142
113 125 142
113 125 142
113 125 142
113 125 142
113 125 142
113 125 142
113 125 142
113 125 142
113 125 142
113 125 142
113 125 142
113 125 142
113 125 142
113 125 142
113 125 142
113 125 142
113 125 142
113 125 141
113 125 141
113 125 141
113 125 141
113 125 141
113 125 141
112 122 138
112 122 138
112 123 138
112 122 138
112 122 138
112 122 138
112 122 138
112 122 138
112 122 138
112 122 138
118 128 145
118 128 145
118 128 144
118 128 144
118 128 144
118 128 144
118 128 144
118 128 144
118 128 144
118 127 144
112 121 136
112 121 136
111 120 135
110 119 134
110 119 134
111 120 135
111 120 134
111 120 134
110 119 134
110 119 134
110 119 134
110 119 134
110 119 134
110 119 133
110 119 133
109 118 133
109 118 133
109 118 133
108 117 132
108 117 131
108 117 131
108 117 131
108 116 131
107 116 131
107 116 130
107 116 130
107 116 130
107 116 130
107 115 130
107 115 129
106 115 129
106 115 129
107 115 130
107 116 130
112 122 138
112 122 137
112 122 137
112 121 137
112 121 137
112 121 136
111 121 136
111 121 136
111 120 136
111 120 136
111 120 135
110 120 135
110 120 135
110 119 135
110 119 134
110 119 134
109 119 134
109 119 134
109 118 133
109 118 133
109 118 133
108 118 133
108 117 132
108 117 132
108 117 132
108 117 132
107 117 131
107 116 131
107 116 131
107 116 131
107 116 130
106 115 130
106 115 130
106 115 130
106 115 129
106 115 129
105 114 129
105 114 129
105 114 128
105 114 128
105 113 128
104 113 128
104 113 127
110 119 135
110 119 135
110 120 135
111 120 135
111 120 135
111 120 136
111 121 136
111 121 136
112 121 136
112 121 137
112 121 137
112 122 137
112 122 137
112 122 137
113 122 138
113 122 138
113 122 138
113 123 138
113 123 139
113 123 139
114 123 139
114 123 139
114 124 139
114 124 140
114 124 140
114 124 140
115 124 140
115 124 140
115 125 141
115 125 141
115 125 141
115 125 141
116 125 141
116 125 141
116 126 142
116 126 142
116 126 142
116 126 142
116 126 142
117 126 142
117 126 143
117 127 143
117 127 143
117 127 143
117 127 143
117 127 143
117 127 143
118 127 144
118 128 144
118 128 144
118 128 144
118 128 144
118 128 144
118 128 144
118 128 145
118 128 145
118 128 145
119 129 145
119 129 145
119 129 145
119 129 145
119 129 145
119 129 145
119 129 145
119 129 146
119 129 146
119 129 146
119 129 146
119 129 146
114 123 139
116 123 140
117 124 141
117 124 141
118 124 141
118 124 142
119 125 142
119 125 142
119 125 142
119 125 142
119 125 142
114 126 142
114 126 142
114 126 142
114 126 142
114 126 142
114 126 142
114 126 142
114 126 142
114 126 142
114 126 142
114 126 142
114 126 142
114 126 142
114 126 142
114 126 142
114 126 142
114 126 142
114 126 142
114 126 142
114 125 142
114 125 142
114 125 142
113 125 142
112 123 139
112 123 139
113 123 139
113 123 139
112 123 139
112 123 139
112 123 139
112 123 139
112 123 139
112 122 138
119 129 145
119 129 145
119 129 145
119 129 145
118 128 145
118 128 145
118 128 145
118 128 144
118 128 144
118 128 144
113 122 137
112 122 137
111 120 135
111 120 135
111 120 135
111 120 135
111 120 135
111 120 135
111 120 135
111 120 135
111 120 134
111 120 134
110 119 134
110 119 134
110 119 134
110 119 134
110 119 134
110 119 133
110 118 133
109 118 133
109 118 133
109 118 132
109 118 132
108 117 131
108 117 131
108 116 131
108 116 131
107 116 130
107 116 130
107 116 130
107 116 130
107 115 130
107 116 130
107 115 130
108 116 131
113 122 138
113 122 138
112 122 137
112 122 137
112 122 137
112 121 137
112 121 137
112 121 136
111 121 136
111 121 136
111 120 136
111 120 135
111 120 135
110 120 135
110 120 135
110 119 135
110 119 134
110 119 134
109 119 134
109 118 134
109 118 133
109 118 133
109 118 133
108 118 133
108 117 132
108 117 132
108 117 132
108 117 132
107 117 131
107 116 131
107 116 131
107 116 131
107 116 130
106 115 130
106 115 130
106 115 130
106 115 129
106 115 129
105 114 129
105 114 129
105 114 128
105 114 128
111 120 135
111 120 135
111 120 136
111 121 136
111 121 136
112 121 136
112 121 137
112 121 137
112 122 137
112 122 137
112 122 137
113 122 138
113 122 138
113 123 138
113 123 138
113 123 139
113 123 139
114 123 139
114 123 139
114 124 139
114 124 140
114 124 140
115 124 140
115 124 140
115 125 140
115 125 141
115 125 141
115 125 141
115 125 141
116 125 141
116 126 142
116 126 142
116 126 142
116 126 142
116 126 142
116 126 142
117 126 143
117 127 143
117 127 143
117 127 143
117 127 143
117 127 143
117 127 143
118 127 144
118 128 144
118 128 144
118 128 144
118 128 144
118 128 144
118 128 144
118 128 145
118 128 145
119 128 145
119 129 145
119 129 145
119 129 145
119 129 145
119 129 145
119 129 146
119 129 146
119 129 146
119 129 146
119 129 146
119 130 146
120 130 146
120 130 146
120 130 146
120 130 146
120 130 146
120 130 146
116 124 141
117 124 141
118 124 142
118 125 142
119 125 142
119 125 142
119 125 143
119 125 143
120 125 143
120 125 143
114 126 143
114 126 143
114 126 143
114 126 143
114 126 143
114 126 143
114 126 143
114 126 143
114 126 143
114 126 143
114 126 143
114 126 143
114 126 143
114 126 143
114 126 143
114 126 143
114 126 143
114 126 143
114 126 142
114 126 142
114 126 142
114 126 142
114 126 142
113 123 139
113 123 140
113 123 140
113 123 139
113 123 139
113 123 139
113 123 139
113 123 139
113 123 139
113 123 139
119 129 146
119 129 146
119 129 145
119 129 145
119 129 145
119 129 145
119 129 145
119 129 145
119 128 145
118 128 145
113 122 137
111 121 135
111 120 135
111 120 135
111 120 135
112 121 136
112 121 136
111 120 135
111 120 135
111 120 135
111 120 135
111 120 135
111 120 135
111 120 135
111 120 135
111 120 135
111 120 135
111 119 134
110 119 134
110 119 134
110 119 133
110 118 133
109 118 133
109 118 133
109 118 133
109 118 132
109 118 132
109 117 132
108 117 132
108 117 132
108 117 131
108 117 131
108 116 131
107 116 131
108 117 131
113 123 138
113 123 138
113 122 138
113 122 138
113 122 138
112 122 137
112 122 137
112 121 137
112 121 137
112 121 137
111 121 136
111 121 136
111 120 136
111 120 136
111 120 135
111 120 135
110 120 135
110 119 135
110 119 134
110 119 134
110 119 134
109 119 134
109 118 133
109 118 133
109 118 133
109 118 133
108 118 133
108 117 132
108 117 132
108 117 132
108 117 132
107 116 131
107 116 131
107 116 131
107 116 131
107 116 130
106 115 130
106 115 130
106 115 130
106 115 129
105 114 129
105 114 129
111 121 136
111 121 136
112 121 136
112 121 137
112 121 137
112 122 137
112 122 137
112 122 137
113 122 138
113 122 138
113 123 138
113 123 138
113 123 139
114 123 139
114 123 139
114 123 139
114 124 139
114 124 140
114 124 140
115 124 140
115 124 140
115 125 140
115 125 141
115 125 141
115 125 141
115 125 141
116 125 141
116 126 142
116 126 142
116 126 142
116 126 142
116 126 142
117 126 142
117 127 143
117 127 143
117 127 143
117 127 143
117 127 143
117 127 143
118 127 144
118 128 144
118 128 144
118 128 144
118 128 144
118 128 144
118 128 144
118 128 145
118 128 145
119 129 145
119 129 145
119 129 145
119 129 145
119 129 145
119 129 145
119 129 146
119 129 146
119 129 146
119 129 146
120 130 146
120 130 146
120 130 146
120 130 146
120 130 146
120 130 146
120 130 147
120 130 147
120 130 147
120 130 147
120 130 147
120 130 147
117 124 141
118 125 142
118 125 142
119 125 142
119 125 143
119 125 143
120 126 143
120 126 143
120 126 143
120 126 143
115 127 143
115 127 143
115 127 143
115 127 143
115 127 143
115 127 143
115 127 143
115 127 143
115 127 143
115 127 143
115 127 143
115 127 143
115 127 143
115 127 143
115 127 143
115 127 143
115 126 143
114 126 143
114 126 143
114 126 143
114 126 143
114 126 143
114 126 143
113 124 140
113 124 140
113 124 140
113 124 140
113 124 140
113 124 140
113 124 140
113 124 140
113 123 140
113 123 139
120 130 146
120 130 146
119 129 146
119 129 146
119 129 146
119 129 146
119 129 146
119 129 145
119 129 145
113 123 138
112 121 136
112 121 136
112 121 136
111 121 136
111 121 136
112 121 136
112 121 136
112 121 136
112 121 136
112 121 136
112 121 136
111 120 135
111 120 135
111 120 135
112 121 135
112 121 136
112 121 136
111 120 135
111 120 134
110 119 134
110 119 134
110 119 134
110 119 133
110 119 133
110 118 133
109 118 133
109 118 133
109 118 133
109 118 132
109 118 132
109 117 132
108 117 132
108 117 131
108 117 131
109 117 132
108 117 132
114 123 139
113 123 139
113 123 138
113 123 138
113 122 138
113 122 138
113 122 138
112 122 137
112 122 137
112 121 137
112 121 137
112 121 136
111 121 136
111 121 136
111 120 136
111 120 136
111 120 135
110 120 135
110 120 135
110 119 135
110 119 134
110 119 134
109 119 134
109 118 134
109 118 133
109 118 133
109 118 133
108 118 133
108 117 132
108 117 132
108 117 132
108 117 132
107 117 131
107 116 131
107 116 131
107 116 131
107 116 130
106 115 130
106 115 130
106 115 130
106 115 129
112 121 137
112 121 137
112 122 137
112 122 137
112 122 137
113 122 138
113 122 138
113 122 138
113 123 138
113 123 139
113 123 139
114 123 139
114 123 139
114 124 139
114 124 140
114 124 140
115 124 140
115 124 140
115 125 140
115 125 141
115 125 141
115 125 141
116 125 141
116 125 141
116 126 142
116 126 142
116 126 142
116 126 142
116 126 142
117 126 142
117 127 143
117 127 143
117 127 143
117 127 143
117 127 143
117 127 144
118 127 144
118 128 144
118 128 144
118 128 144
118 128 144
118 128 144
118 128 145
118 128 145
119 129 145
119 129 145
119 129 145
119 129 145
119 129 145
119 129 146
119 129 146
119 129 146
119 129 146
119 130 146
120 130 146
120 130 146
120 130 146
120 130 146
120 130 147
120 130 147
120 130 147
120 130 147
120 130 147
120 130 147
120 130 147
120 131 147
120 131 147
121 131 147
121 131 147
121 131 147
117 125 142
118 125 142
119 125 143
119 126 143
120 126 143
120 126 143
120 126 144
120 126 144
120 126 144
121 126 144
115 127 144
115 127 144
115 127 144
115 127 144
115 127 144
115 127 144
115 127 144
115 127 144
115 127 144
115 127 144
115 127 144
115 127 144
115 127 144
115 127 144
115 127 144
115 127 144
115 127 144
115 127 143
115 127 143
115 127 143
115 127 143
115 127 143
115 127 143
113 124 140
114 124 141
114 124 140
114 124 140
114 124 140
114 124 140
114 124 140
113 124 140
113 124 140
113 124 140
120 130 147
120 130 147
120 130 146
120 130 146
120 130 146
120 130 146
120 130 146
119 129 146
119 129 146
114 123 138
112 122 137
112 121 136
112 121 136
112 121 136
112 121 136
112 121 136
112 121 137
112 121 136
112 121 136
112 121 136
112 121 136
112 121 136
112 121 136
112 121 136
112 121 136
112 121 136
112 121 136
111 120 135
111 120 135
111 120 135
111 120 134
110 119 134
110 119 134
110 119 134
110 119 134
110 119 133
110 119 133
109 118 133
109 118 133
109 118 133
109 118 132
109 118 132
109 117 132
108 117 132
108 116 131
109 118 132
114 124 139
114 123 139
114 123 139
113 123 139
113 123 139
113 123 138
113 122 138
113 122 138
113 122 138
112 122 137
112 122 137
112 122 137
112 121 137
112 121 137
111 121 136
111 121 136
111 120 136
111 120 136
111 120 135
111 120 135
110 120 135
110 119 135
110 119 134
110 119 134
110 119 134
109 119 134
109 118 133
109 118 133
109 118 133
109 118 133
108 118 133
108 117 132
108 117 132
108 117 132
108 117 132
107 116 131
107 116 131
107 116 131
107 116 131
107 116 130
106 115 130
112 122 137
112 122 137
113 122 138
113 122 138
113 122 138
113 123 138
113 123 139
113 123 139
114 123 139
114 123 139
114 124 139
114 124 140
114 124 140
115 124 140
115 124 140
115 125 140
115 125 141
115 125 141
115 125 141
116 125 141
116 125 141
116 126 142
116 126 142
116 126 142
116 126 142
116 126 142
117 126 142
117 127 143
117 127 143
117 127 143
117 127 143
117 127 143
117 127 144
118 127 144
118 128 144
118 128 144
118 128 144
118 128 144
118 128 145
118 128 145
119 128 145
119 129 145
119 129 145
119 129 145
119 129 145
119 129 146
119 129 146
119 129 146
119 129 146
120 130 146
120 130 146
120 130 146
120 130 146
120 130 146
120 130 147
120 130 147
120 130 147
120 130 147
120 130 147
120 131 147
120 131 147
121 131 147
121 131 147
121 131 147
121 131 148
121 131 148
121 131 148
121 131 148
121 131 148
121 131 148
117 125 142
118 125 143
119 126 143
120 126 143
120 126 144
120 126 144
121 126 144
121 126 144
121 126 144
121 127 144
115 127 144
115 127 144
115 127 144
115 127 144
115 127 144
115 127 144
115 127 144
115 127 144
115 127 144
115 127 144
115 127 144
115 127 144
115 127 144
115 127 144
115 127 144
115 127 144
115 127 144
115 127 144
115 127 144
115 127 144
115 127 144
115 127 144
115 127 144
114 124 140
114 125 141
114 125 141
114 125 141
114 125 141
114 124 141
114 124 141
114 124 140
114 124 140
114 124 140
120 130 147
120 130 147
120 130 147
120 130 147
120 130 147
120 130 147
120 130 146
120 130 146
120 130 146
114 124 139
113 122 137
112 122 137
112 122 137
112 122 137
112 122 137
112 121 136
113 122 137
113 122 137
113 122 137
112 122 137
112 121 136
112 121 136
112 121 136
112 121 136
112 121 136
112 121 136
112 121 136
111 121 135
111 120 135
111 120 135
111 120 135
111 120 135
111 120 134
111 120 134
110 119 134
110 119 134
110 119 134
110 119 134
110 119 133
110 118 133
109 118 133
109 118 133
109 118 132
109 118 132
108 117 132
109 118 133
109 118 133
114 124 140
114 124 139
114 124 139
114 123 139
114 123 139
113 123 139
113 123 138
113 123 138
113 122 138
113 122 138
112 122 138
112 122 137
112 122 137
112 121 137
112 121 137
112 121 136
111 121 136
111 121 136
111 120 136
111 120 135
111 120 135
110 120 135
110 120 135
110 119 135
110 119 134
110 119 134
109 119 134
109 118 134
109 118 133
109 118 133
109 118 133
108 118 133
108 117 132
108 117 132
108 117 132
108 117 132
107 117 131
107 116 131
107 116 131
107 116 131
113 122 138
113 122 138
113 123 138
113 123 138
113 123 139
114 123 139
114 123 139
114 124 139
114 124 140
114 124 140
114 124 140
115 124 140
115 124 140
115 125 141
115 125 141
115 125 141
115 125 141
116 125 141
116 126 142
116 126 142
116 126 142
116 126 142
116 126 142
117 126 142
117 127 143
117 127 143
117 127 143
117 127 143
117 127 143
117 127 144
118 127 144
118 128 144
118 128 144
118 128 144
118 128 144
118 128 145
118 128 145
119 129 145
119 129 145
119 129 145
119 129 145
119 129 145
119 129 146
119 129 146
119 129 146
119 130 146
120 130 146
120 130 146
120 130 146
120 130 146
120 130 147
120 130 147
120 130 147
120 130 147
120 130 147
120 131 147
121 131 147
121 131 147
121 131 147
121 131 148
121 131 148
121 131 148
121 131 148
121 131 148
121 131 148
121 131 148
121 131 148
121 131 148
121 131 148
121 132 148
118 125 142
119 126 143
119 126 143
120 126 144
120 126 144
121 127 144
121 127 144
121 127 145
121 127 145
121 127 145
116 128 145
116 128 145
116 128 145
116 128 145
116 128 145
116 128 145
116 128 145
116 128 145
116 128 145
116 128 145
116 128 145
116 128 145
116 128 145
116 128 144
116 128 144
116 128 144
116 128 144
116 128 144
115 128 144
115 128 144
115 127 144
115 127 144
115 127 144
115 125 141
114 125 141
114 125 141
114 125 141
114 125 141
114 125 141
114 125 141
114 125 141
114 125 141
114 125 141
121 131 147
121 131 147
121 131 147
120 131 147
120 130 147
120 130 147
120 130 147
120 130 147
115 124 139
113 123 138
113 123 137
113 122 137
113 122 137
113 122 137
113 122 137
112 122 137
113 122 137
113 122 137
113 122 137
113 122 137
113 122 137
113 122 137
112 122 137
112 121 136
112 121 136
112 121 136
112 121 136
112 121 136
112 121 136
111 121 135
111 120 135
111 120 135
111 120 135
111 120 135
111 120 135
111 120 134
110 119 134
110 119 134
110 119 134
110 119 134
110 119 133
110 119 133
109 118 133
109 118 133
109 117 132
110 119 133
110 118 133
115 124 140
115 124 140
114 124 140
114 124 140
114 124 139
114 123 139
114 123 139
113 123 139
113 123 138
113 123 138
113 122 138
113 122 138
113 122 138
112 122 137
112 122 137
112 121 137
112 121 137
112 121 136
111 121 136
111 121 136
111 120 136
111 120 136
111 120 135
110 120 135
110 120 135
110 119 135
110 119 134
110 119 134
110 119 134
109 119 134
109 118 133
109 118 133
109 118 133
109 118 133
108 117 132
108 117 132
108 117 132
108 117 132
108 117 132
107 116 131
113 123 138
113 123 139
114 123 139
114 123 139
114 123 139
114 124 139
114 124 140
114 124 140
115 124 140
115 124 140
115 125 140
115 125 141
115 125 141
115 125 141
116 125 141
116 126 141
116 126 142
116 126 142
116 126 142
116 126 142
117 126 142
117 127 143
117 127 143
117 127 143
117 127 143
117 127 143
117 127 144
118 127 144
118 128 144
118 128 144
118 128 144
118 128 144
118 128 145
118 128 145
119 129 145
119 129 145
119 129 145
119 129 145
119 129 145
119 129 146
119 129 146
119 129 146
120 130 146
120 130 146
120 130 146
120 130 146
120 130 147
120 130 147
120 130 147
120 130 147
120 130 147
120 131 147
121 131 147
121 131 147
121 131 147
121 131 148
121 131 148
121 131 148
121 131 148
121 131 148
121 131 148
121 131 148
121 131 148
121 132 148
121 132 148
122 132 148
122 132 148
122 132 149
122 132 149
122 132 149
118 126 143
119 126 143
120 126 144
120 127 144
121 127 144
121 127 145
121 127 145
121 127 145
122 127 145
122 127 145
116 128 145
116 128 145
116 128 145
116 128 145
116 128 145
116 128 145
116 128 145
116 128 145
116 128 145
116 128 145
116 128 145
116 128 145
116 128 145
116 128 145
116 128 145
116 128 145
116 128 145
116 128 145
116 128 145
116 128 145
116 128 145
116 128 145
116 128 144
115 125 142
115 125 142
115 125 142
115 125 142
115 125 142
115 125 141
115 125 141
114 125 141
114 125 141
114 125 141
121 131 148
121 131 148
121 131 148
121 131 148
121 131 147
121 131 147
121 131 147
120 131 147
116 125 140
114 123 138
114 123 138
114 123 138
114 123 138
113 123 138
113 123 137
114 123 138
114 123 138
113 123 138
113 122 138
113 122 137
113 122 137
113 122 137
113 122 137
113 122 137
113 122 137
112 122 137
112 121 136
112 121 136
112 121 136
112 121 136
112 121 136
112 121 136
111 120 135
111 120 135
111 120 135
111 120 135
111 120 135
111 120 134
110 119 134
110 119 134
110 119 134
110 119 134
110 119 133
109 118 133
109 118 132
110 119 134
110 119 134
115 125 141
115 125 140
115 124 140
115 124 140
114 124 140
114 124 140
114 124 139
114 123 139
114 123 139
114 123 139
113 123 139
113 123 138
113 123 138
113 122 138
113 122 138
112 122 137
112 122 137
112 122 137
112 121 137
112 121 137
111 121 136
111 121 136
111 120 136
111 120 136
111 120 135
111 120 135
110 120 135
110 119 135
110 119 134
110 119 134
110 119 134
109 119 134
109 118 134
109 118 133
109 118 133
109 118 133
108 118 133
108 117 132
108 117 132
108 117 132
114 123 139
114 123 139
114 124 139
114 124 140
114 124 140
115 124 140
115 124 140
115 125 140
115 125 141
115 125 141
115 125 141
116 125 141
116 125 141
116 126 142
116 126 142
116 126 142
116 126 142
117 126 142
117 126 143
117 127 143
117 127 143
117 127 143
117 127 143
117 127 143
118 127 144
118 128 144
118 128 144
118 128 144
118 128 144
118 128 145
118 128 145
119 129 145
119 129 145
119 129 145
119 129 145
119 129 145
119 129 146
119 129 146
119 129 146
120 130 146
120 130 146
120 130 146
120 130 146
120 130 147
120 130 147
120 130 147
120 130 147
120 131 147
121 131 147
121 131 147
121 131 147
121 131 148
121 131 148
121 131 148
121 131 148
121 131 148
121 131 148
121 131 148
121 132 148
121 132 148
122 132 148
122 132 149
122 132 149
122 132 149
122 132 149
122 132 149
122 132 149
122 132 149
122 132 149
122 132 149
118 126 143
119 126 144
120 127 144
121 127 145
121 127 145
121 127 145
122 127 145
122 127 145
122 128 145
122 128 146
116 128 145
116 128 145
116 128 145
116 128 145
116 129 145
116 129 145
116 129 145
116 129 145
116 128 145
116 128 145
116 128 145
116 128 145
116 128 145
116 128 145
116 128 145
116 128 145
116 128 145
116 128 145
116 128 145
116 128 145
116 128 145
116 128 145
116 128 145
115 126 142
115 126 142
115 126 142
115 126 142
115 126 142
115 125 142
115 125 142
115 125 142
115 125 142
115 125 141
121 132 148
121 131 148
121 131 148
121 131 148
121 131 148
121 131 148
121 131 148
121 131 148
116 126 140
115 124 139
115 124 138
114 124 138
114 124 138
114 123 138
114 123 138
115 124 138
114 124 138
114 123 138
114 123 138
114 123 138
114 123 138
113 122 138
113 122 137
113 122 137
113 122 137
113 122 137
113 122 137
112 122 137
112 121 136
112 121 136
112 121 136
112 121 136
112 121 136
112 121 136
111 121 135
111 120 135
111 120 135
111 120 135
111 120 135
111 120 134
110 119 134
110 119 134
110 119 134
110 119 133
111 120 134
110 119 134
110 119 134
115 125 141
115 125 141
115 125 141
115 125 140
115 124 140
115 124 140
114 124 140
114 124 140
114 124 139
114 124 139
114 123 139
114 123 139
113 123 139
113 123 138
113 123 138
113 122 138
113 122 138
112 122 137
112 122 137
112 122 137
112 121 137
112 121 137
112 121 136
111 121 136
111 121 136
111 120 136
111 120 135
111 120 135
110 120 135
110 120 135
110 119 135
110 119 134
110 119 134
109 119 134
109 118 134
109 118 133
109 118 133
109 118 133
108 118 133
108 117 132
114 124 139
114 124 140
114 124 140
115 124 140
115 124 140
115 125 141
115 125 141
115 125 141
115 125 141
116 125 141
116 126 142
116 126 142
116 126 142
116 126 142
116 126 142
117 126 142
117 127 143
117 127 143
117 127 143
117 127 143
117 127 143
118 127 144
118 128 144
118 128 144
118 128 144
118 128 144
118 128 144
118 128 145
119 128 145
119 129 145
119 129 145
119 129 145
119 129 145
119 129 146
119 129 146
119 129 146
120 130 146
120 130 146
120 130 146
120 130 146
120 130 147
120 130 147
120 130 147
120 130 147
120 131 147
121 131 147
121 131 147
121 131 148
121 131 148
121 131 148
121 131 148
121 131 148
121 131 148
121 131 148
121 132 148
121 132 148
122 132 148
122 132 149
122 132 149
122 132 149
122 132 149
122 132 149
122 132 149
122 132 149
122 132 149
122 132 149
122 132 149
122 132 149
122 133 149
122 133 149
118 126 143
120 127 144
120 127 145
121 127 145
121 127 145
122 128 145
122 128 146
122 128 146
122 128 146
122 128 146
117 129 146
117 129 146
117 129 146
117 129 146
117 129 146
117 129 146
117 129 146
117 129 146
117 129 146
117 129 146
117 129 146
117 129 146
117 129 146
117 129 146
117 129 146
116 129 146
116 129 146
116 129 145
116 129 145
116 129 145
116 128 145
116 128 145
116 128 145
115 126 142
115 126 142
115 126 142
115 126 142
115 126 142
115 126 142
115 126 142
115 126 142
115 126 142
115 125 142
122 132 149
122 132 148
121 132 148
121 132 148
121 131 148
121 131 148
121 131 148
121 131 148
117 126 141
115 125 139
115 125 139
115 124 139
115 124 139
115 124 139
115 124 138
115 124 139
115 124 139
115 124 139
115 124 139
114 124 138
114 123 138
114 123 138
114 123 138
113 123 138
113 122 138
113 122 137
113 122 137
113 122 137
113 122 137
113 122 137
112 121 137
112 121 136
112 121 136
112 121 136
112 121 136
112 121 136
111 121 135
111 120 135
111 120 135
111 120 135
111 120 135
111 120 134
110 119 134
110 119 134
111 120 135
111 120 135
111 120 134
116 126 142
116 125 141
115 125 141
115 125 141
115 125 141
115 125 141
115 124 140
115 124 140
114 124 140
114 124 140
114 124 139
114 124 139
114 123 139
114 123 139
113 123 139
113 123 138
113 123 138
113 122 138
113 122 138
112 122 138
112 122 137
112 122 137
112 121 137
112 121 137
112 121 136
111 121 136
111 121 136
111 120 136
111 120 135
111 120 135
110 120 135
110 120 135
110 119 135
110 119 134
110 119 134
109 119 134
109 118 134
109 118 133
109 118 133
109 118 133
115 124 140
115 124 140
115 125 140
115 125 141
115 125 141
115 125 141
116 125 141
116 125 141
116 126 142
116 126 142
116 126 142
116 126 142
117 126 142
117 126 143
117 127 143
117 127 143
117 127 143
117 127 143
117 127 144
118 127 144
118 128 144
118 128 144
118 128 144
118 128 144
118 128 145
118 128 145
119 129 145
119 129 145
119 129 145
119 129 145
119 129 146
119 129 146
119 129 146
120 130 146
120 130 146
120 130 146
120 130 146
120 130 147
120 130 147
120 130 147
120 130 147
120 131 147
121 131 147
121 131 147
121 131 148
121 131 148
121 131 148
121 131 148
121 131 148
121 131 148
121 132 148
121 132 148
122 132 148
122 132 149
122 132 149
122 132 149
122 132 149
122 132 149
122 132 149
122 132 149
122 132 149
122 132 149
122 132 149
122 133 149
122 133 149
122 133 150
122 133 150
123 133 150
123 133 150
123 133 150
123 133 150
123 133 150
121 127 145
121 128 145
122 128 146
122 128 146
122 128 146
122 128 146
122 128 146
123 128 146
117 129 146
117 129 146
117 129 146
117 129 146
117 129 146
117 129 146
117 129 146
117 129 146
117 129 146
117 129 146
117 129 146
117 129 146
117 129 146
117 129 146
117 129 146
117 129 146
117 129 146
117 129 146
117 129 146
117 129 146
117 129 146
117 129 146
116 129 146
116 126 143
116 126 143
116 126 143
116 126 143
115 126 143
115 126 142
115 126 142
115 126 142
115 126 142
122 132 149
122 132 149
122 132 149
122 132 149
122 132 149
122 132 148
122 132 148
121 132 148
121 131 148
118 127 141
116 125 140
116 125 139
116 125 139
116 125 139
115 125 139
117 126 140
116 126 140
115 124 139
115 125 139
115 124 139
115 124 139
115 124 139
115 124 138
114 124 138
114 123 138
114 123 138
114 123 138
113 123 138
113 122 137
113 122 137
113 122 137
113 122 137
113 122 137
112 122 137
112 121 136
112 121 136
112 121 136
112 121 136
112 121 136
111 121 135
111 120 135
111 120 135
111 120 135
111 120 134
111 120 135
111 120 135
111 120 135
111 120 135
111 120 135
116 126 142
116 126 142
116 125 141
116 125 141
115 125 141
115 125 141
115 125 141
115 124 140
115 124 140
114 124 140
114 124 140
114 124 139
114 124 139
114 123 139
114 123 139
113 123 139
113 123 138
113 123 138
113 122 138
113 122 138
113 122 138
112 122 137
112 122 137
112 121 137
112 121 137
112 121 136
111 121 136
111 121 136
111 120 136
111 120 135
111 120 135
110 120 135
110 120 135
110 119 135
110 119 134
110 119 134
109 119 134
109 119 134
109 118 133
115 125 140
115 125 141
115 125 141
115 125 141
116 125 141
116 126 141
116 126 142
116 126 142
116 126 142
116 126 142
117 126 142
117 127 143
117 127 143
117 127 143
117 127 143
117 127 143
118 127 144
118 128 144
118 128 144
118 128 144
118 128 144
118 128 144
118 128 145
119 128 145
119 129 145
119 129 145
119 129 145
119 129 145
119 129 146
119 129 146
119 130 146
120 130 146
120 130 146
120 130 146
120 130 147
120 130 147
120 130 147
120 130 147
120 131 147
121 131 147
121 131 147
121 131 148
121 131 148
121 131 148
121 131 148
121 131 148
121 131 148
121 132 148
121 132 148
122 132 148
122 132 149
122 132 149
122 132 149
122 132 149
122 132 149
122 132 149
122 132 149
122 132 149
122 133 149
122 133 149
122 133 149
122 133 150
123 133 150
123 133 150
123 133 150
123 133 150
123 133 150
123 133 150
123 133 150
123 133 150
123 133 150
123 133 150
123 133 150
123 133 150
122 128 146
122 128 146
122 128 146
123 128 146
123 128 147
123 128 147
117 129 146
117 129 146
117 129 146
117 129 146
117 129 146
117 129 146
117 129 146
117 129 146
117 129 146
117 129 146
117 129 146
117 129 146
117 129 146
117 129 146
117 129 146
117 129 146
117 129 146
117 129 146
117 129 146
117 129 146
117 129 146
117 129 146
117 129 146
116 127 143
116 127 143
116 127 143
116 126 143
116 126 143
116 126 143
116 126 143
116 126 143
122 133 149
122 132 149
122 132 149
122 132 149
122 132 149
122 132 149
122 132 149
122 132 149
122 132 149
122 132 149
118 128 142
118 127 141
117 126 140
117 126 140
116 126 140
116 125 139
117 126 141
117 126 141
117 126 140
116 125 139
116 125 139
116 125 139
115 125 139
115 124 139
115 124 139
115 124 139
115 124 138
114 123 138
114 123 138
114 123 138
114 123 138
113 122 137
113 122 137
113 122 137
113 122 137
113 122 137
112 122 137
112 121 136
112 121 136
112 121 136
112 121 136
112 121 136
111 120 135
111 120 135
110 119 134
112 121 136
112 121 136
111 121 135
111 120 135
111 120 135
116 126 142
116 126 142
116 126 142
116 126 142
116 125 141
116 125 141
115 125 141
115 125 141
115 125 141
115 124 140
115 124 140
114 124 140
114 124 140
114 124 139
114 124 139
114 123 139
114 123 139
113 123 139
113 123 138
113 123 138
113 122 138
113 122 138
113 122 138
112 122 137
112 122 137
112 121 137
112 121 137
112 121 136
111 121 136
111 121 136
111 120 136
111 120 136
111 120 135
110 120 135
110 120 135
110 119 135
110 119 134
110 119 134
109 119 134
115 125 141
115 125 141
116 125 141
116 126 142
116 126 142
116 126 142
116 126 142
116 126 142
117 126 143
117 127 143
117 127 143
117 127 143
117 127 143
117 127 143
118 127 144
118 128 144
118 128 144
118 128 144
118 128 144
118 128 145
118 128 145
119 129 145
119 129 145
119 129 145
119 129 145
119 129 146
119 129 146
119 129 146
120 130 146
120 130 146
120 130 146
120 130 147
120 130 147
120 130 147
120 130 147
120 131 147
121 131 147
121 131 147
121 131 147
121 131 148
121 131 148
121 131 148
121 131 148
121 131 148
121 132 148
121 132 148
122 132 148
122 132 149
122 132 149
122 132 149
122 132 149
122 132 149
122 132 149
122 132 149
122 132 149
122 133 149
122 133 149
122 133 150
123 133 150
123 133 150
123 133 150
123 133 150
123 133 150
123 133 150
123 133 150
123 133 150
123 133 150
123 133 150
123 133 150
123 133 150
123 133 150
123 134 150
123 134 150
123 134 151
123 134 151
123 134 151
123 134 151
123 134 151
123 134 151
123 134 151
117 130 147
117 130 147
117 130 147
117 130 147
117 130 147
117 130 147
117 130 147
117 130 147
117 130 147
117 130 147
117 130 147
117 130 147
117 130 147
117 130 147
117 130 147
117 130 146
117 129 146
117 129 146
117 129 146
117 129 146
117 129 146
117 129 146
117 129 146
116 127 143
116 127 143
116 127 143
116 127 143
116 127 143
116 127 143
116 127 143
123 133 150
123 133 150
122 133 150
122 133 149
122 133 149
122 132 149
122 132 149
122 132 149
122 132 149
122 132 149
122 132 149
119 128 142
119 128 142
119 128 142
117 126 140
117 126 140
117 126 140
118 127 141
118 127 141
117 127 141
117 126 141
117 126 140
116 125 139
116 125 139
116 125 139
116 125 139
115 124 139
115 124 139
115 124 139
115 124 138
114 124 138
114 123 138
114 123 138
114 123 138
113 123 137
113 122 137
113 122 137
113 122 137
112 122 137
112 121 136
112 121 136
112 121 136
112 121 136
111 120 135
112 121 136
112 121 136
112 121 136
112 121 136
112 121 136
112 121 136
111 121 135
117 126 143
116 126 142
116 126 142
116 126 142
116 126 142
116 126 142
116 125 141
116 125 141
115 125 141
115 125 141
115 125 141
115 124 140
115 124 140
114 124 140
114 124 140
114 124 139
114 124 139
114 123 139
114 123 139
113 123 139
113 123 138
113 123 138
113 122 138
113 122 138
113 122 138
112 122 137
112 122 137
112 121 137
112 121 137
112 121 136
111 121 136
111 121 136
111 120 136
111 120 136
111 120 135
110 120 135
110 120 135
110 119 135
110 119 134
116 125 141
116 126 142
116 126 142
116 126 142
116 126 142
117 126 142
117 126 143
117 127 143
117 127 143
117 127 143
117 127 143
117 127 144
118 127 144
118 128 144
118 128 144
118 128 144
118 128 144
118 128 145
119 128 145
119 129 145
119 129 145
119 129 145
119 129 145
119 129 146
119 129 146
119 129 146
120 130 146
120 130 146
120 130 146
120 130 147
120 130 147
120 130 147
120 130 147
120 131 147
121 131 147
121 131 147
121 131 148
121 131 148
121 131 148
121 131 148
121 131 148
121 132 148
121 132 148
122 132 148
122 132 149
122 132 149
122 132 149
122 132 149
122 132 149
122 132 149
122 132 149
122 133 149
122 133 149
122 133 150
123 133 150
123 133 150
123 133 150
123 133 150
123 133 150
123 133 150
123 133 150
123 133 150
123 133 150
123 133 150
123 133 150
123 133 150
123 134 150
123 134 151
123 134 151
123 134 151
123 134 151
123 134 151
123 134 151
123 134 151
124 134 151
124 134 151
124 134 151
124 134 151
124 134 151
124 134 151
118 130 147
118 130 147
118 130 147
118 130 147
118 130 147
118 130 147
118 130 147
118 130 147
118 130 147
118 130 147
118 130 147
118 130 147
118 130 147
117 130 147
117 130 147
117 130 147
117 130 147
117 130 147
117 130 147
117 130 147
117 130 147
117 130 147
117 129 146
116 127 144
116 127 144
116 127 144
116 127 143
116 127 143
116 127 143
123 133 150
123 133 150
123 133 150
123 133 150
123 133 150
123 133 150
122 133 150
122 133 149
122 133 149
122 132 149
122 132 149
122 132 149
122 132 149
120 129 142
119 129 142
119 128 142
118 127 140
117 127 140
119 128 141
118 127 141
118 127 141
118 127 141
118 127 141
117 127 141
117 126 140
116 125 139
116 125 139
116 125 139
116 125 139
115 125 139
115 124 139
115 124 139
115 124 138
114 124 138
114 123 138
114 123 138
114 123 138
113 123 137
113 122 137
113 122 137
112 122 137
112 121 136
112 121 136
111 121 135
113 122 137
113 122 137
112 122 137
112 121 136
112 121 136
112 121 136
112 121 136
117 127 143
117 127 143
117 127 143
117 126 143
116 126 142
116 126 142
116 126 142
116 126 142
116 126 142
116 125 141
115 125 141
115 125 141
115 125 141
115 125 141
115 124 140
115 124 140
114 124 140
114 124 140
114 124 139
114 124 139
114 123 139
114 123 139
113 123 139
113 123 138
113 123 138
113 122 138
113 122 138
112 122 138
112 122 137
112 122 137
112 121 137
112 121 137
112 121 136
111 121 136
111 121 136
111 120 136
111 120 136
111 120 135
110 120 135
110 120 135
116 126 142
116 126 142
116 126 142
117 126 142
117 127 143
117 127 143
117 127 143
117 127 143
117 127 143
117 127 144
118 128 144
118 128 144
118 128 144
118 128 144
118 128 144
118 128 145
119 128 145
119 129 145
119 129 145
119 129 145
119 129 146
119 129 146
119 129 146
120 130 146
120 130 146
120 130 146
120 130 146
120 130 147
120 130 147
120 130 147
120 130 147
121 131 147
121 131 147
121 131 147
121 131 148
121 131 148
121 131 148
121 131 148
121 131 148
121 132 148
122 132 148
122 132 149
122 132 149
122 132 149
122 132 149
122 132 149
122 132 149
122 132 149
122 133 149
122 133 149
122 133 150
123 133 150
123 133 150
123 133 150
123 133 150
123 133 150
123 133 150
123 133 150
123 133 150
123 133 150
123 133 150
123 134 150
123 134 151
123 134 151
123 134 151
123 134 151
123 134 151
123 134 151
124 134 151
124 134 151
124 134 151
124 134 151
124 134 151
124 134 151
124 134 151
124 134 151
124 134 151
124 134 151
124 134 151
124 134 151
118 130 147
118 130 147
118 130 147
118 130 147
118 130 147
118 130 147
118 130 147
118 130 147
118 130 147
118 130 147
118 130 147
118 130 147
118 130 147
118 130 147
118 130 147
118 130 147
118 130 147
118 130 147
118 130 147
118 130 147
117 130 147
117 130 147
117 130 147
117 127 144
117 127 144
116 127 144
116 127 144
116 127 144
116 127 144
123 133 150
123 133 150
123 133 150
123 133 150
123 133 150
123 133 150
123 133 150
123 133 150
123 133 150
122 133 150
122 133 149
122 133 149
122 132 149
120 129 143
120 129 142
120 129 142
120 129 142
119 128 142
119 128 142
119 128 142
119 128 141
119 128 141
118 127 141
118 127 141
118 127 141
118 127 141
117 126 141
117 126 140
117 126 140
115 124 138
115 124 138
115 124 138
115 124 138
115 124 138
115 124 138
114 123 138
114 123 138
114 123 137
113 122 137
113 122 137
112 122 136
114 123 138
113 123 138
113 122 137
113 122 137
113 122 137
113 122 137
113 122 137
112 122 137
112 121 136
112 121 136
117 127 143
117 127 143
117 127 143
117 127 143
117 127 143
117 126 142
116 126 142
116 126 142
116 126 142
116 126 142
116 126 141
116 125 141
115 125 141
115 125 141
115 125 141
115 125 140
115 124 140
115 124 140
114 124 140
114 124 140
114 124 139
114 123 139
114 123 139
114 123 139
113 123 139
113 123 138
113 123 138
113 122 138
113 122 138
112 122 137
112 122 137
112 122 137
112 121 137
112 121 137
112 121 136
111 121 136
111 121 136
111 120 136
111 120 135
111 120 135
116 126 142
117 126 142
117 127 143
117 127 143
117 127 143
117 127 143
117 127 143
118 127 144
118 128 144
118 128 144
118 128 144
118 128 144
118 128 144
118 128 145
119 129 145
119 129 145
119 129 145
119 129 145
119 129 146
119 129 146
119 129 146
120 130 146
120 130 146
120 130 146
120 130 146
120 130 147
120 130 147
120 130 147
120 131 147
121 131 147
121 131 147
121 131 148
121 131 148
121 131 148
121 131 148
121 131 148
121 132 148
121 132 148
122 132 148
122 132 149
122 132 149
122 132 149
122 132 149
122 132 149
122 132 149
122 132 149
122 133 149
122 133 150
123 133 150
123 133 150
123 133 150
123 133 150
123 133 150
123 133 150
123 133 150
123 133 150
123 133 150
123 133 150
123 134 150
123 134 151
123 134 151
123 134 151
123 134 151
124 134 151
124 134 151
124 134 151
124 134 151
124 134 151
124 134 151
124 134 151
124 134 151
124 134 151
124 134 151
124 134 151
124 134 151
124 134 151
124 134 151
124 134 151
124 134 151
124 134 151
124 134 151
124 134 151
118 130 147
118 130 147
118 130 147
118 130 147
118 130 147
118 130 147
118 130 147
118 130 147
118 130 147
118 130 147
118 130 147
118 130 147
118 130 147
118 130 147
118 130 147
118 130 147
118 130 147
118 130 147
118 130 147
118 130 147
118 130 147
117 128 144
117 127 144
117 127 144
117 127 144
117 127 144
123 134 151
123 134 151
123 134 150
123 133 150
123 133 150
123 133 150
123 133 150
123 133 150
123 133 150
123 133 150
123 133 150
123 133 150
123 133 150
122 133 149
121 130 143
121 130 143
120 129 143
120 129 142
120 129 142
120 129 142
120 129 142
119 128 142
119 128 142
119 128 142
119 128 141
118 127 141
118 127 141
118 127 141
118 127 141
117 127 141
117 126 140
117 126 140
117 126 140
116 126 140
116 125 140
116 125 139
116 125 139
115 125 139
115 124 139
115 124 139
115 124 139
114 124 138
114 123 138
114 123 138
114 123 138
113 123 138
113 122 137
113 122 137
113 122 137
113 122 137
113 122 137
112 122 137
118 128 144
118 127 144
117 127 143
117 127 143
117 127 143
117 127 143
117 127 143
117 126 142
116 126 142
116 126 142
116 126 142
116 126 142
116 125 141
116 125 141
115 125 141
115 125 141
115 125 141
115 125 140
115 124 140
115 124 140
114 124 140
114 124 140
114 124 139
114 123 139
114 123 139
114 123 139
113 123 139
113 123 138
113 123 138
113 122 138
113 122 138
112 122 137
112 122 137
112 122 137
112 121 137
112 121 137
112 121 136
111 121 136
111 121 136
111 120 136
117 127 143
117 127 143
117 127 143
117 127 143
117 127 143
118 127 144
118 128 144
118 128 144
118 128 144
118 128 144
118 128 145
118 128 145
119 129 145
119 129 145
119 129 145
119 129 145
119 129 146
119 129 146
119 129 146
120 130 146
120 130 146
120 130 146
120 130 147
120 130 147
120 130 147
120 130 147
120 131 147
121 131 147
121 131 147
121 131 148
121 131 148
121 131 148
121 131 148
121 131 148
121 132 148
122 132 148
122 132 149
122 132 149
122 132 149
122 132 149
122 132 149
122 132 149
122 132 149
122 133 149
122 133 149
122 133 150
123 133 150
123 133 150
123 133 150
123 133 150
123 133 150
123 133 150
123 133 150
123 133 150
123 133 150
123 134 151
123 134 151
123 134 151
123 134 151
124 134 151
124 134 151
124 134 151
124 134 151
124 134 151
124 134 151
124 134 151
124 134 151
124 134 151
124 134 151
124 134 151
124 134 151
124 134 151
124 134 151
124 134 152
124 134 152
124 135 152
124 135 152
124 135 152
124 135 152
124 135 152
124 135 152
124 135 152
124 135 152
124 135 152
124 135 152
124 135 152
118 131 148
118 131 148
118 131 148
118 131 148
118 131 148
118 131 148
118 131 148
118 130 148
118 130 148
118 130 148
118 130 147
118 130 147
118 130 147
118 130 147
118 130 147
118 130 147
118 130 147
117 128 144
117 128 144
117 128 144
117 128 144
124 134 151
124 134 151
123 134 151
123 134 151
123 134 151
123 134 151
123 134 150
123 133 150
123 133 150
123 133 150
123 133 150
123 133 150
123 133 150
123 133 150
123 133 150
123 133 150
121 130 143
121 130 143
121 130 143
121 130 143
120 129 142
120 129 142
120 129 142
120 129 142
119 129 142
119 128 142
119 128 142
119 128 141
119 128 141
118 127 141
118 127 141
118 127 141
118 127 141
117 126 140
117 126 140
117 126 140
117 126 140
116 125 140
116 125 139
116 125 139
116 125 139
115 124 139
115 124 139
115 124 139
114 124 138
114 123 138
114 123 138
114 123 138
113 123 138
113 122 137
113 122 137
113 122 137
113 122 137
118 128 144
118 128 144
118 127 144
117 127 144
117 127 143
117 127 143
117 127 143
117 127 143
117 126 143
117 126 142
116 126 142
116 126 142
116 126 142
116 126 142
116 125 141
116 125 141
115 125 141
115 125 141
115 125 141
115 125 140
115 124 140
115 124 140
114 124 140
114 124 140
114 124 139
114 123 139
114 123 139
113 123 139
113 123 138
113 123 138
113 122 138
113 122 138
113 122 138
112 122 137
112 122 137
112 122 137
112 121 137
112 121 137
112 121 136
111 121 136
117 127 143
117 127 143
117 127 143
118 127 144
118 128 144
118 128 144
118 128 144
118 128 144
118 128 145
118 128 145
119 129 145
119 129 145
119 129 145
119 129 145
119 129 146
119 129 146
119 129 146
120 130 146
120 130 146
120 130 146
120 130 147
120 130 147
120 130 147
120 130 147
120 131 147
121 131 147
121 131 147
121 131 148
121 131 148
121 131 148
121 131 148
121 131 148
121 132 148
122 132 148
122 132 149
122 132 149
122 132 149
122 132 149
122 132 149
122 132 149
122 132 149
122 133 149
122 133 150
123 133 150
123 133 150
123 133 150
123 133 150
123 133 150
123 133 150
123 133 150
123 133 150
123 133 150
123 134 150
123 134 151
123 134 151
123 134 151
124 134 151
124 134 151
124 134 151
124 134 151
124 134 151
124 134 151
124 134 151
124 134 151
124 134 151
124 134 151
124 134 151
124 134 151
124 134 152
124 135 152
124 135 152
124 135 152
124 135 152
124 135 152
124 135 152
124 135 152
124 135 152
124 135 152
124 135 152
124 135 152
124 135 152
124 135 152
124 135 152
124 135 152
124 135 152
124 135 152
124 135 152
124 135 152
124 135 152
124 135 152
118 131 148
118 131 148
118 131 148
118 131 148
118 131 148
118 131 148
118 131 148
118 131 148
118 131 148
118 130 148
118 130 148
118 130 147
118 130 147
117 128 145
117 128 144
117 128 144
124 134 151
124 134 151
124 134 151
124 134 151
124 134 151
124 134 151
123 134 151
123 134 151
123 134 151
123 134 151
123 133 150
123 133 150
123 133 150
123 133 150
123 133 150
123 133 150
123 133 150
122 131 143
122 131 143
121 130 143
121 130 143
121 130 143
121 130 143
121 130 142
120 129 142
120 129 142
120 129 142
120 129 142
119 128 142
119 128 142
119 128 141
119 128 141
118 127 141
118 127 141
118 127 141
118 127 141
117 126 140
117 126 140
117 126 140
117 126 140
116 125 140
116 125 139
116 125 139
116 125 139
115 124 139
115 124 139
115 124 139
114 124 138
114 123 138
114 123 138
114 123 138
113 123 138
113 122 137
113 122 137
118 128 144
118 128 144
118 128 144
118 128 144
118 127 144
117 127 143
117 127 143
117 127 143
117 127 143
117 127 143
117 126 142
116 126 142
116 126 142
116 126 142
116 126 142
116 126 142
116 125 141
115 125 141
115 125 141
115 125 141
115 125 141
115 124 140
115 124 140
114 124 140
114 124 140
114 124 139
114 124 139
114 123 139
114 123 139
113 123 139
113 123 138
113 123 138
113 122 138
113 122 138
113 122 138
112 122 137
112 122 137
112 121 137
112 121 137
112 121 136
117 127 143
118 127 144
118 128 144
118 128 144
118 128 144
118 128 144
118 128 145
118 128 145
119 129 145
119 129 145
119 129 145
119 129 145
119 129 146
119 129 146
119 129 146
120 130 146
120 130 146
120 130 146
120 130 147
120 130 147
120 130 147
120 130 147
120 131 147
121 131 147
121 131 147
121 131 148
121 131 148
121 131 148
121 131 148
121 131 148
121 132 148
122 132 148
122 132 149
122 132 149
122 132 149
122 132 149
122 132 149
122 132 149
122 132 149
122 133 149
122 133 150
123 133 150
123 133 150
123 133 150
123 133 150
123 133 150
123 133 150
123 133 150
123 133 150
123 134 150
123 134 151
123 134 151
123 134 151
124 134 151
124 134 151
124 134 151
124 134 151
124 134 151
124 134 151
124 134 151
124 134 151
124 134 151
124 134 151
124 134 151
124 135 152
124 135 152
124 135 152
124 135 152
124 135 152
124 135 152
124 135 152
124 135 152
124 135 152
124 135 152
124 135 152
124 135 152
125 135 152
125 135 152
125 135 152
125 135 152
125 135 152
125 135 152
125 135 152
125 135 152
125 135 152
125 135 152
125 135 152
125 135 152
125 135 152
125 135 152
125 135 152
125 135 152
124 135 152
124 135 152
118 131 148
118 131 148
118 131 148
118 131 148
118 131 148
118 131 148
118 131 148
118 131 148
118 131 148
117 128 145
117 128 145
124 134 151
124 134 151
124 134 151
124 134 151
124 134 151
124 134 151
124 134 151
124 134 151
124 134 151
124 134 151
123 134 151
123 134 151
123 134 151
123 134 150
123 133 150
123 133 150
123 133 150
123 133 150
122 131 144
122 131 143
122 131 143
122 131 143
122 131 143
121 130 143
121 130 143
121 130 143
121 130 142
120 129 142
120 129 142
120 129 142
120 129 142
119 128 142
119 128 142
119 128 141
119 128 141
118 128 141
118 127 141
118 127 141
118 127 141
117 127 140
117 126 140
117 126 140
117 126 140
116 126 140
116 125 139
116 125 139
116 125 139
115 124 139
115 124 139
115 124 139
114 124 138
114 123 138
114 123 138
114 123 138
119 129 145
118 128 145
118 128 144
118 128 144
118 128 144
118 128 144
118 128 144
118 127 144
117 127 143
117 127 143
117 127 143
117 127 143
117 127 143
117 126 142
116 126 142
116 126 142
116 126 142
116 126 142
116 125 141
116 125 141
115 125 141
115 125 141
115 125 141
115 125 140
115 124 140
115 124 140
114 124 140
114 124 140
114 124 139
114 123 139
114 123 139
114 123 139
113 123 139
113 123 138
113 123 138
113 122 138
113 122 138
113 122 138
112 122 137
112 122 137
112 121 137
118 128 144
118 128 144
118 128 144
118 128 144
118 128 144
118 128 145
119 129 145
119 129 145
119 129 145
119 129 145
119 129 146
119 129 146
119 129 146
120 130 146
120 130 146
120 130 146
120 130 147
120 130 147
120 130 147
120 130 147
120 131 147
121 131 147
121 131 147
121 131 148
121 131 148
121 131 148
121 131 148
121 131 148
121 132 148
122 132 148
122 132 149
122 132 149
122 132 149
122 132 149
122 132 149
122 132 149
122 133 149
122 133 149
122 133 150
123 133 150
123 133 150
123 133 150
123 133 150
123 133 150
123 133 150
123 133 150
123 133 150
123 134 150
123 134 151
123 134 151
123 134 151
124 134 151
124 134 151
124 134 151
124 134 151
124 134 151
124 134 151
124 134 151
124 134 151
124 134 151
124 134 152
124 135 152
124 135 152
124 135 152
124 135 152
124 135 152
124 135 152
124 135 152
124 135 152
124 135 152
125 135 152
125 135 152
125 135 152
125 135 152
125 135 152
125 135 152
125 135 152
125 135 152
125 135 152
125 135 152
125 135 152
125 135 152
125 135 152
125 135 152
125 135 152
125 135 152
125 135 152
125 135 152
125 135 152
125 135 152
125 135 152
125 135 152
125 135 152
125 135 152
125 135 152
125 135 152
125 135 152
125 135 152
118 131 148
118 131 148
118 131 148
118 131 148
118 131 148
117 128 145
124 135 152
124 135 152
124 135 152
124 134 151
124 134 151
124 134 151
124 134 151
124 134 151
124 134 151
124 134 151
124 134 151
124 134 151
124 134 151
123 134 151
123 134 151
123 134 151
123 134 150
123 133 150
123 133 150
123 133 150
123 132 144
123 131 144
122 131 144
122 131 143
122 131 143
122 131 143
121 130 143
121 130 143
121 130 143
121 130 142
121 129 142
120 129 142
120 129 142
120 129 142
120 129 142
119 128 142
119 128 141
119 128 141
119 128 141
118 127 141
118 127 141
118 127 140
117 127 140
117 126 140
117 126 140
117 126 140
116 126 140
116 125 139
116 125 139
116 125 139
115 124 139
115 124 139
115 124 138
114 124 138
114 123 138
119 129 145
119 129 145
118 128 145
118 128 145
118 128 144
118 128 144
118 128 144
118 128 144
118 127 144
117 127 143
117 127 143
117 127 143
117 127 143
117 127 143
117 126 143
117 126 142
116 126 142
116 126 142
116 126 142
116 126 142
116 125 141
116 125 141
115 125 141
115 125 141
115 125 141
115 125 140
115 124 140
115 124 140
114 124 140
114 124 140
114 124 139
114 123 139
114 123 139
114 123 139
113 123 139
113 123 138
113 122 138
113 122 138
113 122 138
112 122 137
112 122 137
118 128 144
118 128 144
118 128 144
118 128 145
119 128 145
119 129 145
119 129 145
119 129 145
119 129 146
119 129 146
119 129 146
120 130 146
120 130 146
120 130 146
120 130 146
120 130 147
120 130 147
120 130 147
120 131 147
121 131 147
121 131 147
121 131 148
121 131 148
121 131 148
121 131 148
121 131 148
121 132 148
122 132 148
122 132 149
122 132 149
122 132 149
122 132 149
122 132 149
122 132 149
122 133 149
122 133 149
122 133 150
123 133 150
123 133 150
123 133 150
123 133 150
123 133 150
123 133 150
123 133 150
123 133 150
123 134 151
123 134 151
123 134 151
124 134 151
124 134 151
124 134 151
124 134 151
124 134 151
124 134 151
124 134 151
124 134 151
124 134 151
124 134 152
124 135 152
124 135 152
124 135 152
124 135 152
124 135 152
124 135 152
124 135 152
124 135 152
125 135 152
125 135 152
125 135 152
125 135 152
125 135 152
125 135 152
125 135 152
125 135 152
125 135 152
125 135 152
125 135 152
125 135 152
125 135 152
125 135 152
125 135 152
125 135 152
125 135 152
125 135 152
125 135 152
125 135 152
125 135 152
125 135 152
125 135 152
125 135 152
125 135 152
125 135 152
125 135 152
125 135 152
125 135 152
125 135 152
125 135 152
125 135 152
125 135 152
125 135 152
125 135 152
118 131 148
118 131 148
118 128 145
124 135 152
124 135 152
124 135 152
124 135 152
124 135 152
124 134 152
124 134 151
124 134 151
124 134 151
124 134 151
124 134 151
124 134 151
124 134 151
124 134 151
124 134 151
123 134 151
123 134 151
123 134 151
123 134 150
123 133 150
123 133 150
123 132 144
123 132 144
123 132 144
123 131 144
122 131 143
122 131 143
122 131 143
122 130 143
121 130 143
121 130 143
121 130 142
121 130 142
120 129 142
120 129 142
120 129 142
120 129 142
119 128 141
119 128 141
119 128 141
119 128 141
118 127 141
118 127 141
118 127 140
118 127 140
117 126 140
117 126 140
117 126 140
116 126 140
116 125 139
116 125 139
116 125 139
115 124 139
115 124 139
119 129 146
119 129 145
119 129 145
119 129 145
119 129 145
118 128 145
118 128 144
118 128 144
118 128 144
118 128 144
118 128 144
118 127 144
117 127 143
117 127 143
117 127 143
117 127 143
117 127 143
117 126 142
116 126 142
116 126 142
116 126 142
116 126 142
116 126 141
116 125 141
115 125 141
115 125 141
115 125 141
115 125 140
115 124 140
115 124 140
114 124 140
114 124 140
114 124 139
114 124 139
114 123 139
114 123 139
113 123 139
113 123 138
113 123 138
113 122 138
113 122 138
113 122 138
118 128 144
118 128 145
119 128 145
119 129 145
119 129 145
119 129 145
119 129 145
119 129 146
119 129 146
120 130 146
120 130 146
120 130 146
120 130 146
120 130 147
120 130 147
120 130 147
120 131 147
121 131 147
121 131 147
121 131 148
121 131 148
121 131 148
121 131 148
121 131 148
121 132 148
122 132 148
122 132 149
122 132 149
122 132 149
122 132 149
122 132 149
122 132 149
122 133 149
122 133 149
122 133 150
123 133 150
123 133 150
123 133 150
123 133 150
123 133 150
123 133 150
123 133 150
123 134 150
123 134 151
123 134 151
123 134 151
124 134 151
124 134 151
124 134 151
124 134 151
124 134 151
124 134 151
124 134 151
124 134 151
124 134 151
124 135 152
124 135 152
124 135 152
124 135 152
124 135 152
124 135 152
124 135 152
125 135 152
125 135 152
125 135 152
125 135 152
125 135 152
125 135 152
125 135 152
125 135 152
125 135 152
125 135 152
125 135 152
125 135 152
125 135 152
125 135 152
125 135 153
125 135 153
125 135 153
125 135 153
125 135 153
125 135 153
125 135 153
125 135 153
125 135 153
125 135 153
125 135 153
125 135 153
125 135 153
125 135 153
125 135 152
125 135 152
125 135 152
125 135 152
125 135 152
125 135 152
125 135 152
125 135 152
125 135 152
125 135 152
125 135 152
125 135 152
125 135 152
125 135 152
125 135 152
124 135 152
124 135 152
124 135 152
124 135 152
124 135 152
124 135 152
124 134 152
124 134 151
124 134 151
124 134 151
124 134 151
124 134 151
124 134 151
124 134 151
124 134 151
124 134 151
123 134 151
123 134 151
123 134 150
123 133 150
124 132 144
124 132 144
123 132 144
123 132 144
123 132 144
123 131 143
122 131 143
122 131 143
122 131 143
122 131 143
122 131 143
121 130 143
121 130 142
121 130 142
120 129 142
120 129 142
120 129 142
120 129 142
119 128 141
119 128 141
119 128 141
119 128 141
118 127 141
118 127 141
118 127 140
118 127 140
117 126 140
117 126 140
117 126 140
116 125 139
116 125 139
116 125 139
115 125 139
119 129 146
119 129 146
119 129 145
119 129 145
119 129 145
119 129 145
118 128 145
118 128 145
118 128 144
118 128 144
118 128 144
118 128 144
118 127 144
117 127 143
117 127 143
117 127 143
117 127 143
117 127 143
117 126 143
117 126 142
116 126 142
116 126 142
116 126 142
116 126 142
116 125 141
116 125 141
115 125 141
115 125 141
115 125 141
115 125 140
115 124 140
115 124 140
114 124 140
114 124 140
114 124 139
114 123 139
114 123 139
114 123 139
113 123 139
113 123 138
113 123 138
113 122 138
118 128 145
119 129 145
119 129 145
119 129 145
119 129 145
119 129 146
119 129 146
119 129 146
120 130 146
120 130 146
120 130 146
120 130 147
120 130 147
120 130 147
120 130 147
121 131 147
121 131 147
121 131 148
121 131 148
121 131 148
121 131 148
121 131 148
121 132 148
121 132 148
122 132 148
122 132 149
122 132 149
122 132 149
122 132 149
122 132 149
122 132 149
122 133 149
122 133 150
123 133 150
123 133 150
123 133 150
123 133 150
123 133 150
123 133 150
123 133 150
123 134 150
123 134 151
123 134 151
123 134 151
124 134 151
124 134 151
124 134 151
124 134 151
124 134 151
124 134 151
124 134 151
124 134 151
124 134 152
124 135 152
124 135 152
124 135 152
124 135 152
124 135 152
124 135 152
125 135 152
125 135 152
125 135 152
125 135 152
125 135 152
125 135 152
125 135 152
125 135 152
125 135 152
125 135 152
125 135 152
125 135 152
125 135 153
125 135 153
125 135 153
125 135 153
125 135 153
125 135 153
125 136 153
125 136 153
125 136 153
125 136 153
125 136 153
125 136 153
125 136 153
125 136 153
125 136 153
125 136 153
125 136 153
125 136 153
125 135 153
125 135 153
125 135 153
125 135 153
125 135 153
125 135 153
125 135 153
125 135 152
125 135 152
125 135 152
125 135 152
125 135 152
125 135 152
125 135 152
125 135 152
125 135 152
125 135 152
125 135 152
124 135 152
124 135 152
124 135 152
124 135 152
124 135 152
124 135 152
124 135 152
124 134 151
124 134 151
124 134 151
124 134 151
124 134 151
124 134 151
124 134 151
124 134 151
123 134 151
123 134 151
123 134 151
123 134 150
124 133 144
124 133 144
124 132 144
123 132 144
123 132 144
123 132 144
123 132 144
123 132 144
124 133 145
125 134 146
124 133 145
122 131 144
121 130 143
121 130 142
121 130 142
120 129 142
120 129 142
120 129 142
120 129 142
119 128 141
119 128 141
119 128 141
119 128 141
118 127 141
118 127 140
118 127 140
118 127 140
117 126 140
117 126 140
117 126 140
116 125 139
120 130 146
120 130 146
119 129 146
119 129 146
119 129 145
119 129 145
119 129 145
119 129 145
119 128 145
118 128 145
118 128 144
118 128 144
118 128 144
118 128 144
118 128 144
118 127 144
117 127 143
117 127 143
117 127 143
117 127 143
117 127 143
117 126 142
116 126 142
116 126 142
116 126 142
116 126 142
116 126 141
116 125 141
115 125 141
115 125 141
115 125 141
115 125 140
115 124 140
115 124 140
114 124 140
114 124 140
114 124 139
114 124 139
114 123 139
114 123 139
113 123 139
113 123 138
113 123 138
119 129 145
119 129 145
119 129 145
119 129 146
119 129 146
119 129 146
120 130 146
120 130 146
120 130 146
120 130 147
120 130 147
120 130 147
120 130 147
120 131 147
121 131 147
121 131 147
121 131 148
121 131 148
121 131 148
121 131 148
121 131 148
121 132 148
122 132 148
122 132 149
122 132 149
122 132 149
122 132 149
122 132 149
122 132 149
122 133 149
122 133 149
123 133 150
123 133 150
123 133 150
123 133 150
123 133 150
123 133 150
123 133 150
123 133 150
123 134 151
123 134 151
123 134 151
124 134 151
124 134 151
124 134 151
124 134 151
124 134 151
124 134 151
124 134 151
124 134 151
124 134 152
124 135 152
124 135 152
124 135 152
124 135 152
124 135 152
124 135 152
125 135 152
125 135 152
125 135 152
125 135 152
125 135 152
125 135 152
125 135 152
125 135 152
125 135 152
125 135 152
125 135 153
125 135 153
125 135 153
125 135 153
125 136 153
125 136 153
125 136 153
125 136 153
125 136 153
125 136 153
125 136 153
125 136 153
125 136 153
125 136 153
125 136 153
125 136 153
125 136 153
125 136 153
125 136 153
125 136 153
125 136 153
125 136 153
125 136 153
125 136 153
125 136 153
125 136 153
125 136 153
125 136 153
125 135 153
125 135 153
125 135 153
125 135 153
125 135 152
125 135 152
125 135 152
125 135 152
125 135 152
125 135 152
125 135 152
125 135 152
125 135 152
125 135 152
124 135 152
124 135 152
124 135 152
124 135 152
124 135 152
124 135 152
124 134 152
124 134 151
124 134 151
124 134 151
124 134 151
124 134 151
124 134 151
124 134 151
124 134 151
123 134 151
123 134 151
123 134 150
124 133 144
124 133 144
124 133 144
124 132 144
123 132 144
123 132 144
123 132 144
125 133 145
128 137 148
129 138 149
126 135 147
123 132 144
122 131 143
121 130 143
121 130 142
121 130 142
120 129 142
120 129 142
120 129 142
120 129 141
119 128 141
119 128 141
119 128 141
119 128 141
118 127 141
118 127 140
118 127 140
117 126 140
117 126 140
120 130 147
120 130 146
120 130 146
120 130 146
119 129 146
119 129 146
119 129 146
119 129 145
119 129 145
119 129 145
119 129 145
118 128 145
118 128 144
118 128 144
118 128 144
118 128 144
118 128 144
118 127 144
117 127 143
117 127 143
117 127 143
117 127 143
117 127 143
117 126 142
116 126 142
116 126 142
116 126 142
116 126 142
116 126 142
116 125 141
116 125 141
115 125 141
115 125 141
115 125 141
115 125 140
115 124 140
115 124 140
114 124 140
114 124 140
114 124 139
114 123 139
114 123 139
114 123 139
113 123 139
119 129 145
119 129 145
119 129 146
119 129 146
120 130 146
120 130 146
120 130 146
120 130 146
120 130 147
120 130 147
120 130 147
120 131 147
121 131 147
121 131 147
121 131 148
121 131 148
121 131 148
121 131 148
121 131 148
121 132 148
122 132 148
122 132 149
122 132 149
122 132 149
122 132 149
122 132 149
122 132 149
122 133 149
122 133 149
123 133 150
123 133 150
123 133 150
123 133 150
123 133 150
123 133 150
123 133 150
123 133 150
123 134 150
123 134 151
123 134 151
124 134 151
124 134 151
124 134 151
124 134 151
124 134 151
124 134 151
124 134 151
124 134 151
124 134 152
124 135 152
124 135 152
124 135 152
124 135 152
124 135 152
125 135 152
125 135 152
125 135 152
125 135 152
125 135 152
125 135 152
125 135 152
125 135 152
125 135 152
125 135 152
125 135 153
125 135 153
125 135 153
125 136 153
125 136 153
125 136 153
125 136 153
125 136 153
125 136 153
125 136 153
125 136 153
125 136 153
125 136 153
125 136 153
125 136 153
125 136 153
125 136 153
125 136 153
125 136 153
125 136 153
125 136 153
125 136 153
125 136 153
125 136 153
125 136 153
125 136 153
125 136 153
125 136 153
125 136 153
125 136 153
125 136 153
125 136 153
125 136 153
125 136 153
125 136 153
125 135 153
125 135 153
125 135 153
125 135 152
125 135 152
125 135 152
125 135 152
125 135 152
125 135 152
125 135 152
125 135 152
125 135 152
124 135 152
124 135 152
124 135 152
124 135 152
124 135 152
124 135 152
124 134 151
124 134 151
124 134 151
124 134 151
124 134 151
124 134 151
124 134 151
124 134 151
123 134 151
123 134 151
123 134 151
125 133 144
124 133 144
124 133 144
124 133 144
124 132 144
124 132 144
124 132 144
124 133 145
126 135 146
126 135 146
124 133 145
122 131 143
122 131 143
122 130 143
121 130 142
121 130 142
121 130 142
120 129 142
120 129 142
120 129 142
120 129 141
119 128 141
119 128 141
119 128 141
119 128 141
118 127 140
118 127 140
117 126 140
120 130 147
120 130 147
120 130 146
120 130 146
120 130 146
119 129 146
119 129 146
119 129 146
119 129 145
119 129 145
119 129 145
119 129 145
119 128 145
118 128 145
118 128 144
118 128 144
118 128 144
118 128 144
118 127 144
117 127 143
117 127 143
117 127 143
117 127 143
117 127 143
117 127 143
117 126 142
116 126 142
116 126 142
116 126 142
116 126 142
116 125 141
116 125 141
115 125 141
115 125 141
115 125 141
115 125 140
115 124 140
115 124 140
114 124 140
114 124 140
114 124 139
114 124 139
114 123 139
114 123 139
119 129 146
119 129 146
119 129 146
120 130 146
120 130 146
120 130 146
120 130 147
120 130 147
120 130 147
120 130 147
121 131 147
121 131 147
121 131 147
121 131 148
121 131 148
121 131 148
121 131 148
121 132 148
121 132 148
122 132 148
122 132 149
122 132 149
122 132 149
122 132 149
122 132 149
122 132 149
122 133 149
122 133 150
123 133 150
123 133 150
123 133 150
123 133 150
123 133 150
123 133 150
123 133 150
123 134 150
123 134 151
123 134 151
123 134 151
124 134 151
124 134 151
124 134 151
124 134 151
124 134 151
124 134 151
124 134 151
124 134 152
124 135 152
124 135 152
124 135 152
124 135 152
124 135 152
125 135 152
125 135 152
125 135 152
125 135 152
125 135 152
125 135 152
125 135 152
125 135 152
125 135 152
125 135 153
125 135 153
125 135 153
125 136 153
125 136 153
125 136 153
125 136 153
125 136 153
125 136 153
125 136 153
125 136 153
125 136 153
125 136 153
125 136 153
125 136 153
125 136 153
125 136 153
125 136 153
125 136 153
125 136 153
125 136 153
125 136 153
125 136 153
125 136 153
125 136 153
125 136 153
125 136 153
125 136 153
125 136 153
125 136 153
125 136 153
125 136 153
125 136 153
125 136 153
125 136 153
125 136 153
125 136 153
125 136 153
125 136 153
125 136 153
125 135 153
125 135 153
125 135 153
125 135 152
125 135 152
125 135 152
125 135 152
125 135 152
125 135 152
125 135 152
125 135 152
125 135 152
124 135 152
124 135 152
124 135 152
124 135 152
124 135 152
124 134 152
124 134 151
124 134 151
124 134 151
124 134 151
124 134 151
124 134 151
124 134 151
124 134 151
123 134 151
123 134 151
125 134 145
125 133 144
125 133 144
124 133 144
124 133 144
124 133 144
124 132 144
123 132 144
123 132 144
123 132 144
123 131 143
122 131 143
122 131 143
122 131 143
122 130 142
121 130 142
121 130 142
121 130 142
120 129 142
120 129 142
120 129 141
120 129 141
119 128 141
119 128 141
119 128 141
121 131 147
120 131 147
120 130 147
120 130 147
120 130 147
120 130 146
120 130 146
120 130 146
120 130 146
119 129 146
119 129 146
119 129 145
119 129 145
119 129 145
119 129 145
119 128 145
118 128 145
118 128 144
118 128 144
118 128 144
118 128 144
118 128 144
118 127 144
117 127 143
117 127 143
117 127 143
117 127 143
117 127 143
117 126 142
116 126 142
116 126 142
116 126 142
116 126 142
116 126 142
116 125 141
116 125 141
115 125 141
115 125 141
115 125 141
115 125 140
115 124 140
115 124 140
114 124 140
114 124 140
114 124 139
114 123 139
119 129 146
120 130 146
120 130 146
120 130 146
120 130 147
120 130 147
120 130 147
120 130 147
120 131 147
121 131 147
121 131 147
121 131 148
121 131 148
121 131 148
121 131 148
121 131 148
121 132 148
122 132 148
122 132 149
122 132 149
122 132 149
122 132 149
122 132 149
122 132 149
122 133 149
122 133 149
123 133 150
123 133 150
123 133 150
123 133 150
123 133 150
123 133 150
123 133 150
123 133 150
123 134 151
123 134 151
123 134 151
124 134 151
124 134 151
124 134 151
124 134 151
124 134 151
124 134 151
124 134 151
124 134 151
124 135 152
124 135 152
124 135 152
124 135 152
124 135 152
125 135 152
125 135 152
125 135 152
125 135 152
125 135 152
125 135 152
125 135 152
125 135 152
125 135 152
125 135 153
125 135 153
125 135 153
125 136 153
125 136 153
125 136 153
125 136 153
125 136 153
125 136 153
125 136 153
125 136 153
125 136 153
125 136 153
125 136 153
125 136 153
125 136 153
125 136 153
125 136 153
125 136 153
125 136 153
125 136 153
126 136 153
126 136 153
126 136 153
126 136 153
126 136 153
125 136 153
125 136 153
125 136 153
125 136 153
125 136 153
125 136 153
125 136 153
125 136 153
125 136 153
125 136 153
125 136 153
125 136 153
125 136 153
125 136 153
125 136 153
125 136 153
125 136 153
125 136 153
125 135 153
125 135 153
125 135 153
125 135 152
125 135 152
125 135 152
125 135 152
125 135 152
125 135 152
125 135 152
125 135 152
125 135 152
124 135 152
124 135 152
124 135 152
124 135 152
124 135 152
124 134 151
124 134 151
124 134 151
124 134 151
124 134 151
124 134 151
124 134 151
124 134 151
123 134 151
123 134 151
125 134 145
125 134 145
125 133 144
125 133 144
124 133 144
124 133 144
124 133 144
124 132 144
123 132 144
123 132 143
123 132 143
123 131 143
122 131 143
122 131 143
122 131 143
122 130 142
121 130 142
121 130 142
121 130 142
120 129 142
120 129 142
120 129 141
119 128 141
121 131 148
121 131 147
121 131 147
120 131 147
120 130 147
120 130 147
120 130 147
120 130 146
120 130 146
120 130 146
120 130 146
119 129 146
119 129 146
119 129 145
119 129 145
119 129 145
119 129 145
119 129 145
118 128 145
118 128 144
118 128 144
118 128 144
118 128 144
118 128 144
118 127 144
117 127 143
117 127 143
117 127 143
117 127 143
117 127 143
117 126 143
117 126 142
116 126 142
116 126 142
116 126 142
116 126 142
116 125 141
116 125 141
115 125 141
115 125 141
115 125 141
115 125 140
115 124 140
115 124 140
114 124 140
114 124 140
114 124 139
120 130 146
120 130 146
120 130 146
120 130 147
120 130 147
120 130 147
120 130 147
121 131 147
121 131 147
121 131 147
121 131 148
121 131 148
121 131 148
121 131 148
121 132 148
121 132 148
122 132 148
122 132 149
122 132 149
122 132 149
122 132 149
122 132 149
122 132 149
122 133 149
122 133 150
123 133 150
123 133 150
123 133 150
123 133 150
123 133 150
123 133 150
123 133 150
123 134 150
123 134 151
123 134 151
124 134 151
124 134 151
124 134 151
124 134 151
124 134 151
124 134 151
124 134 151
124 134 151
124 135 152
124 135 152
124 135 152
124 135 152
124 135 152
124 135 152
125 135 152
125 135 152
125 135 152
125 135 152
125 135 152
125 135 152
125 135 152
125 135 152
125 135 153
125 135 153
125 136 153
125 136 153
125 136 153
125 136 153
125 136 153
125 136 153
125 136 153
125 136 153
125 136 153
125 136 153
125 136 153
125 136 153
125 136 153
125 136 153
126 136 153
126 136 153
126 136 153
126 136 153
126 136 153
126 136 153
126 136 153
126 136 153
126 136 153
126 136 153
126 136 153
126 136 153
126 136 153
126 136 153
126 136 153
126 136 153
126 136 153
126 136 153
126 136 153
125 136 153
125 136 153
125 136 153
125 136 153
125 136 153
125 136 153
125 136 153
125 136 153
125 136 153
125 136 153
125 136 153
125 136 153
125 136 153
125 135 153
125 135 153
125 135 153
125 135 152
125 135 152
125 135 152
125 135 152
125 135 152
125 135 152
125 135 152
125 135 152
124 135 152
124 135 152
124 135 152
124 135 152
124 135 152
124 134 151
124 134 151
124 134 151
124 134 151
124 134 151
124 134 151
124 134 151
124 134 151
123 134 151
123 134 151
123 134 150
125 134 145
125 134 144
125 133 144
125 133 144
124 133 144
124 133 144
124 133 144
124 132 144
123 132 143
123 132 143
123 132 143
123 131 143
122 131 143
122 131 143
122 131 142
121 130 142
121 130 142
121 130 142
121 129 142
120 129 142
121 131 148
121 131 148
121 131 148
121 131 147
121 131 147
120 131 147
120 130 147
120 130 147
120 130 147
120 130 146
120 130 146
120 130 146
120 130 146
119 129 146
119 129 146
119 129 146
119 129 145
119 129 145
119 129 145
119 129 145
118 128 145
118 128 145
118 128 144
118 128 144
118 128 144
118 128 144
118 127 144
117 127 143
117 127 143
117 127 143
117 127 143
117 127 143
117 126 143
117 126 142
116 126 142
116 126 142
116 126 142
116 126 142
116 126 141
116 125 141
115 125 141
115 125 141
115 125 141
115 125 140
115 124 140
115 124 140
115 124 140
114 124 140
120 130 146
120 130 146
120 130 147
120 130 147
120 130 147
120 131 147
121 131 147
121 131 147
121 131 148
121 131 148
121 131 148
121 131 148
121 131 148
121 132 148
122 132 148
122 132 149
122 132 149
122 132 149
122 132 149
122 132 149
122 132 149
122 133 149
122 133 149
123 133 150
123 133 150
123 133 150
123 133 150
123 133 150
123 133 150
123 133 150
123 133 150
123 134 151
123 134 151
123 134 151
124 134 151
124 134 151
124 134 151
124 134 151
124 134 151
124 134 151
124 134 151
124 134 151
124 135 152
124 135 152
124 135 152
124 135 152
124 135 152
125 135 152
125 135 152
125 135 152
125 135 152
125 135 152
125 135 152
125 135 152
125 135 152
125 135 153
125 135 153
125 136 153
125 136 153
125 136 153
125 136 153
125 136 153
125 136 153
125 136 153
125 136 153
125 136 153
125 136 153
125 136 153
125 136 153
126 136 153
126 136 153
126 136 153
126 136 153
126 136 153
126 136 153
126 136 153
126 136 153
126 136 153
126 136 153
126 136 153
126 136 153
126 136 153
126 136 153
126 136 153
126 136 153
126 136 153
126 136 153
126 136 153
126 136 153
126 136 153
126 136 153
126 136 153
126 136 153
126 136 153
126 136 153
125 136 153
125 136 153
125 136 153
125 136 153
125 136 153
125 136 153
125 136 153
125 136 153
125 136 153
125 136 153
125 136 153
125 136 153
125 135 153
125 135 153
125 135 152
125 135 152
125 135 152
125 135 152
125 135 152
125 135 152
125 135 152
125 135 152
124 135 152
124 135 152
124 135 152
124 135 152
124 135 152
124 134 151
124 134 151
124 134 151
124 134 151
124 134 151
124 134 151
124 134 151
124 134 151
123 134 151
123 134 151
123 134 151
123 134 150
125 134 144
125 134 144
125 133 144
125 133 144
124 133 144
124 133 144
124 132 144
124 132 143
123 132 143
123 132 143
123 131 143
123 131 143
122 131 143
122 131 142
122 130 142
121 130 142
121 132 148
121 131 148
121 131 148
121 131 148
121 131 148
121 131 148
121 131 147
121 131 147
120 131 147
120 130 147
120 130 147
120 130 147
120 130 146
120 130 146
120 130 146
120 130 146
119 129 146
119 129 146
119 129 146
119 129 145
119 129 145
119 129 145
119 129 145
118 128 145
118 128 145
118 128 144
118 128 144
118 128 144
118 128 144
118 127 144
117 127 143
117 127 143
117 127 143
117 127 143
117 127 143
117 127 143
117 126 142
116 126 142
116 126 142
116 126 142
116 126 142
116 126 141
116 125 141
116 125 141
115 125 141
115 125 141
115 125 141
115 125 140
115 124 140
115 124 140
120 130 147
120 130 147
120 130 147
120 130 147
121 131 147
121 131 147
121 131 147
121 131 148
121 131 148
121 131 148
121 131 148
121 132 148
121 132 148
122 132 148
122 132 149
122 132 149
122 132 149
122 132 149
122 132 149
122 132 149
122 133 149
122 133 150
123 133 150
123 133 150
123 133 150
123 133 150
123 133 150
123 133 150
123 133 150
123 134 150
123 134 151
123 134 151
124 134 151
124 134 151
124 134 151
124 134 151
124 134 151
124 134 151
124 134 151
124 134 151
124 135 152
124 135 152
124 135 152
124 135 152
124 135 152
124 135 152
125 135 152
125 135 152
125 135 152
125 135 152
125 135 152
125 135 152
125 135 152
125 135 153
125 135 153
125 136 153
125 136 153
125 136 153
125 136 153
125 136 153
125 136 153
125 136 153
125 136 153
125 136 153
125 136 153
125 136 153
126 136 153
126 136 153
126 136 153
126 136 153
126 136 153
126 136 153
126 136 153
126 136 153
126 136 153
126 136 153
126 136 153
126 136 153
126 136 153
126 136 153
126 136 153
126 136 153
126 136 153
126 136 153
126 136 153
126 136 153
126 136 153
126 136 153
126 136 153
126 136 153
126 136 153
126 136 153
126 136 153
126 136 153
126 136 153
126 136 153
126 136 153
125 136 153
125 136 153
125 136 153
125 136 153
125 136 153
125 136 153
125 136 153
125 136 153
125 136 153
125 136 153
125 136 153
125 135 153
125 135 153
125 135 153
125 135 152
125 135 152
125 135 152
125 135 152
125 135 152
125 135 152
125 135 152
124 135 152
124 135 152
124 135 152
124 135 152
124 135 152
124 134 152
124 134 151
124 134 151
124 134 151
124 134 151
124 134 151
124 134 151
124 134 151
123 134 151
123 134 151
123 134 151
123 134 150
123 133 150
123 133 150
125 134 144
125 133 144
125 133 144
124 133 144
124 133 144
124 132 143
124 132 143
123 132 143
123 132 143
123 131 143
122 132 149
122 132 149
122 132 149
122 132 148
121 132 148
121 131 148
121 131 148
121 131 148
121 131 148
121 131 148
121 131 147
121 131 147
121 131 147
120 130 147
120 130 147
120 130 147
120 130 147
120 130 146
120 130 146
120 130 146
119 129 146
119 129 146
119 129 146
119 129 145
119 129 145
119 129 145
119 129 145
119 128 145
118 128 145
118 128 144
118 128 144
118 128 144
118 128 144
118 128 144
118 127 144
117 127 143
117 127 143
117 127 143
117 127 143
117 127 143
117 126 142
116 126 142
116 126 142
116 126 142
116 126 142
116 126 142
116 125 141
116 125 141
115 125 141
115 125 141
115 125 141
115 125 140
115 124 140
120 130 147
120 130 147
120 131 147
121 131 147
121 131 147
121 131 148
121 131 148
121 131 148
121 131 148
121 131 148
121 132 148
122 132 148
122 132 149
122 132 149
122 132 149
122 132 149
122 132 149
122 132 149
122 133 149
122 133 149
122 133 150
123 133 150
123 133 150
123 133 150
123 133 150
123 133 150
123 133 150
123 133 150
123 134 150
123 134 151
123 134 151
124 134 151
124 134 151
124 134 151
124 134 151
124 134 151
124 134 151
124 134 151
124 134 151
124 135 152
124 135 152
124 135 152
124 135 152
124 135 152
125 135 152
125 135 152
125 135 152
125 135 152
125 135 152
125 135 152
125 135 152
125 135 152
125 135 153
125 135 153
125 136 153
125 136 153
125 136 153
125 136 153
125 136 153
125 136 153
125 136 153
125 136 153
125 136 153
125 136 153
126 136 153
126 136 153
126 136 153
126 136 153
126 136 153
126 136 153
126 136 153
126 136 153
126 136 153
126 136 153
126 136 153
126 136 153
126 136 153
126 136 153
126 136 153
126 136 153
126 136 153
126 136 153
126 136 153
126 136 153
126 136 153
126 136 153
126 136 153
126 136 153
126 136 153
126 136 153
126 136 153
126 136 153
126 136 153
126 136 153
126 136 153
126 136 153
126 136 153
126 136 153
126 136 153
125 136 153
125 136 153
125 136 153
125 136 153
125 136 153
125 136 153
125 136 153
125 136 153
125 136 153
125 136 153
125 136 153
125 135 153
125 135 153
125 135 152
125 135 152
125 135 152
125 135 152
125 135 152
125 135 152
125 135 152
124 135 152
124 135 152
124 135 152
124 135 152
124 135 152
124 134 152
124 134 151
124 134 151
124 134 151
124 134 151
124 134 151
124 134 151
124 134 151
123 134 151
123 134 151
123 134 151
123 134 150
123 133 150
123 133 150
123 133 150
123 133 150
123 133 150
123 133 150
123 133 150
122 133 149
122 133 149
122 132 149
122 132 149
122 132 149
122 132 149
122 132 149
122 132 149
122 132 148
121 132 148
121 131 148
121 131 148
121 131 148
121 131 148
121 131 148
121 131 147
121 131 147
121 131 147
120 130 147
120 130 147
120 130 147
120 130 147
120 130 146
120 130 146
120 130 146
119 129 146
119 129 146
119 129 146
119 129 145
119 129 145
119 129 145
119 129 145
119 128 145
118 128 145
118 128 144
118 128 144
118 128 144
118 128 144
118 128 144
118 127 144
117 127 143
117 127 143
117 127 143
117 127 143
117 127 143
117 126 142
117 126 142
116 126 142
116 126 142
116 126 142
116 126 142
116 125 141
116 125 141
115 125 141
115 125 141
115 125 141
115 125 140
120 130 147
120 131 147
121 131 147
121 131 147
121 131 148
121 131 148
121 131 148
121 131 148
121 131 148
121 132 148
122 132 148
122 132 149
122 132 149
122 132 149
122 132 149
122 132 149
122 132 149
122 133 149
122 133 149
123 133 150
123 133 150
123 133 150
123 133 150
123 133 150
123 133 150
123 133 150
123 133 150
123 134 151
123 134 151
123 134 151
124 134 151
124 134 151
124 134 151
124 134 151
124 134 151
124 134 151
124 134 151
124 134 152
124 135 152
124 135 152
124 135 152
124 135 152
124 135 152
125 135 152
125 135 152
125 135 152
125 135 152
125 135 152
125 135 152
125 135 152
125 135 153
125 135 153
125 136 153
125 136 153
125 136 153
125 136 153
125 136 153
125 136 153
125 136 153
125 136 153
125 136 153
125 136 153
126 136 153
126 136 153
126 136 153
126 136 153
126 136 153
126 136 153
126 136 153
126 136 153
126 136 153
126 136 153
126 136 153
126 136 153
126 136 153
126 136 154
126 136 154
126 136 154
126 136 154
126 136 154
126 136 154
126 136 154
126 136 154
126 136 154
126 136 154
126 136 154
126 136 154
126 136 154
126 136 153
126 136 153
126 136 153
126 136 153
126 136 153
126 136 153
126 136 153
126 136 153
126 136 153
126 136 153
126 136 153
126 136 153
126 136 153
125 136 153
125 136 153
125 136 153
125 136 153
125 136 153
125 136 153
125 136 153
125 136 153
125 136 153
125 136 153
125 135 153
125 135 153
125 135 152
125 135 152
125 135 152
125 135 152
125 135 152
125 135 152
125 135 152
124 135 152
124 135 152
124 135 152
124 135 152
124 135 152
124 134 151
124 134 151
124 134 151
124 134 151
124 134 151
124 134 151
124 134 151
124 134 151
123 134 151
123 134 151
123 134 150
123 133 150
123 133 150
123 133 150
123 133 150
123 133 150
123 133 150
123 133 150
123 133 150
122 133 149
122 133 149
122 132 149
122 132 149
122 132 149
122 132 149
122 132 149
122 132 149
122 132 148
121 132 148
121 131 148
121 131 148
121 131 148
121 131 148
121 131 148
121 131 147
121 131 147
121 131 147
120 130 147
120 130 147
120 130 147
120 130 147
120 130 146
120 130 146
120 130 146
119 129 146
119 129 146
119 129 146
119 129 145
119 129 145
119 129 145
119 129 145
119 128 145
118 128 145
118 128 144
118 128 144
118 128 144
118 128 144
118 128 144
118 127 144
117 127 143
117 127 143
117 127 143
117 127 143
117 127 143
117 126 143
117 126 142
116 126 142
116 126 142
116 126 142
116 126 142
116 126 141
116 125 141
115 125 141
115 125 141
115 125 141
121 131 147
121 131 147
121 131 147
121 131 148
121 131 148
121 131 148
121 131 148
121 132 148
121 132 148
122 132 148
122 132 149
122 132 149
122 132 149
122 132 149
122 132 149
122 132 149
122 133 149
122 133 149
123 133 150
123 133 150
123 133 150
123 133 150
123 133 150
123 133 150
123 133 150
123 134 150
123 134 151
123 134 151
123 134 151
124 134 151
124 134 151
124 134 151
124 134 151
124 134 151
124 134 151
124 134 151
124 134 152
124 135 152
124 135 152
124 135 152
124 135 152
125 135 152
125 135 152
125 135 152
125 135 152
125 135 152
125 135 152
125 135 152
125 135 152
125 135 153
125 135 153
125 136 153
125 136 153
125 136 153
125 136 153
125 136 153
125 136 153
125 136 153
125 136 153
125 136 153
126 136 153
126 136 153
126 136 153
126 136 153
126 136 153
126 136 153
126 136 153
126 136 153
126 136 153
126 136 153
126 136 153
126 136 154
126 136 154
126 136 154
126 136 154
126 136 154
126 136 154
126 136 154
126 136 154
126 136 154
126 136 154
126 136 154
126 136 154
126 136 154
126 136 154
126 136 154
126 136 154
126 136 154
126 136 154
126 136 154
126 136 154
126 136 153
126 136 153
126 136 153
126 136 153
126 136 153
126 136 153
126 136 153
126 136 153
126 136 153
126 136 153
126 136 153
125 136 153
125 136 153
125 136 153
125 136 153
125 136 153
125 136 153
125 136 153
125 136 153
125 136 153
125 136 153
125 135 153
125 135 153
125 135 152
125 135 152
125 135 152
125 135 152
125 135 152
125 135 152
125 135 152
124 135 152
124 135 152
124 135 152
124 135 152
124 135 152
124 134 151
124 134 151
124 134 151
124 134 151
124 134 151
124 134 151
124 134 151
124 134 151
123 134 151
123 134 151
123 134 150
123 133 150
123 133 150
123 133 150
123 133 150
123 133 150
123 133 150
123 133 150
123 133 150
122 133 149
122 133 149
122 132 149
122 132 149
122 132 149
122 132 149
122 132 149
122 132 149
122 132 148
121 132 148
121 131 148
121 131 148
121 131 148
121 131 148
121 131 148
121 131 147
121 131 147
121 131 147
120 130 147
120 130 147
120 130 147
120 130 147
120 130 146
120 130 146
120 130 146
119 129 146
119 129 146
119 129 146
119 129 145
119 129 145
119 129 145
119 129 145
119 128 145
118 128 145
118 128 144
118 128 144
118 128 144
118 128 144
118 128 144
118 127 144
117 127 143
117 127 143
117 127 143
117 127 143
117 127 143
117 127 143
117 126 142
116 126 142
116 126 142
116 126 142
116 126 142
116 126 141
116 125 141
116 125 141
115 125 141
121 131 147
121 131 148
121 131 148
121 131 148
121 131 148
121 131 148
121 132 148
122 132 148
122 132 148
122 132 149
122 132 149
122 132 149
122 132 149
122 132 149
122 132 149
122 133 149
122 133 150
123 133 150
123 133 150
123 133 150
123 133 150
123 133 150
123 133 150
123 133 150
123 134 150
123 134 151
123 134 151
124 134 151
124 134 151
124 134 151
124 134 151
124 134 151
124 134 151
124 134 151
124 134 151
124 135 152
124 135 152
124 135 152
124 135 152
124 135 152
125 135 152
125 135 152
125 135 152
125 135 152
125 135 152
125 135 152
125 135 152
125 135 152
125 135 153
125 135 153
125 136 153
125 136 153
125 136 153
125 136 153
125 136 153
125 136 153
125 136 153
125 136 153
125 136 153
126 136 153
126 136 153
126 136 153
126 136 153
126 136 153
126 136 153
126 136 153
126 136 153
126 136 153
126 136 153
126 136 154
126 136 154
126 136 154
126 136 154
126 136 154
126 136 154
126 136 154
126 136 154
126 136 154
126 136 154
126 136 154
126 136 154
126 136 154
126 136 154
126 136 154
126 136 154
126 136 154
126 136 154
126 136 154
126 136 154
126 136 154
126 136 154
126 136 154
126 136 154
126 136 153
126 136 153
126 136 153
126 136 153
126 136 153
126 136 153
126 136 153
126 136 153
126 136 153
126 136 153
126 136 153
125 136 153
125 136 153
125 136 153
125 136 153
125 136 153
125 136 153
125 136 153
125 136 153
125 136 153
125 135 153
125 135 153
125 135 152
125 135 152
125 135 152
125 135 152
125 135 152
125 135 152
125 135 152
124 135 152
124 135 152
124 135 152
124 135 152
124 135 152
124 134 151
124 134 151
124 134 151
124 134 151
124 134 151
124 134 151
124 134 151
124 134 151
123 134 151
123 134 151
123 134 150
123 133 150
123 133 150
123 133 150
123 133 150
123 133 150
123 133 150
123 133 150
123 133 150
122 133 149
122 133 149
122 132 149
122 132 149
122 132 149
122 132 149
122 132 149
122 132 148
122 132 148
121 132 148
121 131 148
121 131 148
121 131 148
121 131 148
121 131 148
121 131 147
121 131 147
120 131 147
120 130 147
120 130 147
120 130 147
120 130 146
120 130 146
120 130 146
120 130 146
119 129 146
119 129 146
119 129 146
119 129 145
119 129 145
119 129 145
119 129 145
119 128 145
118 128 145
118 128 144
118 128 144
118 128 144
118 128 144
118 128 144
118 127 144
117 127 143
117 127 143
117 127 143
117 127 143
117 127 143
117 127 143
117 126 142
116 126 142
116 126 142
116 126 142
116 126 142
116 126 142
116 125 141
116 125 141
121 131 148
121 131 148
121 131 148
121 131 148
121 131 148
121 132 148
122 132 148
122 132 149
122 132 149
122 132 149
122 132 149
122 132 149
122 132 149
122 132 149
122 133 149
122 133 150
123 133 150
123 133 150
123 133 150
123 133 150
123 133 150
123 133 150
123 133 150
123 134 150
123 134 151
123 134 151
124 134 151
124 134 151
124 134 151
124 134 151
124 134 151
124 134 151
124 134 151
124 134 151
124 135 152
124 135 152
124 135 152
124 135 152
124 135 152
125 135 152
125 135 152
125 135 152
125 135 152
125 135 152
125 135 152
125 135 152
125 135 152
125 135 153
125 135 153
125 136 153
125 136 153
125 136 153
125 136 153
125 136 153
125 136 153
125 136 153
125 136 153
125 136 153
126 136 153
126 136 153
126 136 153
126 136 153
126 136 153
126 136 153
126 136 153
126 136 153
126 136 153
126 136 154
126 136 154
126 136 154
126 136 154
126 136 154
126 136 154
126 136 154
126 136 154
126 136 154
126 136 154
126 136 154
126 136 154
126 136 154
126 136 154
126 136 154
126 136 154
126 136 154
126 136 154
126 136 154
126 136 154
126 136 154
126 136 154
126 136 154
126 136 154
126 136 154
126 136 154
126 136 154
126 136 154
126 136 153
126 136 153
126 136 153
126 136 153
126 136 153
126 136 153
126 136 153
126 136 153
126 136 153
126 136 153
125 136 153
125 136 153
125 136 153
125 136 153
125 136 153
125 136 153
125 136 153
125 136 153
125 136 153
125 135 153
125 135 152
125 135 152
125 135 152
125 135 152
125 135 152
125 135 152
125 135 152
125 135 152
124 135 152
124 135 152
124 135 152
124 135 152
124 135 152
124 134 151
124 134 151
124 134 151
124 134 151
124 134 151
124 134 151
124 134 151
124 134 151
123 134 151
123 134 151
123 134 150
123 133 150
123 133 150
123 133 150
123 133 150
123 133 150
123 133 150
123 133 150
122 133 149
122 133 149
122 132 149
122 132 149
122 132 149
122 132 149
122 132 149
122 132 149
122 132 148
122 132 148
121 132 148
121 131 148
121 131 148
121 131 148
121 131 148
121 131 148
121 131 147
121 131 147
120 131 147
120 130 147
120 130 147
120 130 147
120 130 146
120 130 146
120 130 146
120 130 146
119 129 146
119 129 146
119 129 146
119 129 145
119 129 145
119 129 145
119 129 145
119 128 145
118 128 145
118 128 144
118 128 144
118 128 144
118 128 144
118 128 144
118 127 144
117 127 143
117 127 143
117 127 143
117 127 143
117 127 143
117 127 143
117 126 142
116 126 142
116 126 142
116 126 142
116 126 142
116 126 142
116 125 141
121 131 148
121 131 148
121 131 148
121 131 148
121 132 148
122 132 148
122 132 149
122 132 149
122 132 149
122 132 149
122 132 149
122 132 149
122 133 149
122 133 149
122 133 150
123 133 150
123 133 150
123 133 150
123 133 150
123 133 150
123 133 150
123 133 150
123 134 150
123 134 151
123 134 151
124 134 151
124 134 151
124 134 151
124 134 151
124 134 151
124 134 151
124 134 151
124 134 151
124 135 152
124 135 152
124 135 152
124 135 152
124 135 152
125 135 152
125 135 152
125 135 152
125 135 152
125 135 152
125 135 152
125 135 152
125 135 153
125 135 153
125 136 153
125 136 153
125 136 153
125 136 153
125 136 153
125 136 153
125 136 153
125 136 153
125 136 153
126 136 153
126 136 153
126 136 153
126 136 153
126 136 153
126 136 153
126 136 153
126 136 153
126 136 153
126 136 154
126 136 154
126 136 154
126 136 154
126 136 154
126 136 154
126 136 154
126 136 154
126 136 154
126 136 154
126 136 154
126 136 154
126 136 154
126 136 154
126 136 154
126 136 154
126 136 154
126 136 154
126 136 154
126 136 154
126 136 154
126 136 154
126 136 154
126 136 154
126 136 154
126 136 154
126 136 154
126 136 154
126 136 154
126 136 154
126 136 154
126 136 153
126 136 153
126 136 153
126 136 153
126 136 153
126 136 153
126 136 153
126 136 153
126 136 153
126 136 153
125 136 153
125 136 153
125 136 153
125 136 153
125 136 153
125 136 153
125 136 153
125 136 153
125 135 153
125 135 153
125 135 152
125 135 152
125 135 152
125 135 152
125 135 152
125 135 152
125 135 152
125 135 152
124 135 152
124 135 152
124 135 152
124 135 152
124 134 151
124 134 151
124 134 151
124 134 151
124 134 151
124 134 151
124 134 151
124 134 151
123 134 151
123 134 151
123 134 150
123 134 150
123 133 150
123 133 150
123 133 150
123 133 150
123 133 150
123 133 150
123 133 150
122 133 149
122 133 149
122 132 149
122 132 149
122 132 149
122 132 149
122 132 149
122 132 149
122 132 148
122 132 148
121 132 148
121 131 148
121 131 148
121 131 148
121 131 148
121 131 147
121 131 147
121 131 147
120 131 147
120 130 147
120 130 147
120 130 147
120 130 146
120 130 146
120 130 146
120 130 146
119 129 146
119 129 146
119 129 146
119 129 145
119 129 145
119 129 145
119 129 145
119 128 145
118 128 145
118 128 144
118 128 144
118 128 144
118 128 144
118 128 144
118 127 144
117 127 143
117 127 143
117 127 143
117 127 143
117 127 143
117 127 143
117 126 142
116 126 142
116 126 142
116 126 142
116 126 142
116 126 142
121 131 148
121 131 148
121 131 148
121 132 148
122 132 148
122 132 149
122 132 149
122 132 149
122 132 149
122 132 149
122 132 149
122 133 149
122 133 149
123 133 150
123 133 150
123 133 150
123 133 150
123 133 150
123 133 150
123 133 150
123 133 150
123 134 150
123 134 151
123 134 151
124 134 151
124 134 151
124 134 151
124 134 151
124 134 151
124 134 151
124 134 151
124 134 151
124 135 152
124 135 152
124 135 152
124 135 152
124 135 152
125 135 152
125 135 152
125 135 152
125 135 152
125 135 152
125 135 152
125 135 152
125 135 153
125 135 153
125 136 153
125 136 153
125 136 153
125 136 153
125 136 153
125 136 153
125 136 153
125 136 153
125 136 153
126 136 153
126 136 153
126 136 153
126 136 153
126 136 153
126 136 153
126 136 153
126 136 153
126 136 153
126 136 154
126 136 154
126 136 154
126 136 154
126 136 154
126 136 154
126 136 154
126 136 154
126 136 154
126 136 154
126 136 154
126 137 154
126 137 154
126 137 154
126 137 154
126 137 154
126 137 154
126 137 154
126 137 154
126 137 154
126 137 154
126 137 154
126 136 154
126 136 154
126 136 154
126 136 154
126 136 154
126 136 154
126 136 154
126 136 154
126 136 154
126 136 154
126 136 154
126 136 153
126 136 153
126 136 153
126 136 153
126 136 153
126 136 153
126 136 153
126 136 153
126 136 153
125 136 153
125 136 153
125 136 153
125 136 153
125 136 153
125 136 153
125 136 153
125 136 153
125 136 153
125 135 153
125 135 153
125 135 152
125 135 152
125 135 152
125 135 152
125 135 152
125 135 152
125 135 152
124 135 152
124 135 152
124 135 152
124 135 152
124 135 152
124 134 151
124 134 151
124 134 151
124 134 151
124 134 151
124 134 151
124 134 151
124 134 151
123 134 151
123 134 151
123 134 150
123 133 150
123 133 150
123 133 150
123 133 150
123 133 150
123 133 150
123 133 150
123 133 150
122 133 149
122 133 149
122 132 149
122 132 149
122 132 149
122 132 149
122 132 149
122 132 149
122 132 148
121 132 148
121 132 148
121 131 148
121 131 148
121 131 148
121 131 148
121 131 147
121 131 147
121 131 147
120 131 147
120 130 147
120 130 147
120 130 147
120 130 146
120 130 146
120 130 146
120 130 146
119 129 146
119 129 146
119 129 146
119 129 145
119 129 145
119 129 145
119 129 145
119 128 145
118 128 145
118 128 144
118 128 144
118 128 144
118 128 144
118 128 144
118 127 144
117 127 143
117 127 143
117 127 143
117 127 143
117 127 143
117 127 143
117 126 142
116 126 142
116 126 142
116 126 142
116 126 142
121 131 148
121 131 148
121 132 148
122 132 148
122 132 149
122 132 149
122 132 149
122 132 149
122 132 149
122 132 149
122 133 149
122 133 149
123 133 150
123 133 150
123 133 150
123 133 150
123 133 150
123 133 150
123 133 150
123 133 150
123 134 150
123 134 151
123 134 151
124 134 151
124 134 151
124 134 151
124 134 151
124 134 151
124 134 151
124 134 151
124 134 151
124 135 152
124 135 152
124 135 152
124 135 152
124 135 152
125 135 152
125 135 152
125 135 152
125 135 152
125 135 152
125 135 152
125 135 152
125 135 152
125 135 153
125 136 153
125 136 153
125 136 153
125 136 153
125 136 153
125 136 153
125 136 153
125 136 153
125 136 153
126 136 153
126 136 153
126 136 153
126 136 153
126 136 153
126 136 153
126 136 153
126 136 153
126 136 153
126 136 154
126 136 154
126 136 154
126 136 154
126 136 154
126 136 154
126 136 154
126 136 154
126 136 154
126 136 154
126 137 154
126 137 154
126 137 154
126 137 154
126 137 154
126 137 154
126 137 154
126 137 154
126 137 154
126 137 154
126 137 154
126 137 154
126 137 154
126 137 154
126 137 154
126 136 154
126 136 154
126 136 154
126 136 154
126 136 154
126 136 154
126 136 154
126 136 154
126 136 154
126 136 154
126 136 153
126 136 153
126 136 153
126 136 153
126 136 153
126 136 153
126 136 153
126 136 153
126 136 153
125 136 153
125 136 153
125 136 153
125 136 153
125 136 153
125 136 153
125 136 153
125 136 153
125 135 153
125 135 153
125 135 152
125 135 152
125 135 152
125 135 152
125 135 152
125 135 152
125 135 152
125 135 152
124 135 152
124 135 152
124 135 152
124 135 152
124 135 152
124 134 151
124 134 151
124 134 151
124 134 151
124 134 151
124 134 151
124 134 151
124 134 151
123 134 151
123 134 151
123 134 150
123 133 150
123 133 150
123 133 150
123 133 150
123 133 150
123 133 150
123 133 150
123 133 150
122 133 149
122 133 149
122 132 149
122 132 149
122 132 149
122 132 149
122 132 149
122 132 149
122 132 148
121 132 148
121 131 148
121 131 148
121 131 148
121 131 148
121 131 148
121 131 147
121 131 147
121 131 147
120 130 147
120 130 147
120 130 147
120 130 147
120 130 146
120 130 146
120 130 146
120 130 146
119 129 146
119 129 146
119 129 146
119 129 145
119 129 145
119 129 145
119 129 145
119 128 145
118 128 145
118 128 144
118 128 144
118 128 144
118 128 144
118 128 144
118 127 144
117 127 143
117 127 143
117 127 143
117 127 143
117 127 143
117 127 143
117 126 142
116 126 142
116 126 142
116 126 142
121 132 148
121 132 148
122 132 148
122 132 149
122 132 149
122 132 149
122 132 149
122 132 149
122 132 149
122 133 149
122 133 149
123 133 150
123 133 150
123 133 150
123 133 150
123 133 150
123 133 150
123 133 150
123 133 150
123 134 150
123 134 151
123 134 151
124 134 151
124 134 151
124 134 151
124 134 151
124 134 151
124 134 151
124 134 151
124 134 151
124 135 152
124 135 152
124 135 152
124 135 152
124 135 152
125 135 152
125 135 152
125 135 152
125 135 152
125 135 152
125 135 152
125 135 152
125 135 152
125 135 153
125 135 153
125 136 153
125 136 153
125 136 153
125 136 153
125 136 153
125 136 153
125 136 153
125 136 153
126 136 153
126 136 153
126 136 153
126 136 153
126 136 153
126 136 153
126 136 153
126 136 153
126 136 153
126 136 154
126 136 154
126 136 154
126 136 154
126 136 154
126 136 154
126 136 154
126 136 154
126 136 154
126 137 154
126 137 154
126 137 154
126 137 154
126 137 154
126 137 154
126 137 154
126 137 154
126 137 154
126 137 154
126 137 154
126 137 154
126 137 154
126 137 154
126 137 154
126 137 154
126 137 154
126 137 154
126 137 154
126 136 154
126 136 154
126 136 154
126 136 154
126 136 154
126 136 154
126 136 154
126 136 154
126 136 153
126 136 153
126 136 153
126 136 153
126 136 153
126 136 153
126 136 153
126 136 153
126 136 153
126 136 153
125 136 153
125 136 153
125 136 153
125 136 153
125 136 153
125 136 153
125 136 153
125 136 153
125 135 153
125 135 153
125 135 152
125 135 152
125 135 152
125 135 152
125 135 152
125 135 152
125 135 152
124 135 152
124 135 152
124 135 152
124 135 152
124 135 152
124 134 151
124 134 151
124 134 151
124 134 151
124 134 151
124 134 151
124 134 151
124 134 151
123 134 151
123 134 151
123 134 150
123 134 150
123 133 150
123 133 150
123 133 150
123 133 150
123 133 150
123 133 150
123 133 150
122 133 149
122 133 149
122 132 149
122 132 149
122 132 149
122 132 149
122 132 149
122 132 149
122 132 148
122 132 148
121 132 148
121 131 148
121 131 148
121 131 148
121 131 148
121 131 148
121 131 147
121 131 147
121 131 147
120 130 147
120 130 147
120 130 147
120 130 147
120 130 146
120 130 146
120 130 146
120 130 146
119 129 146
119 129 146
119 129 145
119 129 145
119 129 145
119 129 145
119 129 145
119 128 145
118 128 145
118 128 144
118 128 144
118 128 144
118 128 144
118 128 144
118 127 144
117 127 143
117 127 143
117 127 143
117 127 143
117 127 143
117 127 143
117 126 142
116 126 142
116 126 142
121 132 148
122 132 148
122 132 149
122 132 149
122 132 149
122 132 149
122 132 149
122 132 149
122 133 149
122 133 149
123 133 150
123 133 150
123 133 150
123 133 150
123 133 150
123 133 150
123 133 150
123 133 150
123 134 150
123 134 151
123 134 151
124 134 151
124 134 151
124 134 151
124 134 151
124 134 151
124 134 151
124 134 151
124 134 151
124 135 152
124 135 152
124 135 152
124 135 152
124 135 152
125 135 152
125 135 152
125 135 152
125 135 152
125 135 152
125 135 152
125 135 152
125 135 152
125 135 153
125 135 153
125 136 153
125 136 153
125 136 153
125 136 153
125 136 153
125 136 153
125 136 153
125 136 153
126 136 153
126 136 153
126 136 153
126 136 153
126 136 153
126 136 153
126 136 153
126 136 153
126 136 153
126 136 154
126 136 154
126 136 154
126 136 154
126 136 154
126 136 154
126 136 154
126 136 154
126 136 154
126 137 154
126 137 154
126 137 154
126 137 154
126 137 154
126 137 154
126 137 154
126 137 154
126 137 154
126 137 154
126 137 154
126 137 154
126 137 154
126 137 154
126 137 154
126 137 154
126 137 154
126 137 154
126 137 154
126 137 154
126 137 154
126 136 154
126 136 154
126 136 154
126 136 154
126 136 154
126 136 154
126 136 154
126 136 154
126 136 153
126 136 153
126 136 153
126 136 153
126 136 153
126 136 153
126 136 153
126 136 153
126 136 153
125 136 153
125 136 153
125 136 153
125 136 153
125 136 153
125 136 153
125 136 153
125 136 153
125 135 153
125 135 153
125 135 152
125 135 152
125 135 152
125 135 152
125 135 152
125 135 152
125 135 152
125 135 152
124 135 152
124 135 152
124 135 152
124 135 152
124 135 152
124 134 151
124 134 151
124 134 151
124 134 151
124 134 151
124 134 151
124 134 151
124 134 151
123 134 151
123 134 151
123 134 150
123 133 150
123 133 150
123 133 150
123 133 150
123 133 150
123 133 150
123 133 150
123 133 150
122 133 149
122 133 149
122 132 149
122 132 149
122 132 149
122 132 149
122 132 149
122 132 149
122 132 148
122 132 148
121 132 148
121 131 148
121 131 148
121 131 148
121 131 148
121 131 147
121 131 147
121 131 147
120 131 147
120 130 147
120 130 147
120 130 147
120 130 147
120 130 146
120 130 146
120 130 146
120 130 146
119 129 146
119 129 146
119 129 145
119 129 145
119 129 145
119 129 145
119 129 145
119 128 145
118 128 145
118 128 144
118 128 144
118 128 144
118 128 144
118 128 144
118 127 144
117 127 143
117 127 143
117 127 143
117 127 143
117 127 143
117 127 143
117 126 142
117 126 142
122 132 148
122 132 149
122 132 149
122 132 149
122 132 149
122 132 149
122 132 149
122 133 149
122 133 149
123 133 150
123 133 150
123 133 150
123 133 150
123 133 150
123 133 150
123 133 150
123 133 150
123 134 150
123 134 151
123 134 151
124 134 151
124 134 151
124 134 151
124 134 151
124 134 151
124 134 151
124 134 151
124 134 151
124 134 151
124 135 152
124 135 152
124 135 152
124 135 152
124 135 152
125 135 152
125 135 152
125 135 152
125 135 152
125 135 152
125 135 152
125 135 152
125 135 153
125 135 153
125 136 153
125 136 153
125 136 153
125 136 153
125 136 153
125 136 153
125 136 153
125 136 153
125 136 153
126 136 153
126 136 153
126 136 153
126 136 153
126 136 153
126 136 153
126 136 153
126 136 153
126 136 154
126 136 154
126 136 154
126 136 154
126 136 154
126 136 154
126 136 154
126 136 154
126 136 154
126 137 154
126 137 154
126 137 154
126 137 154
126 137 154
126 137 154
126 137 154
126 137 154
126 137 154
126 137 154
126 137 154
126 137 154
126 137 154
126 137 154
126 137 154
126 137 154
126 137 154
126 137 154
126 137 154
126 137 154
126 137 154
126 137 154
126 136 154
126 136 154
126 136 154
126 136 154
126 136 154
126 136 154
126 136 154
126 136 154
126 136 153
126 136 153
126 136 153
126 136 153
126 136 153
126 136 153
126 136 153
126 136 153
126 136 153
125 136 153
125 136 153
125 136 153
125 136 153
125 136 153
125 136 153
125 136 153
125 136 153
125 136 153
125 135 153
125 135 152
125 135 152
125 135 152
125 135 152
125 135 152
125 135 152
125 135 152
125 135 152
124 135 152
124 135 152
124 135 152
124 135 152
124 135 152
124 134 151
124 134 151
124 134 151
124 134 151
124 134 151
124 134 151
124 134 151
124 134 151
123 134 151
123 134 151
123 134 150
123 134 150
123 133 150
123 133 150
123 133 150
123 133 150
123 133 150
123 133 150
123 133 150
122 133 149
122 133 149
122 132 149
122 132 149
122 132 149
122 132 149
122 132 149
122 132 149
122 132 149
122 132 148
121 132 148
121 131 148
121 131 148
121 131 148
121 131 148
121 131 148
121 131 147
121 131 147
121 131 147
120 131 147
120 130 147
120 130 147
120 130 147
120 130 146
120 130 146
120 130 146
120 130 146
120 130 146
119 129 146
119 129 146
119 129 145
119 129 145
119 129 145
119 129 145
119 129 145
119 128 145
118 128 145
118 128 144
118 128 144
118 128 144
118 128 144
118 128 144
118 127 144
117 127 143
117 127 143
117 127 143
117 127 143
117 127 143
117 127 143
117 126 142
122 132 149
122 132 149
122 132 149
122 132 149
122 132 149
122 132 149
122 133 149
122 133 149
122 133 150
123 133 150
123 133 150
123 133 150
123 133 150
123 133 150
123 133 150
123 133 150
123 134 150
123 134 151
123 134 151
123 134 151
124 134 151
124 134 151
124 134 151
124 134 151
124 134 151
124 134 151
124 134 151
124 134 151
124 135 152
124 135 152
124 135 152
124 135 152
124 135 152
125 135 152
125 135 152
125 135 152
125 135 152
125 135 152
125 135 152
125 135 152
125 135 152
125 135 153
125 136 153
125 136 153
125 136 153
125 136 153
125 136 153
125 136 153
125 136 153
125 136 153
125 136 153
126 136 153
126 136 153
126 136 153
126 136 153
126 136 153
126 136 153
126 136 153
126 136 153
126 136 153
126 136 154
126 136 154
126 136 154
126 136 154
126 136 154
126 136 154
126 136 154
126 136 154
126 137 154
126 137 154
126 137 154
126 137 154
126 137 154
126 137 154
126 137 154
126 137 154
126 137 154
126 137 154
126 137 154
126 137 154
126 137 154
126 137 154
126 137 154
126 137 154
126 137 154
126 137 154
126 137 154
126 137 154
126 137 154
126 137 154
126 137 154
126 137 154
126 136 154
126 136 154
126 136 154
126 136 154
126 136 154
126 136 154
126 136 154
126 136 154
126 136 153
126 136 153
126 136 153
126 136 153
126 136 153
126 136 153
126 136 153
126 136 153
126 136 153
125 136 153
125 136 153
125 136 153
125 136 153
125 136 153
125 136 153
125 136 153
125 136 153
125 135 153
125 135 153
125 135 152
125 135 152
125 135 152
125 135 152
125 135 152
125 135 152
125 135 152
125 135 152
124 135 152
124 135 152
124 135 152
124 135 152
124 135 151
124 134 151
124 134 151
124 134 151
124 134 151
124 134 151
124 134 151
124 134 151
124 134 151
123 134 151
123 134 151
123 134 150
123 133 150
123 133 150
123 133 150
123 133 150
123 133 150
123 133 150
123 133 150
123 133 150
122 133 149
122 133 149
122 132 149
122 132 149
122 132 149
122 132 149
122 132 149
122 132 149
122 132 148
122 132 148
121 132 148
121 131 148
121 131 148
121 131 148
121 131 148
121 131 148
121 131 147
121 131 147
121 131 147
120 130 147
120 130 147
120 130 147
120 130 147
120 130 146
120 130 146
120 130 146
120 130 146
119 129 146
119 129 146
119 129 146
119 129 145
119 129 145
119 129 145
119 129 145
119 129 145
118 128 145
118 128 145
118 128 144
118 128 144
118 128 144
118 128 144
118 128 144
118 127 144
117 127 143
117 127 143
117 127 143
117 127 143
117 127 143
117 127 143
122 132 149
122 132 149
122 132 149
122 132 149
122 132 149
122 133 149
122 133 149
122 133 150
123 133 150
123 133 150
123 133 150
123 133 150
123 133 150
123 133 150
123 133 150
123 133 150
123 134 150
123 134 151
123 134 151
124 134 151
124 134 151
124 134 151
124 134 151
124 134 151
124 134 151
124 134 151
124 134 151
124 135 152
124 135 152
124 135 152
124 135 152
124 135 152
125 135 152
125 135 152
125 135 152
125 135 152
125 135 152
125 135 152
125 135 152
125 135 152
125 135 153
125 135 153
125 136 153
125 136 153
125 136 153
125 136 153
125 136 153
125 136 153
125 136 153
125 136 153
126 136 153
126 136 153
126 136 153
126 136 153
126 136 153
126 136 153
126 136 153
126 136 153
126 136 153
126 136 154
126 136 154
126 136 154
126 136 154
126 136 154
126 136 154
126 136 154
126 136 154
126 137 154
126 137 154
126 137 154
126 137 154
126 137 154
126 137 154
126 137 154
126 137 154
126 137 154
126 137 154
126 137 154
126 137 154
126 137 154
126 137 154
126 137 154
126 137 154
126 137 154
126 137 154
126 137 154
126 137 154
126 137 154
126 137 154
126 137 154
126 137 154
126 137 154
126 136 154
126 136 154
126 136 154
126 136 154
126 136 154
126 136 154
126 136 154
126 136 154
126 136 153
126 136 153
126 136 153
126 136 153
126 136 153
126 136 153
126 136 153
126 136 153
126 136 153
125 136 153
125 136 153
125 136 153
125 136 153
125 136 153
125 136 153
125 136 153
125 136 153
125 135 153
125 135 153
125 135 152
125 135 152
125 135 152
125 135 152
125 135 152
125 135 152
125 135 152
125 135 152
124 135 152
124 135 152
124 135 152
124 135 152
124 135 152
124 134 151
124 134 151
124 134 151
124 134 151
124 134 151
124 134 151
124 134 151
124 134 151
123 134 151
123 134 151
123 134 150
123 134 150
123 133 150
123 133 150
123 133 150
123 133 150
123 133 150
123 133 150
123 133 150
123 133 149
122 133 149
122 133 149
122 132 149
122 132 149
122 132 149
122 132 149
122 132 149
122 132 149
122 132 148
121 132 148
121 132 148
121 131 148
121 131 148
121 131 148
121 131 148
121 131 147
121 131 147
121 131 147
121 131 147
120 130 147
120 130 147
120 130 147
120 130 147
120 130 146
120 130 146
120 130 146
120 130 146
119 129 146
119 129 146
119 129 146
119 129 145
119 129 145
119 129 145
119 129 145
119 129 145
118 128 145
118 128 144
118 128 144
118 128 144
118 128 144
118 128 144
118 128 144
118 127 144
117 127 143
117 127 143
117 127 143
117 127 143
117 127 143
122 132 149
122 132 149
122 132 149
122 132 149
122 132 149
122 133 149
122 133 149
123 133 150
123 133 150
123 133 150
123 133 150
123 133 150
123 133 150
123 133 150
123 133 150
123 134 150
123 134 151
123 134 151
124 134 151
124 134 151
124 134 151
124 134 151
124 134 151
124 134 151
124 134 151
124 134 151
124 135 152
124 135 152
124 135 152
124 135 152
124 135 152
125 135 152
125 135 152
125 135 152
125 135 152
125 135 152
125 135 152
125 135 152
125 135 152
125 135 153
125 135 153
125 136 153
125 136 153
125 136 153
125 136 153
125 136 153
125 136 153
125 136 153
125 136 153
125 136 153
126 136 153
126 136 153
126 136 153
126 136 153
126 136 153
126 136 153
126 136 153
126 136 153
126 136 153
126 136 154
126 136 154
126 136 154
126 136 154
126 136 154
126 136 154
126 136 154
126 136 154
126 137 154
126 137 154
126 137 154
126 137 154
126 137 154
126 137 154
126 137 154
126 137 154
126 137 154
126 137 154
126 137 154
126 137 154
126 137 154
126 137 154
126 137 154
126 137 154
126 137 154
126 137 154
126 137 154
126 137 154
126 137 154
126 137 154
126 137 154
126 137 154
126 137 154
126 136 154
126 136 154
126 136 154
126 136 154
126 136 154
126 136 154
126 136 154
126 136 154
126 136 153
126 136 153
126 136 153
126 136 153
126 136 153
126 136 153
126 136 153
126 136 153
126 136 153
125 136 153
125 136 153
125 136 153
125 136 153
125 136 153
125 136 153
125 136 153
125 136 153
125 136 153
125 135 153
125 135 152
125 135 152
125 135 152
125 135 152
125 135 152
125 135 152
125 135 152
125 135 152
124 135 152
124 135 152
124 135 152
124 135 152
124 135 152
124 134 151
124 134 151
124 134 151
124 134 151
124 134 151
124 134 151
124 134 151
124 134 151
124 134 151
123 134 151
123 134 151
123 134 150
123 133 150
123 133 150
123 133 150
123 133 150
123 133 150
123 133 150
123 133 150
123 133 150
122 133 149
122 133 149
122 132 149
122 132 149
122 132 149
122 132 149
122 132 149
122 132 149
122 132 148
122 132 148
121 132 148
121 131 148
121 131 148
121 131 148
121 131 148
121 131 148
121 131 147
121 131 147
121 131 147
120 131 147
120 130 147
120 130 147
120 130 147
120 130 146
120 130 146
120 130 146
120 130 146
120 130 146
119 129 146
119 129 146
119 129 145
119 129 145
119 129 145
119 129 145
119 129 145
119 128 145
118 128 145
118 128 144
118 128 144
118 128 144
118 128 144
118 128 144
118 128 144
118 127 144
117 127 143
117 127 143
117 127 143
117 127 143
122 132 149
122 132 149
122 132 149
122 132 149
122 133 149
122 133 149
123 133 150
123 133 150
123 133 150
123 133 150
123 133 150
123 133 150
123 133 150
123 133 150
123 134 150
123 134 151
123 134 151
124 134 151
124 134 151
124 134 151
124 134 151
124 134 151
124 134 151
124 134 151
124 134 151
124 134 151
124 135 152
124 135 152
124 135 152
124 135 152
124 135 152
125 135 152
125 135 152
125 135 152
125 135 152
125 135 152
125 135 152
125 135 152
125 135 152
125 135 153
125 135 153
125 136 153
125 136 153
125 136 153
125 136 153
125 136 153
125 136 153
125 136 153
125 136 153
126 136 153
126 136 153
126 136 153
126 136 153
126 136 153
126 136 153
126 136 153
126 136 153
126 136 153
126 136 154
126 136 154
126 136 154
126 136 154
126 136 154
126 136 154
126 136 154
126 136 154
126 137 154
126 137 154
126 137 154
126 137 154
126 137 154
126 137 154
126 137 154
126 137 154
126 137 154
126 137 154
126 137 154
126 137 154
126 137 154
126 137 154
126 137 154
126 137 154
126 137 154
126 137 154
126 137 154
126 137 154
126 137 154
126 137 154
126 137 154
126 137 154
126 137 154
126 137 154
126 136 154
126 136 154
126 136 154
126 136 154
126 136 154
126 136 154
126 136 154
126 136 154
126 136 153
126 136 153
126 136 153
126 136 153
126 136 153
126 136 153
126 136 153
126 136 153
126 136 153
125 136 153
125 136 153
125 136 153
125 136 153
125 136 153
125 136 153
125 136 153
125 136 153
125 136 153
125 135 153
125 135 152
125 135 152
125 135 152
125 135 152
125 135 152
125 135 152
125 135 152
125 135 152
125 135 152
124 135 152
124 135 152
124 135 152
124 135 152
124 135 151
124 134 151
124 134 151
124 134 151
124 134 151
124 134 151
124 134 151
124 134 151
124 134 151
123 134 151
123 134 151
123 134 150
123 133 150
123 133 150
123 133 150
123 133 150
123 133 150
123 133 150
123 133 150
123 133 150
123 133 149
122 133 149
122 133 149
122 132 149
122 132 149
122 132 149
122 132 149
122 132 149
122 132 149
122 132 148
122 132 148
121 132 148
121 131 148
121 131 148
121 131 148
121 131 148
121 131 148
121 131 147
121 131 147
121 131 147
120 130 147
120 130 147
120 130 147
120 130 147
120 130 146
120 130 146
120 130 146
120 130 146
120 129 146
119 129 146
119 129 146
119 129 145
119 129 145
119 129 145
119 129 145
119 129 145
119 128 145
118 128 145
118 128 144
118 128 144
118 128 144
118 128 144
118 128 144
118 128 144
118 127 144
117 127 143
117 127 143
117 127 143
122 132 149
122 132 149
122 132 149
122 133 149
122 133 149
123 133 150
123 133 150
123 133 150
123 133 150
123 133 150
123 133 150
123 133 150
123 133 150
123 134 150
123 134 151
123 134 151
123 134 151
124 134 151
124 134 151
124 134 151
124 134 151
124 134 151
124 134 151
124 134 151
124 134 151
124 135 152
124 135 152
124 135 152
124 135 152
124 135 152
125 135 152
125 135 152
125 135 152
125 135 152
125 135 152
125 135 152
125 135 152
125 135 152
125 135 153
125 135 153
125 136 153
125 136 153
125 136 153
125 136 153
125 136 153
125 136 153
125 136 153
125 136 153
125 136 153
126 136 153
126 136 153
126 136 153
126 136 153
126 136 153
126 136 153
126 136 153
126 136 153
126 136 153
126 136 154
126 136 154
126 136 154
126 136 154
126 136 154
126 136 154
126 136 154
126 136 154
126 137 154
126 137 154
126 137 154
126 137 154
126 137 154
126 137 154
126 137 154
126 137 154
126 137 154
126 137 154
126 137 154
126 137 154
126 137 154
126 137 154
126 137 154
126 137 154
126 137 154
126 137 154
126 137 154
126 137 154
126 137 154
126 137 154
126 137 154
126 137 154
126 137 154
126 137 154
126 136 154
126 136 154
126 136 154
126 136 154
126 136 154
126 136 154
126 136 154
126 136 154
126 136 153
126 136 153
126 136 153
126 136 153
126 136 153
126 136 153
126 136 153
126 136 153
126 136 153
125 136 153
125 136 153
125 136 153
125 136 153
125 136 153
125 136 153
125 136 153
125 136 153
125 136 153
125 135 153
125 135 152
125 135 152
125 135 152
125 135 152
125 135 152
125 135 152
125 135 152
125 135 152
125 135 152
124 135 152
124 135 152
124 135 152
124 135 152
124 135 152
124 134 151
124 134 151
124 134 151
124 134 151
124 134 151
124 134 151
124 134 151
124 134 151
124 134 151
123 134 151
123 134 150
123 134 150
123 133 150
123 133 150
123 133 150
123 133 150
123 133 150
123 133 150
123 133 150
123 133 150
122 133 149
122 133 149
122 132 149
122 132 149
122 132 149
122 132 149
122 132 149
122 132 149
122 132 148
122 132 148
121 132 148
121 131 148
121 131 148
121 131 148
121 131 148
121 131 148
121 131 147
121 131 147
121 131 147
121 131 147
120 130 147
120 130 147
120 130 147
120 130 147
120 130 146
120 130 146
120 130 146
120 130 146
119 129 146
119 129 146
119 129 146
119 129 145
119 129 145
119 129 145
119 129 145
119 129 145
119 128 145
118 128 145
118 128 144
118 128 144
118 128 144
118 128 144
118 128 144
118 127 144
118 127 143
117 127 143
117 127 143
122 132 149
122 132 149
122 133 149
122 133 149
123 133 150
123 133 150
123 133 150
123 133 150
123 133 150
123 133 150
123 133 150
123 133 150
123 133 150
123 134 150
123 134 151
123 134 151
124 134 151
124 134 151
124 134 151
124 134 151
124 134 151
124 134 151
124 134 151
124 134 151
124 134 151
124 135 152
124 135 152
124 135 152
124 135 152
124 135 152
125 135 152
125 135 152
125 135 152
125 135 152
125 135 152
125 135 152
125 135 152
125 135 152
125 135 153
125 135 153
125 136 153
125 136 153
125 136 153
125 136 153
125 136 153
125 136 153
125 136 153
125 136 153
125 136 153
126 136 153
126 136 153
126 136 153
126 136 153
126 136 153
126 136 153
126 136 153
126 136 153
126 136 153
126 136 154
126 136 154
126 136 154
126 136 154
126 136 154
126 136 154
126 136 154
126 136 154
126 137 154
126 137 154
126 137 154
126 137 154
126 137 154
126 137 154
126 137 154
126 137 154
126 137 154
126 137 154
126 137 154
126 137 154
126 137 154
126 137 154
126 137 154
126 137 154
126 137 154
126 137 154
126 137 154
126 137 154
126 137 154
126 137 154
126 137 154
126 137 154
126 137 154
126 136 154
126 136 154
126 136 154
126 136 154
126 136 154
126 136 154
126 136 154
126 136 154
126 136 153
126 136 153
126 136 153
126 136 153
126 136 153
126 136 153
126 136 153
126 136 153
126 136 153
126 136 153
125 136 153
125 136 153
125 136 153
125 136 153
125 136 153
125 136 153
125 136 153
125 136 153
125 136 153
125 135 153
125 135 152
125 135 152
125 135 152
125 135 152
125 135 152
125 135 152
125 135 152
125 135 152
125 135 152
124 135 152
124 135 152
124 135 152
124 135 152
124 135 152
124 134 151
124 134 151
124 134 151
124 134 151
124 134 151
124 134 151
124 134 151
124 134 151
124 134 151
123 134 151
123 134 151
123 134 150
123 133 150
123 133 150
123 133 150
123 133 150
123 133 150
123 133 150
123 133 150
123 133 150
122 133 149
122 133 149
122 133 149
122 132 149
122 132 149
122 132 149
122 132 149
122 132 149
122 132 149
122 132 148
122 132 148
121 132 148
121 131 148
121 131 148
121 131 148
121 131 148
121 131 148
121 131 147
121 131 147
121 131 147
120 131 147
120 130 147
120 130 147
120 130 147
120 130 146
120 130 146
120 130 146
120 130 146
120 130 146
119 129 146
119 129 146
119 129 146
119 129 145
119 129 145
119 129 145
119 129 145
119 129 145
118 128 145
118 128 144
118 128 144
118 128 144
118 128 144
118 128 144
118 128 144
118 127 144
117 127 143
117 127 143
122 132 149
122 133 149
122 133 149
122 133 150
123 133 150
123 133 150
123 133 150
123 133 150
123 133 150
123 133 150
123 133 150
123 133 150
123 134 150
123 134 151
123 134 151
124 134 151
124 134 151
124 134 151
124 134 151
124 134 151
124 134 151
124 134 151
124 134 151
124 134 151
124 135 152
124 135 152
124 135 152
124 135 152
124 135 152
125 135 152
125 135 152
125 135 152
125 135 152
125 135 152
125 135 152
125 135 152
125 135 152
125 135 152
125 135 153
125 136 153
125 136 153
125 136 153
125 136 153
125 136 153
125 136 153
125 136 153
125 136 153
125 136 153
126 136 153
126 136 153
126 136 153
126 136 153
126 136 153
126 136 153
126 136 153
126 136 153
126 136 153
126 136 153
126 136 154
126 136 154
126 136 154
126 136 154
126 136 154
126 136 154
126 136 154
126 136 154
126 136 154
126 137 154
126 137 154
126 137 154
126 137 154
126 137 154
126 137 154
126 137 154
126 137 154
126 137 154
126 137 154
126 137 154
126 137 154
126 137 154
126 137 154
126 137 154
126 137 154
126 137 154
126 137 154
126 137 154
126 137 154
126 137 154
126 137 154
126 137 154
126 137 154
126 136 154
126 136 154
126 136 154
126 136 154
126 136 154
126 136 154
126 136 154
126 136 154
126 136 153
126 136 153
126 136 153
126 136 153
126 136 153
126 136 153
126 136 153
126 136 153
126 136 153
126 136 153
125 136 153
125 136 153
125 136 153
125 136 153
125 136 153
125 136 153
125 136 153
125 136 153
125 136 153
125 135 153
125 135 152
125 135 152
125 135 152
125 135 152
125 135 152
125 135 152
125 135 152
125 135 152
125 135 152
124 135 152
124 135 152
124 135 152
124 135 152
124 135 152
124 134 151
124 134 151
124 134 151
124 134 151
124 134 151
124 134 151
124 134 151
124 134 151
124 134 151
123 134 151
123 134 151
123 134 150
123 133 150
123 133 150
123 133 150
123 133 150
123 133 150
123 133 150
123 133 150
123 133 150
123 133 150
122 133 149
122 133 149
122 132 149
122 132 149
122 132 149
122 132 149
122 132 149
122 132 149
122 132 148
122 132 148
121 132 148
121 131 148
121 131 148
121 131 148
121 131 148
121 131 148
121 131 147
121 131 147
121 131 147
121 131 147
120 130 147
120 130 147
120 130 147
120 130 147
120 130 146
120 130 146
120 130 146
120 130 146
120 130 146
119 129 146
119 129 146
119 129 145
119 129 145
119 129 145
119 129 145
119 129 145
119 128 145
118 128 145
118 128 144
118 128 144
118 128 144
118 128 144
118 128 144
118 128 144
118 127 144
117 127 143
122 132 149
122 133 149
122 133 149
123 133 150
123 133 150
123 133 150
123 133 150
123 133 150
123 133 150
123 133 150
123 133 150
123 134 150
123 134 151
123 134 151
123 134 151
124 134 151
124 134 151
124 134 151
124 134 151
124 134 151
124 134 151
124 134 151
124 134 151
124 134 151
124 135 152
124 135 152
124 135 152
124 135 152
124 135 152
125 135 152
125 135 152
125 135 152
125 135 152
125 135 152
125 135 152
125 135 152
125 135 152
125 135 153
125 135 153
125 136 153
125 136 153
125 136 153
125 136 153
125 136 153
125 136 153
125 136 153
125 136 153
125 136 153
126 136 153
126 136 153
126 136 153
126 136 153
126 136 153
126 136 153
126 136 153
126 136 153
126 136 153
126 136 153
126 136 154
126 136 154
126 136 154
126 136 154
126 136 154
126 136 154
126 136 154
126 136 154
126 136 154
126 137 154
126 137 154
126 137 154
126 137 154
126 137 154
126 137 154
126 137 154
126 137 154
126 137 154
126 137 154
126 137 154
126 137 154
126 137 154
126 137 154
126 137 154
126 137 154
126 137 154
126 137 154
126 137 154
126 137 154
126 137 154
126 137 154
126 137 154
126 136 154
126 136 154
126 136 154
126 136 154
126 136 154
126 136 154
126 136 154
126 136 154
126 136 153
126 136 153
126 136 153
126 136 153
126 136 153
126 136 153
126 136 153
126 136 153
126 136 153
126 136 153
126 136 153
125 136 153
125 136 153
125 136 153
125 136 153
125 136 153
125 136 153
125 136 153
125 136 153
125 136 153
125 135 153
125 135 152
125 135 152
125 135 152
125 135 152
125 135 152
125 135 152
125 135 152
125 135 152
125 135 152
124 135 152
124 135 152
124 135 152
124 135 152
124 135 152
124 134 151
124 134 151
124 134 151
124 134 151
124 134 151
124 134 151
124 134 151
124 134 151
124 134 151
123 134 151
123 134 151
123 134 150
123 134 150
123 133 150
123 133 150
123 133 150
123 133 150
123 133 150
123 133 150
123 133 150
123 133 150
122 133 149
122 133 149
122 132 149
122 132 149
122 132 149
122 132 149
122 132 149
122 132 149
122 132 149
122 132 148
122 132 148
121 132 148
121 131 148
121 131 148
121 131 148
121 131 148
121 131 148
121 131 147
121 131 147
121 131 147
120 131 147
120 130 147
120 130 147
120 130 147
120 130 147
120 130 146
120 130 146
120 130 146
120 130 146
119 129 146
119 129 146
119 129 146
119 129 145
119 129 145
119 129 145
119 129 145
119 129 145
119 128 145
118 128 145
118 128 144
118 128 144
118 128 144
118 128 144
118 128 144
118 128 144
118 127 144
