P3
200 150
255
191 212 234
191 212 234
191 212 234
191 212 234
191 212 234
191 212 234
191 212 234
191 212 234
191 212 234
191 212 234
191 212 234
191 212 234
191 212 234
191 212 234
191 212 234
191 212 234
191 212 234
191 212 234
191 212 234
191 212 234
191 212 234
191 212 234
191 212 234
191 212 234
191 212 234
192 212 234
192 212 234
192 212 234
192 212 234
192 212 234
192 212 234
192 212 234
192 212 234
192 212 234
192 212 234
192 212 234
192 212 234
192 212 234
192 212 234
192 212 234
192 212 234
192 212 234
192 212 234
192 213 234
192 213 234
192 213 234
192 213 234
192 213 234
192 213 234
192 213 234
192 213 234
192 213 234
192 213 234
192 213 234
192 213 234
192 213 235
192 213 235
192 213 235
192 213 235
192 213 235
192 213 235
192 213 235
192 213 235
192 213 235
192 213 235
192 213 235
192 213 235
192 213 235
192 213 235
192 213 235
192 213 235
192 213 235
192 213 235
192 213 235
192 213 235
192 213 235
192 213 235
192 213 235
192 213 235
192 213 235
192 213 235
192 213 235
192 213 235
192 213 235
192 213 235
192 213 235
192 213 235
192 213 235
192 213 235
192 213 235
192 213 235
192 213 235
192 213 235
192 213 235
192 213 235
192 213 235
192 213 235
192 213 235
192 213 235
192 213 235
192 213 235
192 213 235
192 213 235
192 213 235
192 213 235
192 213 235
192 213 235
192 213 235
192 213 235
192 213 235
192 213 235
192 213 235
192 213 235
192 213 235
192 213 235
192 213 235
192 213 235
192 213 235
192 213 235
192 213 235
192 213 235
192 213 235
192 213 235
192 213 235
192 213 235
192 213 235
192 213 235
192 213 235
192 213 235
192 213 235
192 213 235
192 213 235
192 213 235
192 213 235
192 213 235
192 213 235
192 213 235
192 213 235
192 213 235
192 213 235
192 213 235
192 213 235
192 213 235
192 213 235
192 213 235
192 213 234
192 213 234
192 213 234
192 213 234
192 213 234
192 213 234
192 213 234
192 213 234
192 213 234
192 213 234
192 213 234
192 213 234
192 212 234
192 212 234
192 212 234
192 212 234
192 212 234
192 212 234
192 212 234
192 212 234
192 212 234
192 212 234
192 212 234
192 212 234
192 212 234
192 212 234
192 212 234
192 212 234
192 212 234
192 212 234
191 212 234
191 212 234
191 212 234
191 212 234
191 212 234
191 212 234
191 212 234
191 212 234
191 212 234
191 212 234
191 212 234
191 212 234
191 212 234
191 212 234
191 212 234
191 212 234
191 212 234
191 212 234
191 212 234
191 212 234
191 212 234
191 212 234
191 212 234
191 212 234
191 212 234
191 212 234
191 212 234
191 212 234
191 212 234
191 212 234
191 212 234
191 212 234
191 212 234
191 212 234
191 212 234
191 212 234
191 212 234
191 212 234
191 212 234
191 212 234
191 212 234
191 212 234
191 212 234
191 212 234
191 212 234
191 212 234
191 212 234
191 212 234
191 212 234
191 212 234
191 212 234
191 212 234
191 212 234
191 212 234
191 212 234
191 212 234
191 212 234
191 212 234
191 212 234
191 212 234
192 212 234
192 212 234
192 212 234
192 212 234
192 212 234
192 212 234
192 212 234
192 212 234
192 212 234
192 212 234
192 212 234
192 212 234
192 212 234
192 212 234
192 212 234
192 212 234
192 212 234
192 212 234
192 212 234
192 212 234
192 213 234
192 213 234
192 213 234
192 213 234
192 213 234
192 213 234
192 213 234
192 213 234
192 213 234
192 213 234
192 213 234
192 213 234
192 213 234
192 213 234
192 213 234
192 213 234
192 213 234
192 213 235
192 213 235
192 213 235
192 213 235
192 213 235
192 213 235
192 213 235
192 213 235
192 213 235
192 213 235
192 213 235
192 213 235
192 213 235
192 213 235
192 213 235
192 213 235
192 213 235
192 213 235
192 213 235
192 213 235
192 213 235
192 213 235
192 213 235
192 213 235
192 213 235
192 213 235
192 213 235
192 213 235
192 213 235
192 213 235
192 213 235
192 213 235
192 213 235
192 213 235
192 213 235
192 213 235
192 213 235
192 213 235
192 213 235
192 213 235
192 213 235
192 213 235
192 213 235
192 213 235
192 213 235
192 213 235
192 213 235
192 213 235
192 213 235
192 213 235
192 213 235
192 213 235
192 213 235
192 213 235
192 213 235
192 213 235
192 213 234
192 213 234
192 213 234
192 213 234
192 213 234
192 213 234
192 213 234
192 213 234
192 213 234
192 213 234
192 213 234
192 213 234
192 213 234
192 213 234
192 213 234
192 213 234
192 213 234
192 212 234
192 212 234
192 212 234
192 212 234
192 212 234
192 212 234
192 212 234
192 212 234
192 212 234
192 212 234
192 212 234
192 212 234
192 212 234
192 212 234
192 212 234
192 212 234
192 212 234
192 212 234
192 212 234
192 212 234
191 212 234
191 212 234
191 212 234
191 212 234
191 212 234
191 212 234
191 212 234
191 212 234
191 212 234
191 212 234
191 212 234
191 212 234
191 212 234
191 212 234
191 212 234
191 212 234
191 212 234
191 212 234
191 212 234
191 212 234
191 212 234
191 212 234
191 212 234
191 212 234
191 212 234
191 212 234
191 212 234
191 212 234
191 212 234
191 212 234
191 212 234
191 212 234
191 212 234
191 212 234
191 212 234
191 211 234
191 211 234
191 211 234
191 211 234
191 211 234
191 211 234
191 212 234
191 212 234
191 212 234
191 212 234
191 212 234
191 212 234
191 212 234
191 212 234
191 212 234
191 212 234
191 212 234
191 212 234
191 212 234
191 212 234
191 212 234
191 212 234
191 212 234
191 212 234
191 212 234
191 212 234
191 212 234
191 212 234
191 212 234
191 212 234
191 212 234
191 212 234
191 212 234
191 212 234
191 212 234
191 212 234
191 212 234
191 212 234
191 212 234
191 212 234
191 212 234
191 212 234
191 212 234
191 212 234
191 212 234
191 212 234
192 212 234
192 212 234
192 212 234
192 212 234
192 212 234
192 212 234
192 212 234
192 212 234
192 212 234
192 212 234
192 212 234
192 212 234
192 212 234
192 212 234
192 212 234
192 212 234
192 212 234
192 212 234
192 212 234
192 212 234
192 212 234
192 212 234
192 212 234
192 212 234
192 212 234
192 212 234
192 213 234
192 213 234
192 213 234
192 213 234
192 213 234
192 213 234
192 213 234
192 213 234
192 213 234
192 213 234
192 213 234
192 213 234
192 213 234
192 213 234
192 213 234
192 213 234
192 213 234
192 213 234
192 213 234
192 213 234
192 213 234
192 213 234
192 213 234
192 213 234
192 213 234
192 213 234
192 213 234
192 213 234
192 213 234
192 213 234
192 213 234
192 213 234
192 213 234
192 213 234
192 213 234
192 213 234
192 213 234
192 213 234
192 213 234
192 213 234
192 213 234
192 213 234
192 213 234
192 213 234
192 213 234
192 213 234
192 213 234
192 213 234
192 213 234
192 213 234
192 213 234
192 213 234
192 213 234
192 213 234
192 213 234
192 213 234
192 212 234
192 212 234
192 212 234
192 212 234
192 212 234
192 212 234
192 212 234
192 212 234
192 212 234
192 212 234
192 212 234
192 212 234
192 212 234
192 212 234
192 212 234
192 212 234
192 212 234
192 212 234
192 212 234
192 212 234
192 212 234
192 212 234
192 212 234
192 212 234
192 212 234
192 212 234
191 212 234
191 212 234
191 212 234
191 212 234
191 212 234
191 212 234
191 212 234
191 212 234
191 212 234
191 212 234
191 212 234
191 212 234
191 212 234
191 212 234
191 212 234
191 212 234
191 212 234
191 212 234
191 212 234
191 212 234
191 212 234
191 212 234
191 212 234
191 212 234
191 212 234
191 212 234
191 212 234
191 212 234
191 212 234
191 212 234
191 212 234
191 212 234
191 212 234
191 212 234
191 212 234
191 212 234
191 212 234
191 212 234
191 212 234
191 212 234
191 211 234
191 211 234
191 211 234
191 211 234
191 211 234
191 211 234
190 211 233
190 211 233
190 211 233
190 211 233
191 211 233
191 211 233
191 211 233
191 211 233
191 211 234
191 211 234
191 211 234
191 211 234
191 211 234
191 211 234
191 211 234
191 212 234
191 212 234
191 212 234
191 212 234
191 212 234
191 212 234
191 212 234
191 212 234
191 212 234
191 212 234
191 212 234
191 212 234
191 212 234
191 212 234
191 212 234
191 212 234
191 212 234
191 212 234
191 212 234
191 212 234
191 212 234
191 212 234
191 212 234
191 212 234
191 212 234
191 212 234
191 212 234
191 212 234
191 212 234
191 212 234
191 212 234
191 212 234
191 212 234
191 212 234
191 212 234
191 212 234
191 212 234
191 212 234
191 212 234
191 212 234
191 212 234
191 212 234
191 212 234
191 212 234
192 212 234
192 212 234
192 212 234
192 212 234
192 212 234
192 212 234
192 212 234
192 212 234
192 212 234
192 212 234
192 212 234
192 212 234
192 212 234
192 212 234
192 212 234
192 212 234
192 212 234
192 212 234
192 212 234
192 212 234
192 212 234
192 212 234
192 212 234
192 212 234
192 212 234
192 212 234
192 212 234
192 212 234
192 212 234
192 212 234
192 212 234
192 212 234
192 212 234
192 212 234
192 212 234
192 212 234
192 212 234
192 212 234
192 212 234
192 212 234
192 212 234
192 212 234
192 212 234
192 212 234
192 212 234
192 212 234
192 212 234
192 212 234
192 212 234
192 212 234
192 212 234
192 212 234
192 212 234
192 212 234
192 212 234
192 212 234
192 212 234
192 212 234
192 212 234
192 212 234
192 212 234
192 212 234
192 212 234
192 212 234
192 212 234
192 212 234
192 212 234
192 212 234
192 212 234
192 212 234
192 212 234
192 212 234
192 212 234
192 212 234
192 212 234
192 212 234
192 212 234
192 212 234
192 212 234
192 212 234
192 212 234
192 212 234
191 212 234
191 212 234
191 212 234
191 212 234
191 212 234
191 212 234
191 212 234
191 212 234
191 212 234
191 212 234
191 212 234
191 212 234
191 212 234
191 212 234
191 212 234
191 212 234
191 212 234
191 212 234
191 212 234
191 212 234
191 212 234
191 212 234
191 212 234
191 212 234
191 212 234
191 212 234
191 212 234
191 212 234
191 212 234
191 212 234
191 212 234
191 212 234
191 212 234
191 212 234
191 212 234
191 212 234
191 212 234
191 212 234
191 212 234
191 212 234
191 212 234
191 212 234
191 212 234
191 212 234
191 211 234
191 211 234
191 211 234
191 211 234
191 211 234
191 211 234
191 211 234
191 211 233
191 211 233
191 211 233
191 211 233
190 211 233
190 211 233
190 211 233
190 211 233
190 211 233
190 211 233
190 211 233
190 211 233
190 211 233
190 211 233
190 211 233
190 211 233
190 211 233
190 211 233
190 211 233
190 211 233
190 211 233
191 211 233
191 211 233
191 211 233
191 211 234
191 211 234
191 211 234
191 211 234
191 211 234
191 211 234
191 211 234
191 211 234
191 212 234
191 212 234
191 212 234
191 212 234
191 212 234
191 212 234
191 212 234
191 212 234
191 212 234
191 212 234
191 212 234
191 212 234
191 212 234
191 212 234
191 212 234
191 212 234
191 212 234
191 212 234
191 212 234
191 212 234
191 212 234
191 212 234
191 212 234
191 212 234
191 212 234
191 212 234
191 212 234
191 212 234
191 212 234
191 212 234
191 212 234
191 212 234
191 212 234
191 212 234
191 212 234
191 212 234
191 212 234
191 212 234
191 212 234
191 212 234
191 212 234
191 212 234
191 212 234
191 212 234
191 212 234
191 212 234
191 212 234
191 212 234
191 212 234
191 212 234
191 212 234
191 212 234
191 212 234
191 212 234
191 212 234
191 212 234
192 212 234
192 212 234
192 212 234
192 212 234
192 212 234
192 212 234
192 212 234
192 212 234
192 212 234
192 212 234
192 212 234
192 212 234
192 212 234
192 212 234
192 212 234
192 212 234
192 212 234
192 212 234
192 212 234
192 212 234
192 212 234
192 212 234
192 212 234
192 212 234
192 212 234
192 212 234
192 212 234
192 212 234
192 212 234
192 212 234
192 212 234
192 212 234
192 212 234
192 212 234
192 212 234
192 212 234
192 212 234
192 212 234
192 212 234
192 212 234
191 212 234
191 212 234
191 212 234
191 212 234
191 212 234
191 212 234
191 212 234
191 212 234
191 212 234
191 212 234
191 212 234
191 212 234
191 212 234
191 212 234
191 212 234
191 212 234
191 212 234
191 212 234
191 212 234
191 212 234
191 212 234
191 212 234
191 212 234
191 212 234
191 212 234
191 212 234
191 212 234
191 212 234
191 212 234
191 212 234
191 212 234
191 212 234
191 212 234
191 212 234
191 212 234
191 212 234
191 212 234
191 212 234
191 212 234
191 212 234
191 212 234
191 212 234
191 212 234
191 212 234
191 212 234
191 212 234
191 212 234
191 212 234
191 212 234
191 212 234
191 212 234
191 212 234
191 212 234
191 212 234
191 212 234
191 212 234
191 211 234
191 211 234
191 211 234
191 211 234
191 211 234
191 211 234
191 211 234
191 211 234
191 211 233
191 211 233
191 211 233
190 211 233
190 211 233
190 211 233
190 211 233
190 211 233
190 211 233
190 211 233
190 211 233
190 211 233
190 211 233
190 211 233
190 211 233
190 211 233
190 211 233
190 211 233
190 211 233
190 211 233
190 211 233
190 211 233
190 211 233
190 211 233
190 211 233
190 211 233
190 211 233
190 211 233
190 211 233
190 211 233
190 211 233
190 211 233
190 211 233
190 211 233
190 211 233
190 211 233
190 211 233
190 211 233
191 211 233
191 211 233
191 211 233
191 211 233
191 211 234
191 211 234
191 211 234
191 211 234
191 211 234
191 211 234
191 211 234
191 211 234
191 211 234
191 212 234
191 212 234
191 212 234
191 212 234
191 212 234
191 212 234
191 212 234
191 212 234
191 212 234
191 212 234
191 212 234
191 212 234
191 212 234
191 212 234
191 212 234
191 212 234
191 212 234
191 212 234
191 212 234
191 212 234
191 212 234
191 212 234
191 212 234
191 212 234
191 212 234
191 212 234
191 212 234
191 212 234
191 212 234
191 212 234
191 212 234
191 212 234
191 212 234
191 212 234
191 212 234
191 212 234
191 212 234
191 212 234
191 212 234
191 212 234
191 212 234
191 212 234
191 212 234
191 212 234
191 212 234
191 212 234
191 212 234
191 212 234
191 212 234
191 212 234
191 212 234
191 212 234
191 212 234
191 212 234
191 212 234
191 212 234
191 212 234
191 212 234
191 212 234
191 212 234
191 212 234
191 212 234
191 212 234
191 212 234
191 212 234
191 212 234
191 212 234
191 212 234
191 212 234
191 212 234
191 212 234
191 212 234
191 212 234
191 212 234
191 212 234
191 212 234
191 212 234
191 212 234
191 212 234
191 212 234
191 212 234
191 212 234
191 212 234
191 212 234
191 212 234
191 212 234
191 212 234
191 212 234
191 212 234
191 212 234
191 212 234
191 212 234
191 212 234
191 212 234
191 212 234
191 212 234
191 212 234
191 212 234
191 212 234
191 212 234
191 212 234
191 212 234
191 212 234
191 212 234
191 212 234
191 212 234
191 212 234
191 212 234
191 212 234
191 212 234
191 212 234
191 212 234
191 212 234
191 212 234
191 212 234
191 212 234
191 212 234
191 212 234
191 212 234
191 212 234
191 212 234
191 212 234
191 212 234
191 212 234
191 212 234
191 212 234
191 212 234
191 212 234
191 212 234
191 212 234
191 211 234
191 211 234
191 211 234
191 211 234
191 211 234
191 211 234
191 211 234
191 211 234
191 211 234
191 211 233
191 211 233
191 211 233
191 211 233
190 211 233
190 211 233
190 211 233
190 211 233
190 211 233
190 211 233
190 211 233
190 211 233
190 211 233
190 211 233
190 211 233
190 211 233
190 211 233
190 211 233
190 211 233
190 211 233
190 211 233
190 211 233
190 211 233
190 211 233
190 211 233
190 211 233
190 211 233
190 211 233
190 211 233
190 211 233
190 211 233
190 211 233
190 211 233
190 211 233
190 211 233
190 211 233
190 211 233
190 211 233
190 211 233
190 211 233
190 211 233
190 211 233
190 211 233
190 211 233
190 211 233
190 211 233
190 211 233
190 211 233
190 211 233
190 211 233
190 211 233
190 211 233
190 211 233
190 211 233
190 211 233
190 211 233
190 211 233
190 211 233
191 211 233
191 211 233
191 211 233
191 211 233
191 211 233
191 211 234
191 211 234
191 211 234
191 211 234
191 211 234
191 211 234
191 211 234
191 211 234
191 211 234
191 211 234
191 212 234
191 212 234
191 212 234
191 212 234
191 212 234
191 212 234
191 212 234
191 212 234
191 212 234
191 212 234
191 212 234
191 212 234
191 212 234
191 212 234
191 212 234
191 212 234
191 212 234
191 212 234
191 212 234
191 212 234
191 212 234
191 212 234
191 212 234
191 212 234
191 212 234
191 212 234
191 212 234
191 212 234
191 212 234
191 212 234
191 212 234
191 212 234
191 212 234
191 212 234
191 212 234
191 212 234
191 212 234
191 212 234
191 212 234
191 212 234
191 212 234
191 212 234
191 212 234
191 212 234
191 212 234
191 212 234
191 212 234
191 212 234
191 212 234
191 212 234
191 212 234
191 212 234
191 212 234
191 212 234
191 212 234
191 212 234
191 212 234
191 212 234
191 212 234
191 212 234
191 212 234
191 212 234
191 212 234
191 212 234
191 212 234
191 212 234
191 212 234
191 212 234
191 212 234
191 212 234
191 212 234
191 212 234
191 212 234
191 212 234
191 212 234
191 212 234
191 212 234
191 212 234
191 212 234
191 212 234
191 212 234
191 212 234
191 212 234
191 212 234
191 212 234
191 212 234
191 212 234
191 212 234
191 212 234
191 212 234
191 212 234
191 212 234
191 212 234
191 212 234
191 212 234
191 212 234
191 212 234
191 212 234
191 212 234
191 212 234
191 212 234
191 212 234
191 212 234
191 212 234
191 212 234
191 212 234
191 211 234
191 211 234
191 211 234
191 211 234
191 211 234
191 211 234
191 211 234
191 211 234
191 211 234
191 211 234
191 211 233
191 211 233
191 211 233
191 211 233
191 211 233
190 211 233
190 211 233
190 211 233
190 211 233
190 211 233
190 211 233
190 211 233
190 211 233
190 211 233
190 211 233
190 211 233
190 211 233
190 211 233
190 211 233
190 211 233
190 211 233
190 211 233
190 211 233
190 211 233
190 211 233
190 211 233
190 211 233
190 211 233
190 211 233
190 211 233
190 211 233
190 211 233
190 211 233
190 211 233
190 211 233
190 211 233
190 211 233
190 211 233
190 211 233
190 211 233
190 211 233
190 211 233
190 211 233
190 211 233
190 211 233
190 211 233
190 211 233
190 211 233
190 211 233
190 211 233
190 211 233
190 211 233
190 211 233
190 211 233
190 211 233
190 211 233
190 211 233
190 211 233
190 211 233
190 211 233
190 211 233
190 211 233
190 211 233
190 211 233
190 211 233
190 211 233
190 211 233
190 211 233
190 211 233
190 211 233
190 211 233
190 211 233
190 211 233
190 211 233
190 211 233
190 211 233
190 211 233
190 211 233
190 211 233
190 211 233
190 211 233
191 211 233
191 211 233
191 211 233
191 211 233
191 211 233
191 211 233
191 211 234
191 211 234
191 211 234
191 211 234
191 211 234
191 211 234
191 211 234
191 211 234
191 211 234
191 211 234
191 211 234
191 211 234
191 212 234
191 212 234
191 212 234
191 212 234
191 212 234
191 212 234
191 212 234
191 212 234
191 212 234
191 212 234
191 212 234
191 212 234
191 212 234
191 212 234
191 212 234
191 212 234
191 212 234
191 212 234
191 212 234
191 212 234
191 212 234
191 212 234
191 212 234
191 212 234
191 212 234
191 212 234
191 212 234
191 212 234
191 212 234
191 212 234
191 212 234
191 212 234
191 212 234
191 212 234
191 212 234
191 212 234
191 212 234
191 212 234
191 212 234
191 212 234
191 212 234
191 212 234
191 212 234
191 212 234
191 212 234
191 212 234
191 212 234
191 212 234
191 212 234
191 212 234
191 212 234
191 212 234
191 212 234
191 212 234
191 212 234
191 212 234
191 212 234
191 212 234
191 212 234
191 212 234
191 212 234
191 212 234
191 212 234
191 212 234
191 212 234
191 212 234
191 212 234
191 212 234
191 212 234
191 212 234
191 212 234
191 212 234
191 212 234
191 212 234
191 212 234
191 212 234
191 211 234
191 211 234
191 211 234
191 211 234
191 211 234
191 211 234
191 211 234
191 211 234
191 211 234
191 211 234
191 211 234
191 211 234
191 211 233
191 211 233
191 211 233
191 211 233
191 211 233
191 211 233
190 211 233
190 211 233
190 211 233
190 211 233
190 211 233
190 211 233
190 211 233
190 211 233
190 211 233
190 211 233
190 211 233
190 211 233
190 211 233
190 211 233
190 211 233
190 211 233
190 211 233
190 211 233
190 211 233
190 211 233
190 211 233
190 211 233
190 211 233
190 211 233
190 211 233
190 211 233
190 211 233
190 211 233
190 211 233
190 211 233
190 211 233
190 211 233
190 211 233
190 211 233
190 211 233
190 211 233
190 211 233
190 211 233
190 211 233
190 211 233
190 211 233
190 211 233
190 211 233
190 211 233
190 210 233
190 210 233
190 210 233
190 210 233
190 210 233
190 210 233
190 210 233
190 211 233
190 211 233
190 211 233
190 211 233
190 211 233
190 211 233
190 211 233
190 211 233
190 211 233
190 211 233
190 211 233
190 211 233
190 211 233
190 211 233
190 211 233
190 211 233
190 211 233
190 211 233
190 211 233
190 211 233
190 211 233
190 211 233
190 211 233
190 211 233
190 211 233
190 211 233
190 211 233
190 211 233
190 211 233
190 211 233
190 211 233
190 211 233
190 211 233
190 211 233
190 211 233
190 211 233
190 211 233
190 211 233
190 211 233
190 211 233
190 211 233
190 211 233
190 211 233
190 211 233
190 211 233
190 211 233
190 211 233
190 211 233
190 211 233
190 211 233
190 211 233
190 211 233
191 211 233
191 211 233
191 211 233
191 211 233
191 211 233
191 211 233
191 211 233
191 211 233
191 211 234
191 211 234
191 211 234
191 211 234
191 211 234
191 211 234
191 211 234
191 211 234
191 211 234
191 211 234
191 211 234
191 211 234
191 211 234
191 211 234
191 211 234
191 211 234
191 211 234
191 211 234
191 211 234
191 211 234
191 211 234
191 211 234
191 211 234
191 211 234
191 212 234
191 212 234
191 212 234
191 212 234
191 212 234
191 212 234
191 212 234
191 212 234
191 212 234
191 212 234
191 212 234
191 212 234
191 212 234
191 212 234
191 212 234
191 212 234
191 212 234
191 212 234
191 211 234
191 211 234
191 211 234
191 211 234
191 211 234
191 211 234
191 211 234
191 211 234
191 211 234
191 211 234
191 211 234
191 211 234
191 211 234
191 211 234
191 211 234
191 211 234
191 211 234
191 211 234
191 211 234
191 211 234
191 211 234
191 211 234
191 211 234
191 211 234
191 211 233
191 211 233
191 211 233
191 211 233
191 211 233
191 211 233
191 211 233
191 211 233
190 211 233
190 211 233
190 211 233
190 211 233
190 211 233
190 211 233
190 211 233
190 211 233
190 211 233
190 211 233
190 211 233
190 211 233
190 211 233
190 211 233
190 211 233
190 211 233
190 211 233
190 211 233
190 211 233
190 211 233
190 211 233
190 211 233
190 211 233
190 211 233
190 211 233
190 211 233
190 211 233
190 211 233
190 211 233
190 211 233
190 211 233
190 211 233
190 211 233
190 211 233
190 211 233
190 211 233
190 211 233
190 211 233
190 211 233
190 211 233
190 211 233
190 211 233
190 211 233
190 211 233
190 211 233
190 211 233
190 211 233
190 211 233
190 211 233
190 211 233
190 211 233
190 211 233
190 210 233
190 210 233
190 210 233
190 210 233
190 210 233
190 210 233
190 210 233
189 210 233
189 210 233
189 210 233
189 210 233
189 210 233
189 210 233
189 210 233
189 210 233
189 210 233
189 210 233
190 210 233
190 210 233
190 210 233
190 210 233
190 210 233
190 210 233
190 211 233
190 211 233
190 211 233
190 211 233
190 211 233
190 211 233
190 211 233
190 211 233
190 211 233
190 211 233
190 211 233
190 211 233
190 211 233
190 211 233
190 211 233
190 211 233
190 211 233
190 211 233
190 211 233
190 211 233
190 211 233
190 211 233
190 211 233
190 211 233
190 211 233
190 211 233
190 211 233
190 211 233
190 211 233
190 211 233
190 211 233
190 211 233
190 211 233
190 211 233
190 211 233
190 211 233
190 211 233
190 211 233
190 211 233
190 211 233
190 211 233
190 211 233
190 211 233
190 211 233
190 211 233
190 211 233
190 211 233
190 211 233
190 211 233
190 211 233
190 211 233
190 211 233
190 211 233
190 211 233
190 211 233
190 211 233
190 211 233
190 211 233
190 211 233
190 211 233
190 211 233
190 211 233
190 211 233
190 211 233
190 211 233
190 211 233
190 211 233
190 211 233
191 211 233
191 211 233
191 211 233
191 211 233
191 211 233
191 211 233
191 211 233
191 211 233
191 211 233
191 211 233
191 211 233
191 211 233
191 211 233
191 211 233
191 211 233
191 211 233
191 211 233
191 211 233
191 211 233
191 211 233
191 211 233
191 211 233
191 211 233
191 211 233
191 211 233
191 211 233
191 211 233
191 211 233
191 211 233
191 211 233
191 211 233
191 211 233
190 211 233
190 211 233
190 211 233
190 211 233
190 211 233
190 211 233
190 211 233
190 211 233
190 211 233
190 211 233
190 211 233
190 211 233
190 211 233
190 211 233
190 211 233
190 211 233
190 211 233
190 211 233
190 211 233
190 211 233
190 211 233
190 211 233
190 211 233
190 211 233
190 211 233
190 211 233
190 211 233
190 211 233
190 211 233
190 211 233
190 211 233
190 211 233
190 211 233
190 211 233
190 211 233
190 211 233
190 211 233
190 211 233
190 211 233
190 211 233
190 211 233
190 211 233
190 211 233
190 211 233
190 211 233
190 211 233
190 211 233
190 211 233
190 211 233
190 211 233
190 211 233
190 211 233
190 211 233
190 211 233
190 211 233
190 211 233
190 211 233
190 211 233
190 211 233
190 211 233
190 211 233
190 211 233
190 211 233
190 211 233
190 211 233
190 211 233
190 211 233
190 211 233
190 210 233
190 210 233
190 210 233
190 210 233
190 210 233
190 210 233
189 210 233
189 210 233
189 210 233
189 210 233
189 210 233
189 210 233
189 210 233
189 210 233
189 210 233
189 210 233
189 210 233
189 210 233
189 210 233
189 210 233
189 210 233
189 210 233
189 210 233
189 210 233
189 210 233
189 210 233
189 210 233
189 210 233
189 210 233
189 210 233
189 210 233
189 210 233
189 210 233
189 210 233
189 210 233
189 210 233
190 210 233
190 210 233
190 210 233
190 210 233
190 210 233
190 210 233
190 210 233
190 211 233
190 211 233
190 211 233
190 211 233
190 211 233
190 211 233
190 211 233
190 211 233
190 211 233
190 211 233
190 211 233
190 211 233
190 211 233
190 211 233
190 211 233
190 211 233
190 211 233
190 211 233
190 211 233
190 211 233
190 211 233
190 211 233
190 211 233
190 211 233
190 211 233
190 211 233
190 211 233
190 211 233
190 211 233
190 211 233
190 211 233
190 211 233
190 211 233
190 211 233
190 211 233
190 211 233
190 211 233
190 211 233
190 211 233
190 211 233
190 211 233
190 211 233
190 211 233
190 211 233
190 211 233
190 211 233
190 211 233
190 211 233
190 211 233
190 211 233
190 211 233
190 211 233
190 211 233
190 211 233
190 211 233
190 211 233
190 211 233
190 211 233
190 211 233
190 211 233
190 211 233
190 211 233
190 211 233
190 211 233
190 211 233
190 211 233
190 211 233
190 211 233
190 211 233
190 211 233
190 211 233
190 211 233
190 211 233
190 211 233
190 211 233
190 211 233
190 211 233
190 211 233
190 211 233
190 211 233
190 211 233
190 211 233
190 211 233
190 211 233
190 211 233
190 211 233
190 211 233
190 211 233
190 211 233
190 211 233
190 211 233
190 211 233
190 211 233
190 211 233
190 211 233
190 211 233
190 211 233
190 211 233
190 211 233
190 211 233
190 211 233
190 211 233
190 211 233
190 211 233
190 211 233
190 211 233
190 211 233
190 211 233
190 211 233
190 211 233
190 211 233
190 211 233
190 211 233
190 211 233
190 211 233
190 211 233
190 211 233
190 211 233
190 211 233
190 211 233
190 211 233
190 211 233
190 211 233
190 211 233
190 211 233
190 211 233
190 211 233
190 211 233
190 211 233
190 211 233
190 211 233
190 211 233
190 211 233
190 211 233
190 211 233
190 211 233
190 211 233
190 211 233
190 211 233
190 211 233
190 211 233
190 211 233
190 211 233
190 211 233
190 211 233
190 211 233
190 210 233
190 210 233
190 210 233
190 210 233
190 210 233
190 210 233
190 210 233
189 210 233
189 210 233
189 210 233
189 210 233
189 210 233
189 210 233
189 210 233
189 210 233
189 210 233
189 210 233
189 210 233
189 210 233
189 210 233
189 210 233
189 210 233
189 210 233
189 210 233
189 210 233
189 210 233
189 210 233
189 210 232
189 210 232
189 210 232
189 210 232
189 210 232
189 210 232
189 210 232
189 210 232
189 210 232
189 210 232
189 210 233
189 210 233
189 210 233
189 210 233
189 210 233
189 210 233
189 210 233
189 210 233
189 210 233
189 210 233
189 210 233
189 210 233
189 210 233
189 210 233
189 210 233
189 210 233
189 210 233
189 210 233
189 210 233
189 210 233
189 210 233
190 210 233
190 210 233
190 210 233
190 210 233
190 210 233
190 210 233
190 210 233
190 210 233
190 210 233
190 211 233
190 211 233
190 211 233
190 211 233
190 211 233
190 211 233
190 211 233
190 211 233
190 211 233
190 211 233
190 211 233
190 211 233
190 211 233
190 211 233
190 211 233
190 211 233
190 211 233
190 211 233
190 211 233
190 211 233
190 211 233
190 211 233
190 211 233
190 211 233
190 211 233
190 211 233
190 211 233
190 211 233
190 211 233
190 211 233
190 211 233
190 211 233
190 211 233
190 211 233
190 211 233
190 211 233
190 211 233
190 211 233
190 211 233
190 211 233
190 211 233
190 211 233
190 211 233
190 211 233
190 211 233
190 211 233
190 211 233
190 211 233
190 211 233
190 211 233
190 211 233
190 211 233
190 211 233
190 211 233
190 211 233
190 211 233
190 211 233
190 211 233
190 211 233
190 211 233
190 211 233
190 211 233
190 211 233
190 211 233
190 211 233
190 211 233
190 211 233
190 211 233
190 211 233
190 211 233
190 211 233
190 211 233
190 211 233
190 211 233
190 211 233
190 211 233
190 211 233
190 211 233
190 211 233
190 211 233
190 211 233
190 211 233
190 211 233
190 211 233
190 211 233
190 211 233
190 211 233
190 211 233
190 211 233
190 211 233
190 211 233
190 211 233
190 211 233
190 211 233
190 211 233
190 211 233
190 211 233
190 211 233
190 211 233
190 211 233
190 211 233
190 211 233
190 211 233
190 211 233
190 211 233
190 211 233
190 211 233
190 211 233
190 211 233
190 211 233
190 211 233
190 211 233
190 211 233
190 211 233
190 211 233
190 211 233
190 211 233
190 211 233
190 211 233
190 211 233
190 210 233
190 210 233
190 210 233
190 210 233
190 210 233
190 210 233
190 210 233
190 210 233
190 210 233
189 210 233
189 210 233
189 210 233
189 210 233
189 210 233
189 210 233
189 210 233
189 210 233
189 210 233
189 210 233
189 210 233
189 210 233
189 210 233
189 210 233
189 210 233
189 210 233
189 210 233
189 210 233
189 210 233
189 210 233
189 210 233
189 210 232
189 210 232
189 210 232
189 210 232
189 210 232
189 210 232
189 210 232
189 210 232
189 210 232
189 210 232
189 210 232
189 210 232
189 210 232
189 210 232
189 210 232
189 210 232
189 210 232
189 210 232
189 210 232
189 210 232
189 210 232
189 210 232
189 210 232
189 210 232
189 210 232
189 210 232
189 210 232
189 210 232
189 210 232
189 210 232
189 210 232
189 210 233
189 210 233
189 210 233
189 210 233
189 210 233
189 210 233
189 210 233
189 210 233
189 210 233
189 210 233
189 210 233
189 210 233
189 210 233
189 210 233
189 210 233
189 210 233
189 210 233
189 210 233
189 210 233
189 210 233
189 210 233
189 210 233
189 210 233
189 210 233
190 210 233
190 210 233
190 210 233
190 210 233
190 210 233
190 210 233
190 210 233
190 210 233
190 210 233
190 210 233
190 211 233
190 211 233
190 211 233
190 211 233
190 211 233
190 211 233
190 211 233
190 211 233
190 211 233
190 211 233
190 211 233
190 211 233
190 211 233
190 211 233
190 211 233
190 211 233
190 211 233
190 211 233
190 211 233
190 211 233
190 211 233
190 211 233
190 211 233
190 211 233
190 211 233
190 211 233
190 211 233
190 211 233
190 211 233
190 211 233
190 211 233
190 211 233
190 211 233
190 211 233
190 211 233
190 211 233
190 211 233
190 211 233
190 211 233
190 211 233
190 211 233
190 211 233
190 211 233
190 211 233
190 211 233
190 211 233
190 211 233
190 211 233
190 211 233
190 211 233
190 211 233
190 211 233
190 211 233
190 211 233
190 211 233
190 211 233
190 211 233
190 211 233
190 211 233
190 211 233
190 211 233
190 211 233
190 211 233
190 211 233
190 211 233
190 211 233
190 211 233
190 211 233
190 211 233
190 211 233
190 211 233
190 211 233
190 211 233
190 211 233
190 211 233
190 211 233
190 211 233
190 211 233
190 211 233
190 211 233
190 211 233
190 211 233
190 211 233
190 211 233
190 211 233
190 211 233
190 211 233
190 211 233
190 211 233
190 211 233
190 210 233
190 210 233
190 210 233
190 210 233
190 210 233
190 210 233
190 210 233
190 210 233
190 210 233
190 210 233
189 210 233
189 210 233
189 210 233
189 210 233
189 210 233
189 210 233
189 210 233
189 210 233
189 210 233
189 210 233
189 210 233
189 210 233
189 210 233
189 210 233
189 210 233
189 210 233
189 210 233
189 210 233
189 210 233
189 210 233
189 210 233
189 210 233
189 210 233
189 210 233
189 210 232
189 210 232
189 210 232
189 210 232
189 210 232
189 210 232
189 210 232
189 210 232
189 210 232
189 210 232
189 210 232
189 210 232
189 210 232
189 210 232
189 210 232
189 210 232
189 210 232
189 210 232
189 210 232
189 210 232
189 210 232
189 210 232
189 210 232
189 210 232
189 210 232
189 210 232
189 210 232
189 210 232
189 210 232
189 210 232
189 210 232
189 210 232
189 210 232
189 210 232
189 210 232
189 210 232
189 210 232
189 210 232
189 210 232
189 210 232
189 210 232
189 210 232
189 210 232
189 210 232
189 210 232
189 210 232
189 210 232
189 210 232
189 210 232
189 210 232
189 210 232
189 210 232
189 210 232
189 210 232
189 210 233
189 210 233
189 210 233
189 210 233
189 210 233
189 210 233
189 210 233
189 210 233
189 210 233
189 210 233
189 210 233
189 210 233
189 210 233
189 210 233
189 210 233
189 210 233
189 210 233
189 210 233
189 210 233
189 210 233
189 210 233
189 210 233
189 210 233
189 210 233
189 210 233
189 210 233
189 210 233
189 210 233
189 210 233
190 210 233
190 210 233
190 210 233
190 210 233
190 210 233
190 210 233
190 210 233
190 210 233
190 210 233
190 210 233
190 210 233
190 210 233
190 210 233
190 210 233
190 210 233
190 210 233
190 211 233
190 211 233
190 211 233
190 211 233
190 211 233
190 211 233
190 211 233
190 211 233
190 211 233
190 211 233
190 211 233
190 211 233
190 211 233
190 211 233
190 211 233
190 211 233
190 211 233
190 211 233
190 211 233
190 211 233
190 211 233
190 211 233
190 211 233
190 211 233
190 211 233
190 211 233
190 211 233
190 211 233
190 211 233
190 211 233
190 211 233
190 211 233
190 211 233
190 211 233
190 211 233
190 211 233
190 211 233
190 211 233
190 211 233
190 211 233
190 211 233
190 211 233
190 211 233
190 211 233
190 210 233
190 210 233
190 210 233
190 210 233
190 210 233
190 210 233
190 210 233
190 210 233
190 210 233
190 210 233
190 210 233
190 210 233
190 210 233
190 210 233
190 210 233
190 210 233
189 210 233
189 210 233
189 210 233
189 210 233
189 210 233
189 210 233
189 210 233
189 210 233
189 210 233
189 210 233
189 210 233
189 210 233
189 210 233
189 210 233
189 210 233
189 210 233
189 210 233
189 210 233
189 210 233
189 210 233
189 210 233
189 210 233
189 210 233
189 210 233
189 210 233
189 210 233
189 210 233
189 210 233
189 210 233
189 210 232
189 210 232
189 210 232
189 210 232
189 210 232
189 210 232
189 210 232
189 210 232
189 210 232
189 210 232
189 210 232
189 210 232
189 210 232
189 210 232
189 210 232
189 210 232
189 210 232
189 210 232
189 210 232
189 210 232
189 210 232
189 210 232
189 210 232
189 210 232
189 210 232
189 210 232
189 210 232
189 210 232
189 210 232
189 210 232
189 210 232
189 210 232
189 210 232
188 209 232
188 209 232
188 209 232
188 209 232
188 209 232
188 209 232
188 209 232
189 209 232
189 209 232
189 210 232
189 210 232
189 210 232
189 210 232
189 210 232
189 210 232
189 210 232
189 210 232
189 210 232
189 210 232
189 210 232
189 210 232
189 210 232
189 210 232
189 210 232
189 210 232
189 210 232
189 210 232
189 210 232
189 210 232
189 210 232
189 210 232
189 210 232
189 210 232
189 210 232
189 210 232
189 210 232
189 210 232
189 210 232
189 210 232
189 210 232
189 210 232
189 210 232
189 210 232
189 210 232
189 210 232
189 210 232
189 210 232
189 210 233
189 210 233
189 210 233
189 210 233
189 210 233
189 210 233
189 210 233
189 210 233
189 210 233
189 210 233
189 210 233
189 210 233
189 210 233
189 210 233
189 210 233
189 210 233
189 210 233
189 210 233
189 210 233
189 210 233
189 210 233
189 210 233
189 210 233
189 210 233
189 210 233
189 210 233
189 210 233
189 210 233
189 210 233
189 210 233
189 210 233
189 210 233
189 210 233
189 210 233
189 210 233
189 210 233
189 210 233
189 210 233
189 210 233
189 210 233
189 210 233
189 210 233
189 210 233
189 210 233
189 210 233
189 210 233
189 210 233
189 210 233
189 210 233
189 210 233
189 210 233
189 210 233
189 210 233
189 210 233
189 210 233
189 210 233
189 210 233
189 210 233
189 210 233
189 210 233
189 210 233
189 210 233
189 210 233
189 210 233
189 210 233
189 210 233
189 210 233
189 210 233
189 210 233
189 210 233
189 210 233
189 210 233
189 210 233
189 210 233
189 210 233
189 210 233
189 210 233
189 210 233
189 210 233
189 210 233
189 210 233
189 210 233
189 210 233
189 210 233
189 210 233
189 210 233
189 210 233
189 210 233
189 210 233
189 210 233
189 210 233
189 210 233
189 210 233
189 210 233
189 210 233
189 210 233
189 210 233
189 210 233
189 210 233
189 210 233
189 210 233
189 210 233
189 210 233
189 210 233
189 210 233
189 210 233
189 210 232
189 210 232
189 210 232
189 210 232
189 210 232
189 210 232
189 210 232
189 210 232
189 210 232
189 210 232
189 210 232
189 210 232
189 210 232
189 210 232
189 210 232
189 210 232
189 210 232
189 210 232
189 210 232
189 210 232
189 210 232
189 210 232
189 210 232
189 210 232
189 210 232
189 210 232
189 210 232
189 210 232
189 210 232
189 210 232
189 210 232
189 210 232
189 210 232
189 210 232
189 210 232
189 210 232
189 210 232
189 210 232
189 209 232
189 209 232
188 209 232
188 209 232
188 209 232
188 209 232
188 209 232
188 209 232
188 209 232
188 209 232
188 209 232
188 209 232
188 209 232
188 209 232
188 209 232
188 209 232
188 209 232
188 209 232
188 209 232
188 209 232
188 209 232
188 209 232
188 209 232
188 209 232
188 209 232
188 209 232
188 209 232
188 209 232
189 209 232
189 210 232
189 210 232
189 210 232
189 210 232
189 210 232
189 210 232
189 210 232
189 210 232
189 210 232
189 210 232
189 210 232
189 210 232
189 210 232
189 210 232
189 210 232
189 210 232
189 210 232
189 210 232
189 210 232
189 210 232
189 210 232
189 210 232
189 210 232
189 210 232
189 210 232
189 210 232
189 210 232
189 210 232
189 210 232
189 210 232
189 210 232
189 210 232
189 210 232
189 210 232
189 210 232
189 210 232
189 210 232
189 210 232
189 210 232
189 210 232
189 210 232
189 210 232
189 210 232
189 210 232
189 210 232
189 210 232
189 210 232
189 210 233
189 210 233
189 210 233
189 210 233
189 210 233
189 210 233
189 210 233
189 210 233
189 210 233
189 210 233
189 210 233
189 210 233
189 210 233
189 210 233
189 210 233
189 210 233
189 210 233
189 210 233
189 210 233
189 210 233
189 210 233
189 210 233
189 210 233
189 210 233
189 210 233
189 210 233
189 210 233
189 210 233
189 210 233
189 210 233
189 210 233
189 210 233
189 210 233
189 210 233
189 210 233
189 210 233
189 210 233
189 210 233
189 210 233
189 210 233
189 210 233
189 210 233
189 210 233
189 210 233
189 210 233
189 210 233
189 210 233
189 210 233
189 210 233
189 210 233
189 210 233
189 210 233
189 210 233
189 210 233
189 210 233
189 210 233
189 210 233
189 210 233
189 210 233
189 210 233
189 210 233
189 210 233
189 210 233
189 210 233
189 210 233
189 210 233
189 210 232
189 210 232
189 210 232
189 210 232
189 210 232
189 210 232
189 210 232
189 210 232
189 210 232
189 210 232
189 210 232
189 210 232
189 210 232
189 210 232
189 210 232
189 210 232
189 210 232
189 210 232
189 210 232
189 210 232
189 210 232
189 210 232
189 210 232
189 210 232
189 210 232
189 210 232
189 210 232
189 210 232
189 210 232
189 210 232
189 210 232
189 210 232
189 210 232
189 210 232
189 210 232
189 210 232
189 210 232
189 210 232
189 210 232
189 210 232
189 210 232
189 210 232
189 210 232
189 210 232
189 210 232
189 210 232
189 210 232
189 209 232
188 209 232
188 209 232
188 209 232
188 209 232
188 209 232
188 209 232
188 209 232
188 209 232
188 209 232
188 209 232
188 209 232
188 209 232
188 209 232
188 209 232
188 209 232
188 209 232
188 209 232
188 209 232
188 209 232
188 209 232
188 209 232
188 209 232
188 209 232
188 209 232
188 209 232
188 209 232
188 209 232
188 209 232
188 209 232
188 209 232
188 209 232
188 209 232
188 209 232
188 209 232
188 209 232
188 209 232
188 209 232
188 209 232
188 209 232
188 209 232
188 209 232
188 209 232
188 209 232
188 209 232
188 209 232
188 209 232
188 209 232
188 209 232
188 209 232
188 209 232
188 209 232
189 209 232
189 210 232
189 210 232
189 210 232
189 210 232
189 210 232
189 210 232
189 210 232
189 210 232
189 210 232
189 210 232
189 210 232
189 210 232
189 210 232
189 210 232
189 210 232
189 210 232
189 210 232
189 210 232
189 210 232
189 210 232
189 210 232
189 210 232
189 210 232
189 210 232
189 210 232
189 210 232
189 210 232
189 210 232
189 210 232
189 210 232
189 210 232
189 210 232
189 210 232
189 210 232
189 210 232
189 210 232
189 210 232
189 210 232
189 210 232
189 210 232
189 210 232
189 210 232
189 210 232
189 210 232
189 210 232
189 210 232
189 210 232
189 210 232
189 210 232
189 210 232
189 210 232
189 210 232
189 210 232
189 210 232
189 210 232
189 210 232
189 210 232
189 210 232
189 210 232
189 210 232
189 210 232
189 210 232
189 210 232
189 210 232
189 210 232
189 210 232
189 210 232
189 210 232
189 210 232
189 210 232
189 210 232
189 210 232
189 210 232
189 210 232
189 210 232
189 210 232
189 210 232
189 210 232
189 210 232
189 210 232
189 210 232
189 210 232
189 210 232
189 210 232
189 210 232
189 210 232
189 210 232
189 210 232
189 210 232
189 210 232
189 210 232
189 210 232
189 210 232
189 210 232
189 210 232
189 210 232
189 210 232
189 210 232
189 210 232
189 210 232
189 210 232
189 210 232
189 210 232
189 210 232
189 210 232
189 210 232
189 210 232
189 210 232
189 210 232
189 210 232
189 210 232
189 210 232
189 210 232
189 210 232
189 210 232
189 210 232
189 210 232
189 210 232
189 210 232
189 210 232
189 210 232
189 210 232
189 210 232
189 210 232
189 210 232
189 210 232
189 210 232
189 210 232
189 210 232
189 210 232
189 210 232
189 210 232
189 210 232
189 210 232
189 209 232
188 209 232
188 209 232
188 209 232
188 209 232
188 209 232
188 209 232
188 209 232
188 209 232
188 209 232
188 209 232
188 209 232
188 209 232
188 209 232
188 209 232
188 209 232
188 209 232
188 209 232
188 209 232
188 209 232
188 209 232
188 209 232
188 209 232
188 209 232
188 209 232
188 209 232
188 209 232
188 209 232
188 209 232
188 209 232
188 209 232
188 209 232
188 209 232
188 209 232
188 209 232
188 209 232
188 209 232
188 209 232
188 209 232
188 209 232
188 209 232
188 209 232
188 209 232
188 209 232
188 209 232
188 209 232
188 209 232
188 209 232
188 209 232
188 209 232
188 209 232
188 209 232
188 209 232
188 209 232
188 209 232
188 209 232
188 209 232
188 209 232
188 209 232
188 209 232
188 209 232
188 209 232
188 209 232
188 209 232
188 209 232
188 209 232
188 209 232
188 209 232
188 209 232
188 209 232
188 209 232
188 209 232
188 209 232
188 209 232
188 209 232
188 209 232
188 209 232
188 209 232
188 209 232
188 209 232
189 209 232
189 209 232
189 210 232
189 210 232
189 210 232
189 210 232
189 210 232
189 210 232
189 210 232
189 210 232
189 210 232
189 210 232
189 210 232
189 210 232
189 210 232
189 210 232
189 210 232
189 210 232
189 210 232
189 210 232
189 210 232
189 210 232
189 210 232
189 210 232
189 210 232
189 210 232
189 210 232
189 210 232
189 210 232
189 210 232
189 210 232
189 210 232
189 210 232
189 210 232
189 210 232
189 210 232
189 210 232
189 210 232
189 210 232
189 210 232
189 210 232
189 210 232
189 210 232
189 210 232
189 210 232
189 210 232
189 210 232
189 210 232
189 210 232
189 210 232
189 210 232
189 210 232
189 210 232
189 210 232
189 210 232
189 210 232
189 210 232
189 210 232
189 210 232
189 210 232
189 210 232
189 210 232
189 210 232
189 210 232
189 210 232
189 210 232
189 210 232
189 210 232
189 210 232
189 210 232
189 210 232
189 210 232
189 210 232
189 210 232
189 210 232
189 210 232
189 210 232
189 210 232
189 210 232
189 210 232
189 210 232
189 210 232
189 210 232
189 210 232
189 210 232
189 210 232
189 210 232
189 210 232
189 210 232
189 210 232
189 210 232
189 210 232
189 210 232
189 210 232
189 210 232
189 210 232
189 210 232
189 210 232
189 210 232
189 210 232
189 210 232
189 210 232
189 210 232
189 210 232
189 209 232
189 209 232
188 209 232
188 209 232
188 209 232
188 209 232
188 209 232
188 209 232
188 209 232
188 209 232
188 209 232
188 209 232
188 209 232
188 209 232
188 209 232
188 209 232
188 209 232
188 209 232
188 209 232
188 209 232
188 209 232
188 209 232
188 209 232
188 209 232
188 209 232
188 209 232
188 209 232
188 209 232
188 209 232
188 209 232
188 209 232
188 209 232
188 209 232
188 209 232
188 209 232
188 209 232
188 209 232
188 209 232
188 209 232
188 209 232
188 209 232
188 209 232
188 209 232
188 209 232
188 209 232
188 209 232
188 209 232
188 209 232
188 209 232
188 209 231
188 209 231
188 209 231
188 209 232
188 209 232
188 209 232
188 209 232
188 209 232
188 209 232
188 209 232
188 209 232
188 209 232
188 209 232
188 209 232
188 209 232
188 209 232
188 209 232
188 209 232
188 209 232
188 209 232
188 209 232
188 209 232
188 209 232
188 209 232
188 209 232
188 209 232
188 209 232
188 209 232
188 209 232
188 209 232
188 209 232
188 209 232
188 209 232
188 209 232
188 209 232
188 209 232
188 209 232
188 209 232
188 209 232
188 209 232
188 209 232
188 209 232
188 209 232
188 209 232
188 209 232
188 209 232
188 209 232
188 209 232
188 209 232
188 209 232
188 209 232
188 209 232
188 209 232
188 209 232
188 209 232
188 209 232
188 209 232
188 209 232
188 209 232
188 209 232
188 209 232
188 209 232
188 209 232
188 209 232
188 209 232
188 209 232
188 209 232
188 209 232
188 209 232
189 209 232
189 209 232
189 209 232
189 209 232
189 210 232
189 210 232
189 210 232
189 210 232
189 210 232
189 210 232
189 210 232
189 210 232
189 210 232
189 210 232
189 210 232
189 210 232
189 210 232
189 210 232
189 210 232
189 210 232
189 210 232
189 210 232
189 210 232
189 210 232
189 210 232
189 210 232
189 210 232
189 210 232
189 210 232
189 210 232
189 210 232
189 210 232
189 210 232
189 210 232
189 210 232
189 210 232
189 210 232
189 210 232
189 210 232
189 210 232
189 210 232
189 210 232
189 210 232
189 210 232
189 210 232
189 210 232
189 210 232
189 210 232
189 210 232
189 210 232
189 210 232
189 210 232
189 210 232
189 210 232
189 210 232
189 210 232
189 210 232
189 210 232
189 209 232
189 209 232
189 209 232
189 209 232
188 209 232
188 209 232
188 209 232
188 209 232
188 209 232
188 209 232
188 209 232
188 209 232
188 209 232
188 209 232
188 209 232
188 209 232
188 209 232
188 209 232
188 209 232
188 209 232
188 209 232
188 209 232
188 209 232
188 209 232
188 209 232
188 209 232
188 209 232
188 209 232
188 209 232
188 209 232
188 209 232
188 209 232
188 209 232
188 209 232
188 209 232
188 209 232
188 209 232
188 209 232
188 209 232
188 209 232
188 209 232
188 209 232
188 209 232
188 209 232
188 209 232
188 209 232
188 209 232
188 209 232
188 209 232
188 209 232
188 209 232
188 209 232
188 209 232
188 209 232
188 209 232
188 209 232
188 209 232
188 209 232
188 209 232
188 209 232
188 209 232
188 209 232
188 209 232
188 209 232
188 209 232
188 209 232
188 209 232
188 209 232
188 209 232
188 209 232
188 209 231
188 209 231
188 209 231
187 209 231
187 209 231
187 209 231
187 209 231
187 209 231
188 209 231
188 209 231
188 209 231
188 209 231
188 209 231
188 209 231
188 209 231
188 209 231
188 209 231
188 209 231
188 209 231
188 209 232
188 209 232
188 209 232
188 209 232
188 209 232
188 209 232
188 209 232
188 209 232
188 209 232
188 209 232
188 209 232
188 209 232
188 209 232
188 209 232
188 209 232
188 209 232
188 209 232
188 209 232
188 209 232
188 209 232
188 209 232
188 209 232
188 209 232
188 209 232
188 209 232
188 209 232
188 209 232
188 209 232
188 209 232
188 209 232
188 209 232
188 209 232
188 209 232
188 209 232
188 209 232
188 209 232
188 209 232
188 209 232
188 209 232
188 209 232
188 209 232
188 209 232
188 209 232
188 209 232
188 209 232
188 209 232
188 209 232
188 209 232
188 209 232
188 209 232
188 209 232
188 209 232
188 209 232
188 209 232
188 209 232
188 209 232
188 209 232
188 209 232
188 209 232
188 209 232
188 209 232
188 209 232
188 209 232
188 209 232
188 209 232
188 209 232
188 209 232
188 209 232
188 209 232
188 209 232
188 209 232
188 209 232
188 209 232
188 209 232
188 209 232
188 209 232
188 209 232
188 209 232
188 209 232
188 209 232
188 209 232
188 209 232
188 209 232
188 209 232
188 209 232
188 209 232
188 209 232
188 209 232
188 209 232
188 209 232
188 209 232
188 209 232
188 209 232
188 209 232
188 209 232
188 209 232
188 209 232
188 209 232
188 209 232
188 209 232
188 209 232
188 209 232
188 209 232
188 209 232
188 209 232
188 209 232
188 209 232
188 209 232
188 209 232
188 209 232
188 209 232
188 209 232
188 209 232
188 209 232
188 209 232
188 209 232
188 209 232
188 209 232
188 209 232
188 209 232
188 209 232
188 209 232
188 209 232
188 209 232
188 209 232
188 209 232
188 209 232
188 209 232
188 209 232
188 209 232
188 209 232
188 209 232
188 209 232
188 209 232
188 209 232
188 209 232
188 209 232
188 209 232
188 209 232
188 209 232
188 209 232
188 209 232
188 209 232
188 209 232
188 209 232
188 209 232
188 209 232
188 209 232
188 209 232
188 209 232
188 209 232
188 209 232
188 209 232
188 209 232
188 209 232
188 209 232
188 209 232
188 209 232
188 209 232
188 209 232
188 209 232
188 209 232
188 209 232
188 209 232
188 209 232
188 209 232
188 209 232
188 209 232
188 209 231
188 209 231
188 209 231
188 209 231
188 209 231
188 209 231
188 209 231
188 209 231
188 209 231
188 209 231
188 209 231
187 209 231
187 209 231
187 209 231
187 209 231
187 209 231
187 208 231
187 208 231
187 208 231
187 208 231
187 208 231
187 208 231
187 208 231
187 208 231
187 208 231
187 208 231
187 208 231
187 208 231
187 208 231
187 209 231
187 209 231
187 209 231
187 209 231
187 209 231
188 209 231
188 209 231
188 209 231
188 209 231
188 209 231
188 209 231
188 209 231
188 209 231
188 209 231
188 209 231
188 209 231
188 209 231
188 209 232
188 209 232
188 209 232
188 209 232
188 209 232
188 209 232
188 209 232
188 209 232
188 209 232
188 209 232
188 209 232
188 209 232
188 209 232
188 209 232
188 209 232
188 209 232
188 209 232
188 209 232
188 209 232
188 209 232
188 209 232
188 209 232
188 209 232
188 209 232
188 209 232
188 209 232
188 209 232
188 209 232
188 209 232
188 209 232
188 209 232
188 209 232
188 209 232
188 209 232
188 209 232
188 209 232
188 209 232
188 209 232
188 209 232
188 209 232
188 209 232
188 209 232
188 209 232
188 209 232
188 209 232
188 209 232
188 209 232
188 209 232
188 209 232
188 209 232
188 209 232
188 209 232
188 209 232
188 209 232
188 209 232
188 209 232
188 209 232
188 209 232
188 209 232
188 209 232
188 209 232
188 209 232
188 209 232
188 209 232
188 209 232
188 209 232
188 209 232
188 209 232
188 209 232
188 209 232
188 209 232
188 209 232
188 209 232
188 209 232
188 209 232
188 209 232
188 209 232
188 209 232
188 209 232
188 209 232
188 209 232
188 209 232
188 209 232
188 209 232
188 209 232
188 209 232
188 209 232
188 209 232
188 209 232
188 209 232
188 209 232
188 209 232
188 209 232
188 209 232
188 209 232
188 209 232
188 209 232
188 209 232
188 209 232
188 209 232
188 209 232
188 209 232
188 209 232
188 209 232
188 209 232
188 209 232
188 209 232
188 209 232
188 209 232
188 209 232
188 209 232
188 209 232
188 209 232
188 209 232
188 209 232
188 209 232
188 209 232
188 209 232
188 209 232
188 209 232
188 209 232
188 209 232
188 209 232
188 209 232
188 209 232
188 209 232
188 209 232
188 209 232
188 209 232
188 209 232
188 209 232
188 209 232
188 209 232
188 209 232
188 209 232
188 209 232
188 209 232
188 209 232
188 209 232
188 209 232
188 209 231
188 209 231
188 209 231
188 209 231
188 209 231
188 209 231
188 209 231
188 209 231
188 209 231
188 209 231
188 209 231
188 209 231
187 209 231
187 209 231
187 209 231
187 209 231
187 209 231
187 208 231
187 208 231
187 208 231
187 208 231
187 208 231
187 208 231
187 208 231
187 208 231
187 208 231
187 208 231
187 208 231
187 208 231
187 208 231
187 208 231
187 208 231
187 208 231
187 208 231
187 208 231
187 208 231
187 208 231
187 208 231
187 208 231
187 208 231
187 208 231
187 208 231
187 208 231
187 208 231
187 208 231
187 208 231
187 208 231
187 208 231
187 208 231
187 208 231
187 208 231
187 208 231
187 208 231
187 208 231
187 208 231
187 208 231
187 208 231
187 209 231
187 209 231
187 209 231
187 209 231
187 209 231
187 209 231
188 209 231
188 209 231
188 209 231
188 209 231
188 209 231
188 209 231
188 209 231
188 209 231
188 209 231
188 209 231
188 209 231
188 209 231
188 209 231
188 209 231
188 209 231
188 209 232
188 209 232
188 209 232
188 209 232
188 209 232
188 209 232
188 209 232
188 209 232
188 209 232
188 209 232
188 209 232
188 209 232
188 209 232
188 209 232
188 209 232
188 209 232
188 209 232
188 209 232
188 209 232
188 209 232
188 209 232
188 209 232
188 209 232
188 209 232
188 209 232
188 209 232
188 209 232
188 209 232
188 209 232
188 209 232
188 209 232
188 209 232
188 209 232
188 209 232
188 209 232
188 209 232
188 209 232
188 209 232
188 209 232
188 209 232
188 209 232
188 209 232
188 209 232
188 209 232
188 209 232
188 209 232
188 209 232
188 209 232
188 209 232
188 209 232
188 209 232
188 209 232
188 209 232
188 209 232
188 209 232
188 209 232
188 209 232
188 209 232
188 209 232
188 209 232
188 209 232
188 209 232
188 209 232
188 209 232
188 209 232
188 209 232
188 209 232
188 209 232
188 209 232
188 209 232
188 209 232
188 209 232
188 209 232
188 209 232
188 209 232
188 209 232
188 209 232
188 209 232
188 209 232
188 209 232
188 209 232
188 209 232
188 209 232
188 209 232
188 209 232
188 209 232
188 209 232
188 209 232
188 209 232
188 209 232
188 209 232
188 209 232
188 209 232
188 209 232
188 209 232
188 209 232
188 209 232
188 209 232
188 209 232
188 209 232
188 209 232
188 209 232
188 209 232
188 209 232
188 209 231
188 209 231
188 209 231
188 209 231
188 209 231
188 209 231
188 209 231
188 209 231
188 209 231
188 209 231
188 209 231
188 209 231
188 209 231
188 209 231
188 209 231
187 209 231
187 209 231
187 209 231
187 209 231
187 209 231
187 209 231
187 208 231
187 208 231
187 208 231
187 208 231
187 208 231
187 208 231
187 208 231
187 208 231
187 208 231
187 208 231
187 208 231
187 208 231
187 208 231
187 208 231
187 208 231
187 208 231
187 208 231
187 208 231
187 208 231
187 208 231
187 208 231
187 208 231
187 208 231
187 208 231
187 208 231
187 208 231
187 208 231
187 208 231
187 208 231
187 208 231
187 208 231
187 208 231
187 208 231
187 208 231
187 208 231
187 208 231
187 208 231
187 208 231
187 208 231
187 208 231
187 208 231
187 208 231
187 208 231
187 208 231
187 208 231
187 208 231
187 208 231
187 208 231
187 208 231
187 208 231
187 208 231
187 208 231
187 208 231
187 208 231
187 208 231
187 208 231
187 208 231
187 208 231
187 208 231
187 208 231
187 208 231
187 208 231
187 208 231
187 208 231
187 208 231
187 208 231
187 208 231
187 208 231
187 208 231
187 208 231
187 208 231
187 208 231
187 209 231
187 209 231
187 209 231
187 209 231
187 209 231
187 209 231
187 209 231
187 209 231
188 209 231
188 209 231
188 209 231
188 209 231
188 209 231
188 209 231
188 209 231
188 209 231
188 209 231
188 209 231
188 209 231
188 209 231
188 209 231
188 209 231
188 209 231
188 209 231
188 209 231
188 209 231
188 209 231
188 209 231
188 209 231
188 209 231
188 209 232
188 209 232
188 209 232
188 209 232
188 209 232
188 209 232
188 209 232
188 209 232
188 209 232
188 209 232
188 209 232
188 209 232
188 209 232
188 209 232
188 209 232
188 209 232
188 209 232
188 209 232
188 209 232
188 209 232
188 209 232
188 209 232
188 209 232
188 209 232
188 209 232
188 209 232
188 209 232
188 209 232
188 209 232
188 209 232
188 209 232
188 209 232
188 209 232
188 209 232
188 209 232
188 209 232
188 209 232
188 209 232
188 209 232
188 209 232
188 209 232
188 209 232
188 209 232
188 209 232
188 209 232
188 209 232
188 209 232
188 209 232
188 209 232
188 209 232
188 209 231
188 209 231
188 209 231
188 209 231
188 209 231
188 209 231
188 209 231
188 209 231
188 209 231
188 209 231
188 209 231
188 209 231
188 209 231
188 209 231
188 209 231
188 209 231
188 209 231
188 209 231
188 209 231
188 209 231
188 209 231
188 209 231
187 209 231
187 209 231
187 209 231
187 209 231
187 209 231
187 209 231
187 209 231
187 209 231
187 208 231
187 208 231
187 208 231
187 208 231
187 208 231
187 208 231
187 208 231
187 208 231
187 208 231
187 208 231
187 208 231
187 208 231
187 208 231
187 208 231
187 208 231
187 208 231
187 208 231
187 208 231
187 208 231
187 208 231
187 208 231
187 208 231
187 208 231
187 208 231
187 208 231
187 208 231
187 208 231
187 208 231
187 208 231
187 208 231
187 208 231
187 208 231
187 208 231
187 208 231
187 208 231
187 208 231
187 208 231
187 208 231
187 208 231
187 208 231
187 208 231
187 208 231
187 208 231
187 208 231
187 208 231
187 208 231
187 208 231
187 208 231
187 208 231
187 208 231
187 208 231
187 208 231
187 208 231
187 208 231
187 208 231
187 208 231
187 208 231
187 208 231
187 208 231
187 208 231
187 208 231
187 208 231
187 208 231
187 208 231
187 208 231
187 208 231
187 208 231
187 208 231
187 208 231
187 208 231
187 208 231
187 208 231
187 208 231
187 208 231
187 208 231
187 208 231
187 208 231
187 208 231
187 208 231
187 208 231
187 208 231
187 208 231
187 208 231
187 208 231
187 208 231
187 208 231
187 208 231
187 208 231
187 208 231
187 208 231
187 208 231
187 208 231
187 208 231
187 208 231
187 208 231
187 208 231
187 208 231
187 208 231
187 208 231
187 208 231
187 208 231
187 208 231
187 208 231
187 208 231
187 208 231
187 208 231
187 208 231
187 208 231
187 208 231
187 208 231
187 208 231
187 208 231
187 208 231
187 208 231
187 208 231
187 209 231
187 209 231
187 209 231
187 209 231
187 209 231
187 209 231
187 209 231
187 209 231
187 209 231
187 209 231
187 209 231
187 209 231
187 209 231
187 209 231
187 209 231
187 209 231
187 209 231
187 209 231
188 209 231
188 209 231
188 209 231
188 209 231
188 209 231
188 209 231
188 209 231
188 209 231
188 209 231
188 209 231
188 209 231
188 209 231
188 209 231
188 209 231
188 209 231
188 209 231
188 209 231
188 209 231
188 209 231
188 209 231
188 209 231
188 209 231
188 209 231
188 209 231
187 209 231
187 209 231
187 209 231
187 209 231
187 209 231
187 209 231
187 209 231
187 209 231
187 209 231
187 209 231
187 209 231
187 209 231
187 209 231
187 209 231
187 209 231
187 209 231
187 209 231
187 209 231
187 208 231
187 208 231
187 208 231
187 208 231
187 208 231
187 208 231
187 208 231
187 208 231
187 208 231
187 208 231
187 208 231
187 208 231
187 208 231
187 208 231
187 208 231
187 208 231
187 208 231
187 208 231
187 208 231
187 208 231
187 208 231
187 208 231
187 208 231
187 208 231
187 208 231
187 208 231
187 208 231
187 208 231
187 208 231
187 208 231
187 208 231
187 208 231
187 208 231
187 208 231
187 208 231
187 208 231
187 208 231
187 208 231
187 208 231
187 208 231
187 208 231
187 208 231
187 208 231
187 208 231
187 208 231
187 208 231
187 208 231
187 208 231
187 208 231
187 208 231
187 208 231
187 208 231
187 208 231
187 208 231
187 208 231
187 208 231
187 208 231
187 208 231
187 208 231
187 208 231
187 208 231
187 208 231
187 208 231
187 208 231
187 208 231
187 208 231
187 208 231
187 208 231
187 208 231
187 208 231
186 208 231
186 208 231
186 208 231
186 208 231
187 208 231
187 208 231
187 208 231
187 208 231
187 208 231
187 208 231
187 208 231
187 208 231
187 208 231
187 208 231
187 208 231
187 208 231
187 208 231
187 208 231
187 208 231
187 208 231
187 208 231
187 208 231
187 208 231
187 208 231
187 208 231
187 208 231
187 208 231
187 208 231
187 208 231
187 208 231
187 208 231
187 208 231
187 208 231
187 208 231
187 208 231
187 208 231
187 208 231
187 208 231
187 208 231
187 208 231
187 208 231
187 208 231
187 208 231
187 208 231
187 208 231
187 208 231
187 208 231
187 208 231
187 208 231
187 208 231
187 208 231
187 208 231
187 208 231
187 208 231
187 208 231
187 208 231
187 208 231
187 208 231
187 208 231
187 208 231
187 208 231
187 208 231
187 208 231
187 208 231
187 208 231
187 208 231
187 208 231
187 208 231
187 208 231
187 208 231
187 208 231
187 208 231
187 208 231
187 208 231
187 208 231
187 208 231
187 208 231
187 208 231
187 208 231
187 208 231
187 208 231
187 208 231
187 208 231
187 208 231
187 208 231
187 208 231
187 208 231
187 208 231
187 208 231
187 208 231
187 208 231
187 208 231
187 208 231
187 208 231
187 208 231
187 208 231
187 208 231
187 208 231
187 208 231
187 208 231
187 208 231
187 208 231
187 208 231
187 208 231
187 208 231
187 208 231
187 208 231
187 208 231
187 208 231
187 208 231
187 208 231
187 208 231
187 208 231
187 208 231
187 208 231
187 208 231
187 208 231
187 208 231
187 208 231
187 208 231
187 208 231
187 208 231
187 208 231
187 208 231
187 208 231
187 208 231
187 208 231
187 208 231
187 208 231
187 208 231
187 208 231
187 208 231
187 208 231
187 208 231
187 208 231
187 208 231
187 208 231
187 208 231
187 208 231
187 208 231
187 208 231
187 208 231
187 208 231
187 208 231
187 208 231
187 208 231
187 208 231
187 208 231
187 208 231
187 208 231
187 208 231
187 208 231
187 208 231
187 208 231
187 208 231
187 208 231
187 208 231
187 208 231
187 208 231
187 208 231
187 208 231
187 208 231
187 208 231
187 208 231
187 208 231
187 208 231
187 208 231
187 208 231
187 208 231
187 208 231
187 208 231
187 208 231
187 208 231
187 208 231
187 208 231
187 208 231
187 208 231
187 208 231
187 208 231
187 208 231
187 208 231
187 208 231
187 208 231
187 208 231
187 208 231
187 208 231
187 208 231
187 208 231
187 208 231
187 208 231
187 208 231
187 208 231
187 208 231
187 208 231
187 208 231
187 208 231
186 208 231
186 208 231
186 208 231
186 208 231
186 207 231
186 207 231
186 207 231
186 207 231
186 207 231
186 208 231
186 208 231
186 208 231
186 208 231
186 208 231
186 208 231
186 208 231
186 208 231
186 208 231
186 208 231
186 208 231
186 208 231
186 208 231
186 208 231
187 208 231
187 208 231
187 208 231
187 208 231
187 208 231
187 208 231
187 208 231
187 208 231
187 208 231
187 208 231
187 208 231
187 208 231
187 208 231
187 208 231
187 208 231
187 208 231
187 208 231
187 208 231
187 208 231
187 208 231
187 208 231
187 208 231
187 208 231
187 208 231
187 208 231
187 208 231
187 208 231
187 208 231
187 208 231
187 208 231
187 208 231
187 208 231
187 208 231
187 208 231
187 208 231
187 208 231
187 208 231
187 208 231
187 208 231
187 208 231
187 208 231
187 208 231
187 208 231
187 208 231
187 208 231
187 208 231
187 208 231
187 208 231
187 208 231
187 208 231
187 208 231
187 208 231
187 208 231
187 208 231
187 208 231
187 208 231
187 208 231
187 208 231
187 208 231
187 208 231
187 208 231
187 208 231
187 208 231
187 208 231
187 208 231
187 208 231
187 208 231
187 208 231
187 208 231
187 208 231
187 208 231
187 208 231
187 208 231
187 208 231
187 208 231
187 208 231
187 208 231
187 208 231
187 208 231
187 208 231
187 208 231
187 208 231
187 208 231
187 208 231
187 208 231
187 208 231
187 208 231
187 208 231
187 208 231
187 208 231
187 208 231
187 208 231
187 208 231
187 208 231
187 208 231
187 208 231
187 208 231
187 208 231
187 208 231
187 208 231
187 208 231
187 208 231
187 208 231
187 208 231
187 208 231
187 208 231
187 208 231
187 208 231
187 208 231
187 208 231
187 208 231
187 208 231
187 208 231
187 208 231
187 208 231
187 208 231
187 208 231
187 208 231
187 208 231
187 208 231
187 208 231
187 208 231
187 208 231
187 208 231
187 208 231
187 208 231
187 208 231
187 208 231
187 208 231
187 208 231
187 208 231
187 208 231
187 208 231
187 208 231
187 208 231
187 208 231
187 208 231
187 208 231
187 208 231
187 208 231
187 208 231
187 208 231
187 208 231
187 208 231
187 208 231
187 208 231
187 208 231
187 208 231
187 208 231
187 208 231
187 208 231
187 208 231
187 208 231
187 208 231
187 208 231
187 208 231
187 208 231
187 208 231
187 208 231
187 208 231
187 208 231
187 208 231
186 208 231
186 208 231
186 208 231
186 208 231
186 208 231
186 208 231
186 208 231
186 208 231
186 208 231
186 208 231
186 208 231
186 208 231
186 208 231
186 208 231
186 207 231
186 207 231
186 207 231
186 207 231
186 207 231
186 207 230
186 207 230
186 207 230
186 207 230
186 207 230
186 207 230
186 207 230
186 207 230
186 207 230
186 207 230
186 207 230
186 207 230
186 207 230
186 207 231
186 207 231
186 207 231
186 207 231
186 207 231
186 207 231
186 207 231
186 207 231
186 207 231
186 208 231
186 208 231
186 208 231
186 208 231
186 208 231
186 208 231
186 208 231
186 208 231
186 208 231
186 208 231
186 208 231
186 208 231
186 208 231
186 208 231
186 208 231
186 208 231
187 208 231
187 208 231
187 208 231
187 208 231
187 208 231
187 208 231
187 208 231
187 208 231
187 208 231
187 208 231
187 208 231
187 208 231
187 208 231
187 208 231
187 208 231
187 208 231
187 208 231
187 208 231
187 208 231
187 208 231
187 208 231
187 208 231
187 208 231
187 208 231
187 208 231
187 208 231
187 208 231
187 208 231
187 208 231
187 208 231
187 208 231
187 208 231
187 208 231
187 208 231
187 208 231
187 208 231
187 208 231
187 208 231
187 208 231
187 208 231
187 208 231
187 208 231
187 208 231
187 208 231
187 208 231
187 208 231
187 208 231
187 208 231
187 208 231
187 208 231
187 208 231
187 208 231
187 208 231
187 208 231
187 208 231
187 208 231
187 208 231
187 208 231
187 208 231
187 208 231
187 208 231
187 208 231
187 208 231
187 208 231
187 208 231
187 208 231
187 208 231
187 208 231
187 208 231
187 208 231
187 208 231
187 208 231
187 208 231
187 208 231
187 208 231
187 208 231
187 208 231
187 208 231
187 208 231
187 208 231
187 208 231
187 208 231
187 208 231
187 208 231
187 208 231
187 208 231
187 208 231
187 208 231
187 208 231
187 208 231
187 208 231
187 208 231
187 208 231
187 208 231
187 208 231
187 208 231
187 208 231
187 208 231
187 208 231
187 208 231
187 208 231
187 208 231
187 208 231
187 208 231
187 208 231
187 208 231
187 208 231
187 208 231
187 208 231
187 208 231
187 208 231
187 208 231
187 208 231
187 208 231
187 208 231
187 208 231
187 208 231
187 208 231
187 208 231
187 208 231
187 208 231
187 208 231
187 208 231
187 208 231
186 208 231
186 208 231
186 208 231
186 208 231
186 208 231
186 208 231
186 208 231
186 208 231
186 208 231
186 208 231
186 208 231
186 208 231
186 208 231
186 208 231
186 208 231
186 208 231
186 207 231
186 207 231
186 207 231
186 207 231
186 207 231
186 207 231
186 207 231
186 207 231
186 207 231
186 207 230
186 207 230
186 207 230
186 207 230
186 207 230
186 207 230
186 207 230
186 207 230
186 207 230
186 207 230
186 207 230
186 207 230
186 207 230
186 207 230
186 207 230
186 207 230
186 207 230
186 207 230
186 207 230
186 207 230
186 207 230
186 207 230
186 207 230
186 207 230
186 207 230
186 207 230
186 207 230
186 207 230
186 207 230
186 207 230
186 207 230
186 207 230
186 207 230
186 207 230
186 207 230
186 207 230
186 207 230
186 207 230
186 207 230
186 207 230
186 207 230
186 207 230
186 207 230
186 207 230
186 207 231
186 207 231
186 207 231
186 207 231
186 207 231
186 207 231
186 207 231
186 207 231
186 207 231
186 207 231
186 207 231
186 208 231
186 208 231
186 208 231
186 208 231
186 208 231
186 208 231
186 208 231
186 208 231
186 208 231
186 208 231
186 208 231
186 208 231
186 208 231
186 208 231
186 208 231
186 208 231
186 208 231
186 208 231
186 208 231
186 208 231
186 208 231
186 208 231
187 208 231
187 208 231
187 208 231
187 208 231
187 208 231
187 208 231
187 208 231
187 208 231
187 208 231
187 208 231
187 208 231
187 208 231
187 208 231
187 208 231
187 208 231
187 208 231
187 208 231
187 208 231
187 208 231
187 208 231
187 208 231
187 208 231
187 208 231
187 208 231
187 208 231
187 208 231
187 208 231
187 208 231
187 208 231
187 208 231
187 208 231
187 208 231
187 208 231
187 208 231
187 208 231
187 208 231
187 208 231
187 208 231
187 208 231
187 208 231
187 208 231
187 208 231
187 208 231
187 208 231
187 208 231
187 208 231
187 208 231
187 208 231
187 208 231
187 208 231
187 208 231
187 208 231
187 208 231
187 208 231
187 208 231
187 208 231
187 208 231
187 208 231
187 208 231
187 208 231
187 208 231
187 208 231
187 208 231
187 208 231
187 208 231
187 208 231
187 208 231
187 208 231
187 208 231
187 208 231
187 208 231
187 208 231
186 208 231
186 208 231
186 208 231
186 208 231
186 208 231
186 208 231
186 208 231
186 208 231
186 208 231
186 208 231
186 208 231
186 208 231
186 208 231
186 208 231
186 208 231
186 208 231
186 208 231
186 208 231
186 208 231
186 208 231
186 208 231
186 208 231
186 207 231
186 207 231
186 207 231
186 207 231
186 207 231
186 207 231
186 207 231
186 207 231
186 207 231
186 207 231
186 207 231
186 207 230
186 207 230
186 207 230
186 207 230
186 207 230
186 207 230
186 207 230
186 207 230
186 207 230
186 207 230
186 207 230
186 207 230
186 207 230
186 207 230
186 207 230
186 207 230
186 207 230
186 207 230
186 207 230
186 207 230
186 207 230
186 207 230
186 207 230
186 207 230
186 207 230
186 207 230
186 207 230
186 207 230
186 207 230
186 207 230
186 207 230
186 207 230
186 207 230
186 207 230
186 207 230
186 207 230
186 207 230
186 207 230
186 207 230
186 207 230
186 207 230
186 207 230
186 207 230
186 207 230
186 207 230
186 207 230
186 207 230
186 207 230
186 207 230
186 207 230
186 207 230
186 207 230
186 207 230
186 207 230
186 207 230
186 207 230
186 207 230
186 207 230
186 207 230
186 207 230
186 207 230
186 207 230
186 207 230
186 207 230
186 207 230
186 207 230
186 207 230
186 207 230
186 207 230
186 207 230
186 207 230
186 207 230
186 207 230
186 207 230
186 207 230
186 207 230
186 207 230
186 207 230
186 207 230
186 207 230
186 207 230
186 207 230
186 207 230
186 207 230
186 207 230
186 207 230
186 207 231
186 207 231
186 207 231
186 207 231
186 207 231
186 207 231
186 207 231
186 207 231
186 207 231
186 207 231
186 207 231
186 207 231
186 207 231
186 207 231
186 207 231
186 207 231
186 207 231
186 208 231
186 208 231
186 208 231
186 208 231
186 208 231
186 208 231
186 208 231
186 208 231
186 208 231
186 208 231
186 208 231
186 208 231
186 208 231
186 208 231
186 208 231
186 208 231
186 208 231
186 208 231
186 208 231
186 208 231
186 208 231
186 208 231
186 208 231
186 208 231
186 208 231
186 208 231
186 208 231
186 208 231
186 208 231
186 208 231
186 208 231
186 208 231
186 208 231
186 208 231
186 208 231
186 208 231
186 208 231
186 208 231
186 208 231
186 208 231
186 208 231
186 208 231
186 208 231
186 208 231
186 208 231
186 208 231
186 208 231
186 208 231
186 208 231
186 208 231
186 208 231
186 208 231
186 208 231
186 208 231
186 208 231
186 208 231
186 207 231
186 207 231
186 207 231
186 207 231
186 207 231
186 207 231
186 207 231
186 207 231
186 207 231
186 207 231
186 207 231
186 207 231
186 207 231
186 207 231
186 207 231
186 207 231
186 207 231
186 207 230
186 207 230
186 207 230
186 207 230
186 207 230
186 207 230
186 207 230
186 207 230
186 207 230
186 207 230
186 207 230
186 207 230
186 207 230
186 207 230
186 207 230
186 207 230
186 207 230
186 207 230
186 207 230
186 207 230
186 207 230
186 207 230
186 207 230
186 207 230
186 207 230
186 207 230
186 207 230
186 207 230
186 207 230
186 207 230
186 207 230
186 207 230
186 207 230
186 207 230
186 207 230
186 207 230
186 207 230
186 207 230
186 207 230
186 207 230
186 207 230
186 207 230
186 207 230
186 207 230
186 207 230
186 207 230
186 207 230
186 207 230
186 207 230
186 207 230
186 207 230
186 207 230
186 207 230
186 207 230
186 207 230
185 207 230
185 207 230
185 207 230
186 207 230
186 207 230
186 207 230
186 207 230
186 207 230
186 207 230
186 207 230
186 207 230
186 207 230
186 207 230
186 207 230
186 207 230
186 207 230
186 207 230
186 207 230
186 207 230
186 207 230
186 207 230
186 207 230
186 207 230
186 207 230
186 207 230
186 207 230
186 207 230
186 207 230
186 207 230
186 207 230
186 207 230
186 207 230
186 207 230
186 207 230
186 207 230
186 207 230
186 207 230
186 207 230
186 207 230
186 207 230
186 207 230
186 207 230
186 207 230
186 207 230
186 207 230
186 207 230
186 207 230
186 207 230
186 207 230
186 207 230
186 207 230
186 207 230
186 207 230
186 207 230
186 207 230
186 207 230
186 207 230
186 207 230
186 207 230
186 207 230
186 207 230
186 207 230
186 207 230
186 207 230
186 207 230
186 207 230
186 207 230
186 207 230
186 207 230
186 207 230
186 207 230
186 207 230
186 207 230
186 207 230
186 207 230
186 207 230
186 207 230
186 207 230
186 207 230
186 207 230
186 207 230
186 207 230
186 207 230
186 207 230
186 207 230
186 207 230
186 207 230
186 207 230
186 207 230
186 207 230
186 207 230
186 207 230
186 207 230
186 207 230
186 207 230
186 207 230
186 207 230
186 207 230
186 207 230
186 207 230
186 207 230
186 207 230
186 207 230
186 207 230
186 207 230
186 207 230
186 207 230
186 207 230
186 207 230
186 207 230
186 207 230
186 207 230
186 207 230
186 207 230
186 207 230
186 207 230
186 207 230
186 207 230
186 207 230
186 207 230
186 207 230
186 207 230
186 207 230
186 207 230
186 207 230
186 207 230
186 207 230
186 207 230
186 207 230
186 207 230
186 207 230
186 207 230
186 207 230
186 207 230
186 207 230
186 207 230
186 207 230
186 207 230
186 207 230
186 207 230
186 207 230
186 207 230
186 207 230
186 207 230
186 207 230
186 207 230
186 207 230
186 207 230
186 207 230
186 207 230
186 207 230
186 207 230
186 207 230
186 207 230
186 207 230
186 207 230
186 207 230
186 207 230
186 207 230
186 207 230
186 207 230
186 207 230
186 207 230
186 207 230
186 207 230
186 207 230
186 207 230
186 207 230
186 207 230
186 207 230
186 207 230
186 207 230
186 207 230
186 207 230
186 207 230
186 207 230
186 207 230
186 207 230
186 207 230
186 207 230
186 207 230
186 207 230
186 207 230
186 207 230
186 207 230
186 207 230
186 207 230
186 207 230
186 207 230
186 207 230
186 207 230
186 207 230
186 207 230
186 207 230
186 207 230
186 207 230
186 207 230
185 207 230
185 207 230
185 207 230
185 207 230
185 207 230
185 207 230
185 207 230
185 207 230
185 207 230
185 207 230
185 207 230
185 207 230
185 207 230
185 207 230
185 207 230
185 207 230
185 207 230
185 207 230
185 207 230
185 207 230
185 207 230
185 207 230
185 207 230
185 207 230
185 207 230
185 207 230
186 207 230
186 207 230
186 207 230
186 207 230
186 207 230
186 207 230
186 207 230
186 207 230
186 207 230
186 207 230
186 207 230
186 207 230
186 207 230
186 207 230
186 207 230
186 207 230
186 207 230
186 207 230
186 207 230
186 207 230
186 207 230
186 207 230
186 207 230
186 207 230
186 207 230
186 207 230
186 207 230
186 207 230
186 207 230
186 207 230
186 207 230
186 207 230
186 207 230
186 207 230
186 207 230
186 207 230
186 207 230
186 207 230
186 207 230
186 207 230
186 207 230
186 207 230
186 207 230
186 207 230
186 207 230
186 207 230
186 207 230
186 207 230
186 207 230
186 207 230
186 207 230
186 207 230
186 207 230
186 207 230
186 207 230
186 207 230
186 207 230
186 207 230
186 207 230
186 207 230
186 207 230
186 207 230
186 207 230
186 207 230
186 207 230
186 207 230
186 207 230
186 207 230
186 207 230
186 207 230
186 207 230
186 207 230
186 207 230
186 207 230
186 207 230
186 207 230
186 207 230
186 207 230
186 207 230
186 207 230
186 207 230
186 207 230
186 207 230
186 207 230
186 207 230
186 207 230
186 207 230
186 207 230
186 207 230
186 207 230
186 207 230
186 207 230
186 207 230
186 207 230
186 207 230
186 207 230
186 207 230
186 207 230
186 207 230
186 207 230
186 207 230
186 207 230
186 207 230
186 207 230
186 207 230
186 207 230
186 207 230
186 207 230
186 207 230
186 207 230
186 207 230
186 207 230
186 207 230
186 207 230
186 207 230
186 207 230
186 207 230
186 207 230
186 207 230
186 207 230
186 207 230
186 207 230
186 207 230
186 207 230
186 207 230
186 207 230
186 207 230
186 207 230
186 207 230
186 207 230
186 207 230
186 207 230
186 207 230
186 207 230
186 207 230
186 207 230
186 207 230
186 207 230
186 207 230
186 207 230
186 207 230
186 207 230
186 207 230
186 207 230
186 207 230
186 207 230
186 207 230
186 207 230
186 207 230
186 207 230
186 207 230
186 207 230
186 207 230
186 207 230
185 207 230
185 207 230
185 207 230
185 207 230
185 207 230
185 207 230
185 207 230
185 207 230
185 207 230
185 207 230
185 207 230
185 207 230
185 207 230
185 207 230
185 207 230
185 207 230
185 207 230
185 207 230
185 207 230
185 207 230
185 207 230
185 207 230
185 207 230
185 206 230
185 206 230
185 206 230
185 206 230
185 206 230
185 206 230
185 206 230
185 206 230
185 206 230
185 206 230
185 206 230
185 206 230
185 206 230
185 206 230
185 206 230
185 207 230
185 207 230
185 207 230
185 207 230
185 207 230
185 207 230
185 207 230
185 207 230
185 207 230
185 207 230
185 207 230
185 207 230
185 207 230
185 207 230
185 207 230
185 207 230
185 207 230
185 207 230
185 207 230
185 207 230
185 207 230
185 207 230
185 207 230
185 207 230
185 207 230
185 207 230
185 207 230
185 207 230
185 207 230
185 207 230
185 207 230
185 207 230
185 207 230
186 207 230
186 207 230
186 207 230
186 207 230
186 207 230
186 207 230
186 207 230
186 207 230
186 207 230
186 207 230
186 207 230
186 207 230
186 207 230
186 207 230
186 207 230
186 207 230
186 207 230
186 207 230
186 207 230
186 207 230
186 207 230
186 207 230
186 207 230
186 207 230
186 207 230
186 207 230
186 207 230
186 207 230
186 207 230
186 207 230
186 207 230
186 207 230
186 207 230
186 207 230
186 207 230
186 207 230
186 207 230
186 207 230
186 207 230
186 207 230
186 207 230
186 207 230
186 207 230
186 207 230
186 207 230
186 207 230
186 207 230
186 207 230
186 207 230
186 207 230
186 207 230
186 207 230
186 207 230
186 207 230
186 207 230
186 207 230
186 207 230
186 207 230
186 207 230
186 207 230
186 207 230
186 207 230
186 207 230
186 207 230
186 207 230
186 207 230
186 207 230
186 207 230
186 207 230
186 207 230
186 207 230
186 207 230
186 207 230
186 207 230
186 207 230
186 207 230
186 207 230
186 207 230
186 207 230
186 207 230
186 207 230
186 207 230
186 207 230
186 207 230
186 207 230
186 207 230
186 207 230
186 207 230
186 207 230
186 207 230
186 207 230
186 207 230
186 207 230
186 207 230
186 207 230
186 207 230
186 207 230
186 207 230
186 207 230
186 207 230
186 207 230
186 207 230
186 207 230
186 207 230
185 207 230
185 207 230
185 207 230
185 207 230
185 207 230
185 207 230
185 207 230
185 207 230
185 207 230
185 207 230
185 207 230
185 207 230
185 207 230
185 207 230
185 207 230
185 207 230
185 207 230
185 207 230
185 207 230
185 207 230
185 207 230
185 207 230
185 207 230
185 207 230
185 207 230
185 207 230
185 207 230
185 207 230
185 207 230
185 207 230
185 207 230
185 207 230
185 207 230
185 206 230
185 206 230
185 206 230
185 206 230
185 206 230
185 206 230
185 206 230
185 206 230
185 206 230
185 206 230
185 206 230
185 206 230
185 206 230
185 206 230
185 206 230
185 206 230
185 206 230
185 206 230
185 206 230
185 206 230
185 206 230
185 206 230
185 206 230
185 206 230
185 206 230
185 206 230
185 206 230
185 206 230
185 206 230
185 206 230
185 206 230
185 206 230
185 206 230
185 206 230
185 206 230
185 206 230
185 206 230
185 206 230
185 206 230
185 206 230
185 206 230
185 206 230
185 206 230
185 206 230
185 206 230
185 206 230
185 206 230
185 206 230
185 206 230
185 206 230
185 206 230
185 206 230
185 206 230
185 206 230
185 207 230
185 207 230
185 207 230
185 207 230
185 207 230
185 207 230
185 207 230
185 207 230
185 207 230
185 207 230
185 207 230
185 207 230
185 207 230
185 207 230
185 207 230
185 207 230
185 207 230
185 207 230
185 207 230
185 207 230
185 207 230
185 207 230
185 207 230
185 207 230
185 207 230
185 207 230
185 207 230
185 207 230
185 207 230
185 207 230
185 207 230
185 207 230
185 207 230
185 207 230
185 207 230
185 207 230
185 207 230
185 207 230
185 207 230
185 207 230
185 207 230
185 207 230
185 207 230
185 207 230
185 207 230
185 207 230
185 207 230
185 207 230
185 207 230
185 207 230
185 207 230
185 207 230
185 207 230
185 207 230
185 207 230
185 207 230
185 207 230
185 207 230
185 207 230
185 207 230
185 207 230
185 207 230
185 207 230
185 207 230
185 207 230
185 207 230
185 207 230
185 207 230
185 207 230
185 207 230
185 207 230
185 207 230
185 207 230
185 207 230
185 207 230
185 207 230
185 207 230
185 207 230
185 207 230
185 207 230
185 207 230
185 207 230
185 207 230
185 207 230
185 207 230
185 207 230
185 207 230
185 207 230
185 207 230
185 207 230
185 207 230
185 207 230
185 207 230
185 207 230
185 207 230
185 207 230
185 207 230
185 207 230
185 207 230
185 207 230
185 207 230
185 207 230
185 207 230
185 207 230
185 207 230
185 207 230
185 207 230
185 207 230
185 207 230
185 207 230
185 207 230
185 207 230
185 207 230
185 207 230
185 207 230
185 207 230
185 207 230
185 207 230
185 207 230
185 207 230
185 207 230
185 207 230
185 206 230
185 206 230
185 206 230
185 206 230
185 206 230
185 206 230
185 206 230
185 206 230
185 206 230
185 206 230
185 206 230
185 206 230
185 206 230
185 206 230
185 206 230
185 206 230
185 206 230
185 206 230
185 206 230
185 206 230
185 206 230
185 206 230
185 206 230
185 206 230
185 206 230
185 206 230
185 206 230
185 206 230
185 206 230
185 206 230
185 206 230
185 206 230
185 206 230
185 206 230
185 206 230
185 206 230
185 206 230
185 206 230
185 206 230
185 206 229
185 206 229
185 206 229
185 206 229
185 206 229
185 206 229
185 206 229
185 206 229
185 206 229
185 206 229
185 206 229
185 206 230
185 206 230
185 206 230
185 206 230
185 206 230
185 206 230
185 206 230
185 206 230
185 206 230
185 206 230
185 206 230
185 206 230
185 206 230
185 206 230
185 206 230
185 206 230
185 206 230
185 206 230
185 206 230
185 206 230
185 206 230
185 206 230
185 206 230
185 206 230
185 206 230
185 206 230
185 206 230
185 206 230
185 206 230
185 206 230
185 206 230
185 206 230
185 206 230
185 206 230
185 206 230
185 206 230
185 206 230
185 206 230
185 206 230
185 206 230
185 206 230
185 206 230
185 206 230
185 206 230
185 206 230
185 206 230
185 206 230
185 206 230
185 206 230
185 206 230
185 206 230
185 206 230
185 206 230
185 206 230
185 206 230
185 206 230
185 206 230
185 206 230
185 206 230
185 206 230
185 206 230
185 206 230
185 206 230
185 206 230
185 206 230
185 206 230
185 206 230
185 206 230
185 206 230
185 206 230
185 207 230
185 207 230
185 207 230
185 207 230
185 207 230
185 207 230
185 207 230
185 207 230
185 207 230
185 207 230
185 207 230
185 207 230
185 207 230
185 207 230
185 207 230
185 207 230
185 207 230
185 207 230
185 207 230
185 207 230
185 207 230
185 207 230
185 207 230
185 207 230
185 207 230
185 207 230
185 207 230
185 207 230
185 207 230
185 207 230
185 207 230
185 207 230
185 207 230
185 207 230
185 207 230
185 207 230
185 207 230
185 207 230
185 206 230
185 206 230
185 206 230
185 206 230
185 206 230
185 206 230
185 206 230
185 206 230
185 206 230
185 206 230
185 206 230
185 206 230
185 206 230
185 206 230
185 206 230
185 206 230
185 206 230
185 206 230
185 206 230
185 206 230
185 206 230
185 206 230
185 206 230
185 206 230
185 206 230
185 206 230
185 206 230
185 206 230
185 206 230
185 206 230
185 206 230
185 206 230
185 206 230
185 206 230
185 206 230
185 206 230
185 206 230
185 206 230
185 206 230
185 206 230
185 206 230
185 206 230
185 206 230
185 206 230
185 206 230
185 206 230
185 206 230
185 206 230
185 206 230
185 206 230
185 206 230
185 206 230
185 206 230
185 206 230
185 206 230
185 206 230
185 206 230
185 206 230
185 206 230
185 206 230
185 206 230
185 206 230
185 206 230
185 206 230
185 206 230
185 206 230
185 206 230
185 206 230
185 206 230
185 206 230
185 206 229
185 206 229
185 206 229
185 206 229
185 206 229
185 206 229
185 206 229
185 206 229
185 206 229
185 206 229
185 206 229
184 206 229
184 206 229
184 206 229
184 206 229
184 206 229
185 206 229
185 206 229
185 206 229
185 206 229
185 206 229
185 206 229
185 206 229
185 206 229
185 206 229
185 206 229
185 206 229
185 206 229
185 206 229
185 206 229
185 206 229
185 206 229
185 206 229
185 206 229
185 206 229
185 206 229
185 206 229
185 206 229
185 206 229
185 206 229
185 206 229
185 206 229
185 206 229
185 206 229
185 206 229
185 206 229
185 206 229
185 206 229
185 206 230
185 206 230
185 206 230
185 206 230
185 206 230
185 206 230
185 206 230
185 206 230
185 206 230
185 206 230
185 206 230
185 206 230
185 206 230
185 206 230
185 206 230
185 206 230
185 206 230
185 206 230
185 206 230
185 206 230
185 206 230
185 206 230
185 206 230
185 206 230
185 206 230
185 206 230
185 206 230
185 206 230
185 206 230
185 206 230
185 206 230
185 206 230
185 206 230
185 206 230
185 206 230
185 206 230
185 206 230
185 206 230
185 206 230
185 206 230
185 206 230
185 206 230
185 206 230
185 206 230
185 206 230
185 206 230
185 206 230
185 206 230
185 206 230
185 206 230
185 206 230
185 206 230
185 206 230
185 206 230
185 206 230
185 206 230
185 206 230
185 206 230
185 206 230
185 206 230
185 206 230
185 206 230
185 206 230
185 206 230
185 206 230
185 206 230
185 206 230
185 206 230
185 206 230
185 206 230
185 206 230
185 206 230
185 206 230
185 206 230
185 206 230
185 206 230
185 206 230
185 206 230
185 206 230
185 206 230
185 206 230
185 206 230
185 206 230
185 206 230
185 206 230
185 206 230
185 206 230
185 206 230
185 206 230
185 206 230
185 206 230
185 206 230
185 206 230
185 206 230
185 206 230
185 206 230
185 206 230
185 206 230
185 206 230
185 206 230
185 206 230
185 206 230
185 206 230
185 206 230
185 206 230
185 206 230
185 206 230
185 206 230
185 206 230
185 206 230
185 206 230
185 206 230
185 206 230
185 206 230
185 206 230
185 206 230
185 206 230
185 206 230
185 206 230
185 206 230
185 206 230
185 206 230
185 206 230
185 206 230
185 206 230
185 206 230
185 206 229
185 206 229
185 206 229
185 206 229
185 206 229
185 206 229
185 206 229
185 206 229
185 206 229
185 206 229
185 206 229
185 206 229
185 206 229
185 206 229
185 206 229
185 206 229
185 206 229
185 206 229
185 206 229
185 206 229
185 206 229
185 206 229
185 206 229
185 206 229
185 206 229
185 206 229
185 206 229
185 206 229
185 206 229
185 206 229
185 206 229
185 206 229
184 206 229
184 206 229
184 206 229
184 206 229
184 206 229
184 206 229
184 206 229
184 206 229
184 206 229
184 206 229
184 206 229
184 206 229
184 206 229
184 206 229
184 206 229
184 206 229
184 206 229
184 206 229
184 206 229
184 206 229
184 206 229
184 206 229
184 206 229
184 206 229
184 206 229
184 206 229
184 206 229
184 206 229
184 206 229
184 206 229
184 206 229
184 206 229
184 206 229
184 206 229
184 206 229
184 206 229
185 206 229
185 206 229
185 206 229
185 206 229
185 206 229
185 206 229
185 206 229
185 206 229
185 206 229
185 206 229
185 206 229
185 206 229
185 206 229
185 206 229
185 206 229
185 206 229
185 206 229
185 206 229
185 206 229
185 206 229
185 206 229
185 206 229
185 206 229
185 206 229
185 206 229
185 206 229
185 206 229
185 206 229
185 206 229
185 206 229
185 206 229
185 206 229
185 206 229
185 206 229
185 206 229
185 206 229
185 206 229
185 206 229
185 206 229
185 206 229
185 206 229
185 206 229
185 206 229
185 206 229
185 206 229
185 206 229
185 206 229
185 206 229
185 206 229
185 206 229
185 206 229
185 206 229
185 206 229
185 206 230
185 206 230
185 206 230
185 206 230
185 206 230
185 206 230
185 206 230
185 206 230
185 206 230
185 206 230
185 206 230
185 206 230
185 206 230
185 206 230
185 206 230
185 206 230
185 206 230
185 206 230
185 206 230
185 206 230
185 206 230
185 206 230
185 206 230
185 206 230
185 206 230
185 206 230
185 206 230
185 206 230
185 206 230
185 206 230
185 206 230
185 206 230
185 206 229
185 206 229
185 206 229
185 206 229
185 206 229
185 206 229
185 206 229
185 206 229
185 206 229
185 206 229
185 206 229
185 206 229
185 206 229
185 206 229
185 206 229
185 206 229
185 206 229
185 206 229
185 206 229
185 206 229
185 206 229
185 206 229
185 206 229
185 206 229
185 206 229
185 206 229
185 206 229
185 206 229
185 206 229
185 206 229
185 206 229
185 206 229
185 206 229
185 206 229
185 206 229
185 206 229
185 206 229
185 206 229
185 206 229
185 206 229
185 206 229
185 206 229
185 206 229
185 206 229
185 206 229
185 206 229
185 206 229
185 206 229
185 206 229
185 206 229
185 206 229
185 206 229
185 206 229
184 206 229
184 206 229
184 206 229
184 206 229
184 206 229
184 206 229
184 206 229
184 206 229
184 206 229
184 206 229
184 206 229
184 206 229
184 206 229
184 206 229
184 206 229
184 206 229
184 206 229
184 206 229
184 206 229
184 206 229
184 206 229
184 206 229
184 206 229
184 206 229
184 206 229
184 206 229
184 206 229
184 206 229
184 206 229
184 206 229
184 206 229
184 205 229
184 205 229
184 205 229
184 205 229
184 205 229
184 205 229
184 205 229
184 206 229
184 206 229
184 206 229
184 206 229
184 206 229
184 206 229
184 206 229
184 206 229
184 206 229
184 206 229
184 206 229
184 206 229
184 206 229
184 206 229
184 206 229
184 206 229
184 206 229
184 206 229
184 206 229
184 206 229
184 206 229
184 206 229
184 206 229
184 206 229
184 206 229
184 206 229
184 206 229
184 206 229
184 206 229
184 206 229
184 206 229
184 206 229
184 206 229
184 206 229
184 206 229
184 206 229
184 206 229
184 206 229
184 206 229
184 206 229
184 206 229
184 206 229
184 206 229
184 206 229
184 206 229
184 206 229
184 206 229
184 206 229
184 206 229
184 206 229
184 206 229
184 206 229
184 206 229
184 206 229
184 206 229
184 206 229
184 206 229
184 206 229
184 206 229
184 206 229
184 206 229
184 206 229
184 206 229
184 206 229
184 206 229
184 206 229
184 206 229
185 206 229
185 206 229
185 206 229
185 206 229
185 206 229
185 206 229
185 206 229
185 206 229
185 206 229
185 206 229
185 206 229
185 206 229
185 206 229
185 206 229
185 206 229
185 206 229
185 206 229
185 206 229
185 206 229
185 206 229
185 206 229
185 206 229
185 206 229
185 206 229
185 206 229
185 206 229
185 206 229
185 206 229
185 206 229
185 206 229
185 206 229
185 206 229
185 206 229
185 206 229
185 206 229
185 206 229
185 206 229
185 206 229
185 206 229
185 206 229
185 206 229
185 206 229
185 206 229
185 206 229
185 206 229
185 206 229
185 206 229
185 206 229
185 206 229
185 206 229
185 206 229
185 206 229
184 206 229
184 206 229
184 206 229
184 206 229
184 206 229
184 206 229
184 206 229
184 206 229
184 206 229
184 206 229
184 206 229
184 206 229
184 206 229
184 206 229
184 206 229
184 206 229
184 206 229
184 206 229
184 206 229
184 206 229
184 206 229
184 206 229
184 206 229
184 206 229
184 206 229
184 206 229
184 206 229
184 206 229
184 206 229
184 206 229
184 206 229
184 206 229
184 206 229
184 206 229
184 206 229
184 206 229
184 206 229
184 206 229
184 206 229
184 206 229
184 206 229
184 206 229
184 206 229
184 206 229
184 206 229
184 206 229
184 206 229
184 206 229
184 206 229
184 206 229
184 206 229
184 206 229
184 206 229
184 206 229
184 206 229
184 206 229
184 206 229
184 206 229
184 206 229
184 206 229
184 206 229
184 206 229
184 206 229
184 206 229
184 206 229
184 206 229
184 206 229
184 205 229
184 205 229
184 205 229
184 205 229
184 205 229
184 205 229
184 205 229
184 205 229
184 205 229
184 205 229
184 205 229
184 205 229
184 205 229
184 205 229
184 205 229
184 205 229
184 205 229
184 205 229
184 205 229
184 205 229
184 205 229
184 205 229
184 205 229
184 205 229
184 205 229
184 205 229
184 205 229
184 205 229
184 205 229
184 205 229
184 205 229
184 205 229
184 205 229
184 205 229
184 205 229
184 205 229
184 205 229
184 205 229
184 205 229
184 205 229
184 205 229
184 205 229
184 205 229
184 205 229
184 205 229
184 205 229
184 206 229
184 206 229
184 206 229
184 206 229
184 206 229
184 206 229
184 206 229
184 206 229
184 206 229
184 206 229
184 206 229
184 206 229
184 206 229
184 206 229
184 206 229
184 206 229
184 206 229
184 206 229
184 206 229
184 206 229
184 206 229
184 206 229
184 206 229
184 206 229
184 206 229
184 206 229
184 206 229
184 206 229
184 206 229
184 206 229
184 206 229
184 206 229
184 206 229
184 206 229
184 206 229
184 206 229
184 206 229
184 206 229
184 206 229
184 206 229
184 206 229
184 206 229
184 206 229
184 206 229
184 206 229
184 206 229
184 206 229
184 206 229
184 206 229
184 206 229
184 206 229
184 206 229
184 206 229
184 206 229
184 206 229
184 206 229
184 206 229
184 206 229
184 206 229
184 206 229
184 206 229
184 206 229
184 206 229
184 206 229
184 206 229
184 206 229
184 206 229
184 206 229
184 206 229
184 206 229
184 206 229
184 206 229
184 206 229
184 206 229
184 206 229
184 206 229
184 206 229
184 206 229
184 206 229
184 206 229
184 206 229
184 206 229
184 206 229
184 206 229
184 206 229
184 206 229
184 206 229
184 206 229
184 206 229
184 206 229
184 206 229
184 206 229
184 206 229
184 206 229
184 206 229
184 206 229
184 206 229
184 206 229
184 206 229
184 206 229
184 206 229
184 206 229
184 206 229
184 206 229
184 206 229
184 206 229
184 206 229
184 206 229
184 206 229
184 206 229
184 206 229
184 206 229
184 206 229
184 206 229
184 206 229
184 206 229
184 206 229
184 206 229
184 206 229
184 206 229
184 206 229
184 206 229
184 205 229
184 205 229
184 205 229
184 205 229
184 205 229
184 205 229
184 205 229
184 205 229
184 205 229
184 205 229
184 205 229
184 205 229
184 205 229
184 205 229
184 205 229
184 205 229
184 205 229
184 205 229
184 205 229
184 205 229
184 205 229
184 205 229
184 205 229
184 205 229
184 205 229
184 205 229
184 205 229
184 205 229
184 205 229
184 205 229
184 205 229
184 205 229
184 205 229
184 205 229
184 205 229
184 205 229
184 205 229
184 205 229
184 205 229
184 205 229
184 205 229
184 205 229
184 205 229
184 205 229
184 205 229
184 205 229
184 205 229
184 205 229
184 205 229
184 205 229
184 205 229
184 205 229
184 205 229
184 205 229
184 205 229
184 205 229
184 205 229
184 205 229
184 205 229
184 205 229
184 205 229
184 205 229
184 205 229
184 205 229
184 205 229
184 205 229
184 205 229
184 205 229
184 205 229
184 205 229
184 205 229
184 205 229
184 205 229
184 205 229
184 205 229
184 205 229
184 205 229
184 205 229
184 205 229
184 205 229
184 205 229
184 205 229
184 205 229
184 205 229
184 205 229
184 205 229
184 205 229
184 205 229
184 205 229
184 205 229
184 205 229
184 205 229
184 205 229
184 205 229
184 205 229
184 205 229
184 205 229
184 205 229
184 205 229
184 205 229
184 205 229
184 205 229
184 205 229
184 205 229
184 205 229
184 205 229
184 205 229
184 205 229
184 205 229
184 205 229
184 205 229
184 205 229
184 205 229
184 205 229
184 205 229
184 205 229
184 205 229
184 205 229
184 205 229
184 205 229
184 205 229
184 205 229
184 205 229
184 205 229
184 205 229
184 205 229
184 205 229
184 205 229
184 205 229
184 205 229
184 205 229
184 205 229
184 205 229
184 205 229
184 205 229
184 205 229
184 205 229
184 205 229
184 205 229
184 205 229
184 205 229
184 205 229
184 205 229
184 205 229
184 205 229
184 205 229
184 205 229
184 205 229
184 205 229
184 205 229
184 205 229
184 205 229
184 205 229
184 205 229
184 205 229
184 205 229
184 205 229
184 205 229
184 205 229
184 205 229
184 205 229
184 205 229
184 205 229
184 205 229
184 205 229
184 205 229
184 205 229
184 205 229
184 205 229
184 205 229
184 205 229
184 205 229
184 205 229
184 205 229
184 205 229
184 205 229
184 205 229
184 205 229
184 205 229
184 205 229
184 205 229
184 205 229
184 205 229
184 205 229
184 205 229
184 205 229
184 205 229
184 205 229
184 205 229
184 205 229
184 205 229
184 205 229
184 205 229
184 205 229
184 205 229
184 205 229
184 205 229
184 205 229
184 205 229
184 205 229
184 205 229
184 205 229
184 205 229
184 205 229
184 205 229
184 205 229
184 205 229
184 205 229
184 205 229
184 205 229
184 205 229
184 205 229
184 205 229
184 205 229
184 205 229
184 205 229
184 205 229
184 205 229
184 205 229
184 205 229
184 205 229
184 205 229
184 205 229
184 205 229
184 205 229
184 205 229
184 205 229
184 205 229
184 205 229
184 205 229
184 205 229
184 205 229
184 205 229
184 205 229
184 205 229
184 205 229
184 205 229
184 205 229
184 205 229
183 205 229
183 205 229
183 205 229
183 205 229
183 205 229
183 205 229
183 205 229
183 205 229
183 205 229
184 205 229
184 205 229
184 205 229
184 205 229
184 205 229
184 205 229
184 205 229
184 205 229
184 205 229
184 205 229
184 205 229
184 205 229
184 205 229
184 205 229
184 205 229
184 205 229
184 205 229
184 205 229
184 205 229
184 205 229
184 205 229
184 205 229
184 205 229
184 205 229
184 205 229
184 205 229
184 205 229
184 205 229
184 205 229
184 205 229
184 205 229
184 205 229
184 205 229
184 205 229
184 205 229
184 205 229
184 205 229
184 205 229
184 205 229
184 205 229
184 205 229
184 205 229
184 205 229
184 205 229
184 205 229
184 205 229
184 205 229
184 205 229
184 205 229
184 205 229
184 205 229
184 205 229
184 205 229
184 205 229
184 205 229
184 205 229
184 205 229
184 205 229
184 205 229
184 205 229
184 205 229
184 205 229
184 205 229
184 205 229
184 205 229
184 205 229
184 205 229
184 205 229
184 205 229
184 205 229
184 205 229
184 205 229
184 205 229
184 205 229
184 205 229
184 205 229
184 205 229
184 205 229
184 205 229
184 205 229
184 205 229
184 205 229
184 205 229
184 205 229
184 205 229
184 205 229
184 205 229
184 205 229
184 205 229
184 205 229
184 205 229
184 205 229
184 205 229
184 205 229
184 205 229
184 205 229
184 205 229
184 205 229
184 205 229
184 205 229
184 205 229
184 205 229
184 205 229
184 205 229
184 205 229
184 205 229
184 205 229
184 205 229
184 205 229
184 205 229
184 205 229
184 205 229
184 205 229
184 205 229
184 205 229
184 205 229
184 205 229
184 205 229
184 205 229
184 205 229
184 205 229
184 205 229
184 205 229
184 205 229
184 205 229
184 205 229
184 205 229
184 205 229
184 205 229
184 205 229
184 205 229
184 205 229
184 205 229
184 205 229
184 205 229
184 205 229
184 205 229
184 205 229
184 205 229
184 205 229
184 205 229
184 205 229
184 205 229
184 205 229
184 205 229
184 205 229
184 205 229
184 205 229
184 205 229
184 205 229
184 205 229
184 205 229
184 205 229
184 205 229
184 205 229
184 205 229
184 205 229
184 205 229
184 205 229
184 205 229
184 205 229
184 205 229
184 205 229
184 205 229
184 205 229
184 205 229
184 205 229
184 205 229
184 205 229
184 205 229
184 205 229
184 205 229
184 205 229
184 205 229
184 205 229
184 205 229
184 205 229
184 205 229
184 205 229
184 205 229
184 205 229
184 205 229
183 205 229
183 205 229
183 205 229
183 205 229
183 205 229
183 205 229
183 205 229
183 205 229
183 205 229
183 205 228
183 205 228
183 205 228
183 205 228
183 205 228
183 205 228
183 205 228
183 205 228
183 205 228
183 205 228
183 205 228
183 205 229
183 205 229
183 205 229
183 205 229
183 205 229
183 205 229
183 205 229
183 205 229
183 205 229
183 205 229
183 205 229
183 205 229
183 205 229
183 205 229
183 205 229
183 205 229
183 205 229
183 205 229
183 205 229
183 205 229
183 205 229
183 205 229
183 205 229
183 205 229
183 205 229
183 205 229
183 205 229
183 205 229
183 205 229
183 205 229
183 205 229
183 205 229
183 205 229
183 205 229
183 205 229
183 205 229
183 205 229
183 205 229
183 205 229
183 205 229
183 205 229
184 205 229
184 205 229
184 205 229
184 205 229
184 205 229
184 205 229
184 205 229
184 205 229
184 205 229
184 205 229
184 205 229
184 205 229
184 205 229
184 205 229
184 205 229
184 205 229
184 205 229
184 205 229
184 205 229
184 205 229
184 205 229
184 205 229
184 205 229
184 205 229
184 205 229
184 205 229
184 205 229
184 205 229
184 205 229
184 205 229
184 205 229
184 205 229
184 205 229
184 205 229
184 205 229
184 205 229
184 205 229
184 205 229
184 205 229
184 205 229
184 205 229
184 205 229
184 205 229
184 205 229
184 205 229
184 205 229
184 205 229
184 205 229
184 205 229
184 205 229
184 205 229
184 205 229
184 205 229
184 205 229
184 205 229
184 205 229
184 205 229
184 205 229
184 205 229
184 205 229
184 205 229
184 205 229
184 205 229
184 205 229
184 205 229
184 205 229
184 205 229
184 205 229
184 205 229
184 205 229
184 205 229
184 205 229
184 205 229
184 205 229
184 205 229
184 205 229
184 205 229
184 205 229
184 205 229
184 205 229
184 205 229
184 205 229
184 205 229
184 205 229
184 205 229
184 205 229
184 205 229
184 205 229
184 205 229
184 205 229
184 205 229
184 205 229
184 205 229
184 205 229
184 205 229
184 205 229
183 205 229
183 205 229
183 205 229
183 205 229
183 205 229
183 205 229
183 205 229
183 205 229
183 205 229
183 205 229
183 205 229
183 205 229
183 205 229
183 205 229
183 205 229
183 205 229
183 205 229
183 205 229
183 205 229
183 205 229
183 205 229
183 205 229
183 205 229
183 205 229
183 205 229
183 205 229
183 205 229
183 205 229
183 205 229
183 205 229
183 205 229
183 205 229
183 205 229
183 205 229
183 205 229
183 205 229
183 205 229
183 205 229
183 205 229
183 205 229
183 205 229
183 205 228
183 205 228
183 205 228
183 205 228
183 205 228
183 205 228
183 205 228
183 205 228
183 205 228
183 205 228
183 205 228
183 205 228
183 205 228
183 205 228
183 205 228
183 205 228
183 205 228
183 205 228
183 205 228
183 205 228
183 205 228
183 205 228
183 205 228
183 205 228
183 205 228
183 205 228
183 205 228
183 205 228
183 205 228
183 205 228
183 205 228
183 205 228
183 205 228
183 205 228
183 205 228
183 205 228
183 205 228
183 205 228
183 205 228
183 205 228
183 205 228
183 205 228
183 205 228
183 205 228
183 205 228
183 205 228
183 205 228
183 205 228
183 205 228
183 205 228
183 205 228
183 205 228
183 205 228
183 205 228
183 205 228
183 205 228
183 205 228
183 205 228
183 205 228
183 205 228
183 205 228
183 205 228
183 205 228
183 205 228
183 205 228
183 205 228
183 205 228
183 205 228
183 205 228
183 205 228
183 205 228
183 205 228
183 205 228
183 205 229
183 205 229
183 205 229
183 205 229
183 205 229
183 205 229
183 205 229
183 205 229
183 205 229
183 205 229
183 205 229
183 205 229
183 205 229
183 205 229
183 205 229
183 205 229
183 205 229
183 205 229
183 205 229
183 205 229
183 205 229
183 205 229
183 205 229
183 205 229
183 205 229
183 205 229
183 205 229
183 205 229
183 205 229
183 205 229
183 205 229
183 205 229
183 205 229
183 205 229
183 205 229
183 205 229
183 205 229
183 205 229
183 205 229
183 205 229
183 205 229
183 205 229
183 205 229
183 205 229
183 205 229
183 205 229
183 205 229
183 205 229
183 205 229
183 205 229
183 205 229
183 205 229
183 205 229
183 205 229
183 205 229
183 205 229
183 205 229
183 205 229
183 205 229
183 205 229
183 205 229
183 205 229
183 205 229
183 205 229
183 205 229
183 205 229
183 205 229
183 205 229
183 205 229
183 205 229
183 205 229
183 205 229
183 205 229
183 205 229
183 205 229
183 205 229
183 205 228
183 205 228
183 205 228
183 205 228
183 205 228
183 205 228
183 205 228
183 205 228
183 205 228
183 205 228
183 205 228
183 205 228
183 205 228
183 205 228
183 205 228
183 205 228
183 205 228
183 205 228
183 205 228
183 205 228
183 205 228
183 205 228
183 205 228
183 205 228
183 205 228
183 205 228
183 205 228
183 205 228
183 205 228
183 205 228
183 205 228
183 205 228
183 205 228
183 205 228
183 205 228
183 205 228
183 205 228
183 205 228
183 205 228
183 205 228
183 205 228
183 205 228
183 205 228
183 205 228
183 205 228
183 205 228
183 205 228
183 205 228
183 205 228
183 205 228
183 205 228
183 205 228
183 205 228
183 205 228
183 205 228
183 205 228
183 205 228
183 205 228
183 205 228
183 205 228
183 205 228
183 205 228
183 204 228
183 204 228
183 204 228
183 204 228
183 204 228
183 204 228
183 204 228
183 204 228
183 204 228
183 204 228
183 204 228
183 204 228
183 204 228
183 204 228
183 204 228
183 204 228
183 204 228
183 204 228
183 204 228
183 204 228
183 204 228
183 204 228
183 204 228
183 204 228
183 204 228
183 204 228
183 204 228
183 204 228
183 204 228
183 204 228
183 204 228
183 204 228
183 204 228
183 204 228
183 204 228
183 204 228
183 204 228
183 204 228
183 204 228
183 204 228
183 204 228
183 204 228
183 205 228
183 205 228
183 205 228
183 205 228
183 205 228
183 205 228
183 205 228
183 205 228
183 205 228
183 205 228
183 205 228
183 205 228
183 205 228
183 205 228
183 205 228
183 205 228
183 205 228
183 205 228
183 205 228
183 205 228
183 205 228
183 205 228
183 205 228
183 205 228
183 205 228
183 205 228
183 205 228
183 205 228
183 205 228
183 205 228
183 205 228
183 205 228
183 205 228
183 205 228
183 205 228
183 205 228
183 205 228
183 205 228
183 205 228
183 205 228
183 205 228
183 205 228
183 205 228
183 205 228
183 205 228
183 205 228
183 205 228
183 205 228
183 205 228
183 205 228
183 205 228
183 205 228
183 205 228
183 205 228
183 205 228
183 205 228
183 205 228
183 205 228
183 205 228
183 205 228
183 205 228
183 205 228
183 205 228
183 205 228
183 205 228
183 205 228
183 205 228
183 205 228
183 205 228
183 205 228
183 205 228
183 205 228
183 205 228
183 205 228
183 205 228
183 205 228
183 205 228
183 205 228
183 205 228
183 205 228
183 205 228
183 205 228
183 205 228
183 205 228
183 205 228
183 205 228
183 205 228
183 205 228
183 205 228
183 205 228
183 205 228
183 205 228
183 205 228
183 205 228
183 205 228
183 205 228
183 205 228
183 205 228
183 205 228
183 205 228
183 205 228
183 205 228
183 205 228
183 205 228
183 205 228
183 205 228
183 205 228
183 205 228
183 205 228
183 205 228
183 205 228
183 205 228
183 205 228
183 205 228
183 205 228
183 205 228
183 204 228
183 204 228
183 204 228
183 204 228
183 204 228
183 204 228
183 204 228
183 204 228
183 204 228
183 204 228
183 204 228
183 204 228
183 204 228
183 204 228
183 204 228
183 204 228
183 204 228
183 204 228
183 204 228
183 204 228
183 204 228
183 204 228
183 204 228
183 204 228
183 204 228
183 204 228
183 204 228
183 204 228
183 204 228
183 204 228
183 204 228
183 204 228
183 204 228
183 204 228
183 204 228
183 204 228
183 204 228
183 204 228
183 204 228
183 204 228
183 204 228
183 204 228
183 204 228
183 204 228
183 204 228
183 204 228
183 204 228
183 204 228
183 204 228
183 204 228
183 204 228
183 204 228
183 204 228
183 204 228
183 204 228
183 204 228
183 204 228
183 204 228
183 204 228
183 204 228
183 204 228
183 204 228
183 204 228
183 204 228
183 204 228
183 204 228
183 204 228
183 204 228
183 204 228
183 204 228
183 204 228
183 204 228
183 204 228
183 204 228
183 204 228
183 204 228
183 204 228
183 204 228
183 204 228
183 204 228
183 204 228
183 204 228
183 204 228
183 204 228
183 204 228
183 204 228
183 204 228
183 204 228
183 204 228
183 204 228
183 204 228
183 204 228
183 204 228
183 204 228
183 204 228
183 204 228
183 204 228
183 204 228
183 204 228
183 204 228
183 204 228
183 204 228
183 204 228
183 204 228
183 204 228
183 204 228
183 204 228
183 204 228
183 204 228
183 204 228
183 204 228
183 204 228
183 204 228
183 204 228
183 204 228
183 204 228
183 204 228
183 204 228
183 204 228
183 204 228
183 204 228
183 204 228
183 204 228
183 204 228
183 204 228
183 204 228
183 204 228
183 204 228
183 204 228
183 204 228
183 204 228
183 204 228
183 204 228
183 204 228
183 204 228
183 204 228
183 204 228
183 204 228
183 204 228
183 204 228
183 204 228
183 204 228
183 204 228
183 204 228
183 204 228
183 204 228
183 204 228
183 204 228
183 204 228
183 204 228
183 204 228
183 204 228
183 204 228
183 204 228
183 204 228
183 204 228
183 204 228
183 204 228
183 204 228
183 204 228
183 204 228
183 204 228
183 204 228
183 204 228
183 204 228
183 204 228
183 204 228
183 204 228
183 204 228
183 204 228
183 204 228
183 204 228
183 204 228
183 204 228
183 204 228
183 204 228
183 204 228
183 204 228
183 204 228
183 204 228
183 204 228
183 204 228
183 204 228
183 204 228
183 204 228
183 204 228
183 204 228
183 204 228
183 204 228
183 204 228
183 204 228
183 204 228
183 204 228
183 204 228
183 204 228
183 204 228
183 204 228
183 204 228
183 204 228
183 204 228
183 204 228
183 204 228
183 204 228
183 204 228
183 204 228
183 204 228
183 204 228
183 204 228
183 204 228
183 204 228
183 204 228
183 204 228
183 204 228
183 204 228
183 204 228
183 204 228
183 204 228
183 204 228
183 204 228
183 204 228
183 204 228
183 204 228
183 204 228
183 204 228
183 204 228
183 204 228
183 204 228
183 204 228
183 204 228
183 204 228
183 204 228
183 204 228
183 204 228
183 204 228
183 204 228
183 204 228
183 204 228
183 204 228
183 204 228
183 204 228
183 204 228
183 204 228
182 204 228
182 204 228
182 204 228
182 204 228
182 204 228
182 204 228
182 204 228
182 204 228
182 204 228
182 204 228
182 204 228
182 204 228
182 204 228
182 204 228
182 204 228
182 204 228
182 204 228
182 204 228
182 204 228
182 204 228
182 204 228
182 204 228
182 204 228
183 204 228
183 204 228
183 204 228
183 204 228
183 204 228
183 204 228
183 204 228
183 204 228
183 204 228
183 204 228
183 204 228
183 204 228
183 204 228
183 204 228
183 204 228
183 204 228
183 204 228
183 204 228
183 204 228
183 204 228
183 204 228
183 204 228
183 204 228
183 204 228
183 204 228
183 204 228
183 204 228
183 204 228
183 204 228
183 204 228
183 204 228
183 204 228
183 204 228
183 204 228
183 204 228
183 204 228
183 204 228
183 204 228
183 204 228
183 204 228
183 204 228
183 204 228
183 204 228
183 204 228
183 204 228
183 204 228
183 204 228
183 204 228
183 204 228
183 204 228
183 204 228
183 204 228
183 204 228
183 204 228
183 204 228
183 204 228
183 204 228
183 204 228
183 204 228
183 204 228
183 204 228
183 204 228
183 204 228
183 204 228
183 204 228
183 204 228
183 204 228
183 204 228
183 204 228
183 204 228
183 204 228
183 204 228
183 204 228
183 204 228
183 204 228
183 204 228
183 204 228
183 204 228
183 204 228
183 204 228
183 204 228
183 204 228
183 204 228
183 204 228
183 204 228
183 204 228
183 204 228
183 204 228
183 204 228
183 204 228
183 204 228
183 204 228
183 204 228
183 204 228
183 204 228
183 204 228
183 204 228
183 204 228
183 204 228
183 204 228
183 204 228
183 204 228
183 204 228
183 204 228
183 204 228
183 204 228
183 204 228
183 204 228
183 204 228
183 204 228
183 204 228
183 204 228
183 204 228
183 204 228
183 204 228
183 204 228
183 204 228
183 204 228
183 204 228
183 204 228
183 204 228
183 204 228
183 204 228
183 204 228
183 204 228
183 204 228
183 204 228
183 204 228
183 204 228
183 204 228
183 204 228
183 204 228
183 204 228
183 204 228
183 204 228
183 204 228
183 204 228
183 204 228
183 204 228
183 204 228
183 204 228
183 204 228
183 204 228
183 204 228
183 204 228
183 204 228
183 204 228
183 204 228
183 204 228
183 204 228
183 204 228
183 204 228
183 204 228
183 204 228
182 204 228
182 204 228
182 204 228
182 204 228
182 204 228
182 204 228
182 204 228
182 204 228
182 204 228
182 204 228
182 204 228
182 204 228
182 204 228
182 204 228
182 204 228
182 204 228
182 204 228
182 204 228
182 204 228
182 204 228
182 204 228
182 204 228
182 204 228
182 204 228
182 204 228
182 204 228
182 204 228
182 204 228
182 204 228
182 204 228
182 204 228
182 204 228
182 204 228
182 204 228
182 204 228
182 204 228
182 204 228
182 204 228
182 204 228
182 204 228
182 204 228
182 204 228
182 204 228
182 204 228
182 204 228
182 204 228
182 204 228
182 204 228
182 204 228
182 204 228
182 204 228
182 204 228
182 204 228
182 204 228
182 204 228
182 204 228
182 204 228
182 204 228
182 204 228
182 204 228
182 204 228
182 204 228
182 204 228
182 204 228
182 204 228
182 204 228
182 204 228
182 204 228
182 204 228
182 204 228
182 204 228
182 204 228
182 204 228
182 204 228
182 204 228
182 204 228
182 204 228
182 204 228
182 204 228
182 204 228
182 204 228
182 204 228
182 204 228
182 204 228
182 204 228
182 204 228
182 204 228
182 204 228
182 204 228
182 204 228
182 204 228
182 204 228
182 204 228
182 204 228
182 204 228
182 204 228
182 204 228
182 204 228
182 204 228
182 204 228
182 204 228
182 204 228
182 204 228
182 204 228
182 204 228
182 204 228
182 204 228
182 204 228
182 204 228
182 204 228
182 204 228
182 204 228
182 204 228
182 204 228
182 204 228
182 204 228
182 204 228
182 204 228
182 204 228
182 204 228
182 204 228
182 204 228
182 204 228
182 204 228
182 204 228
182 204 228
182 204 228
182 204 228
182 204 228
182 204 228
182 204 228
182 204 228
182 204 228
182 204 228
182 204 228
182 204 228
182 204 228
182 204 228
182 204 228
182 204 228
182 204 228
182 204 228
182 204 228
182 204 228
182 204 228
182 204 228
182 204 228
182 204 228
182 204 228
182 204 228
182 204 228
182 204 228
182 204 228
182 204 228
182 204 228
182 204 228
182 204 228
182 204 228
182 204 228
182 204 228
182 204 228
182 204 228
182 204 228
182 204 228
182 204 228
182 204 228
182 204 228
182 204 228
182 204 228
182 204 228
182 204 228
182 204 228
182 204 228
182 204 228
182 204 228
182 204 228
182 204 228
182 204 228
182 204 228
182 204 228
182 204 228
182 204 228
182 204 228
182 204 228
182 204 228
182 204 228
182 204 228
182 204 228
182 204 228
182 204 228
182 204 228
182 204 228
182 204 228
182 204 228
182 204 228
182 204 228
182 204 228
182 204 228
182 204 228
182 204 228
182 204 228
182 204 228
182 204 228
182 204 228
182 204 228
182 204 228
182 204 228
182 204 228
182 204 228
182 204 228
182 204 228
182 204 228
182 204 228
182 204 228
182 204 228
182 204 228
182 204 228
182 204 228
182 204 228
182 204 228
182 204 228
182 204 228
182 204 228
182 204 228
182 204 228
182 204 228
182 204 228
182 204 228
182 204 228
182 204 228
182 204 228
182 204 228
182 204 228
182 204 228
182 204 228
182 204 228
182 204 228
182 204 228
182 204 228
182 204 228
182 204 228
182 204 228
182 204 228
182 204 228
182 204 228
182 204 228
182 204 228
182 204 228
182 204 228
182 204 228
182 204 228
182 204 228
182 204 228
182 204 228
182 204 228
182 204 228
182 204 228
182 204 228
182 204 228
182 204 228
182 204 228
182 204 228
182 204 228
182 204 228
182 204 228
182 204 228
182 204 228
182 204 228
182 204 228
182 204 228
182 204 228
182 204 228
182 204 228
182 204 228
182 204 228
182 204 228
182 204 228
182 204 228
182 204 228
182 204 228
182 204 228
182 204 228
182 204 228
182 204 228
182 204 228
182 204 228
182 204 228
182 204 228
182 204 228
182 204 228
182 204 228
182 204 228
182 204 228
182 204 228
182 204 228
182 204 228
182 204 228
182 204 228
182 204 228
182 204 228
182 204 228
182 204 228
182 204 228
182 204 228
182 204 228
182 204 228
182 204 228
182 204 228
182 204 228
182 204 228
182 204 228
182 204 228
182 204 228
182 204 228
182 204 228
182 204 228
182 204 228
182 204 228
182 204 228
182 204 228
182 204 228
182 204 228
182 204 228
182 204 228
182 204 228
182 204 228
182 204 228
182 204 228
182 204 228
182 204 228
182 204 228
182 204 228
182 204 228
182 204 228
182 204 228
182 204 228
182 204 228
182 204 228
182 204 228
182 204 228
182 204 228
182 204 228
182 204 228
182 204 228
182 204 228
182 204 228
182 204 228
182 204 228
182 204 228
182 204 228
182 204 228
182 204 228
182 204 228
182 204 228
182 204 228
182 204 228
182 204 228
182 204 228
182 204 228
182 204 228
182 204 228
182 204 228
182 204 228
182 204 228
182 204 228
182 204 228
182 204 228
182 204 228
182 204 228
182 204 228
182 204 228
182 204 228
182 204 228
182 204 228
182 204 228
182 204 228
182 204 228
182 204 228
182 204 228
182 204 228
182 204 228
182 204 228
182 204 228
182 204 228
182 204 228
182 204 228
182 204 228
182 204 228
182 204 228
182 204 228
182 204 228
182 204 228
182 204 228
182 204 228
182 204 228
182 204 228
182 204 228
182 204 228
182 204 228
182 204 228
182 204 228
182 204 228
182 204 228
182 204 228
182 204 228
182 204 228
182 204 228
182 204 228
182 204 228
182 204 228
182 204 228
182 204 228
182 204 228
182 204 228
182 204 228
182 204 228
182 204 228
182 204 228
182 204 228
182 204 228
182 204 228
182 204 228
182 204 228
182 203 227
182 203 227
182 203 227
182 203 227
182 203 227
182 203 227
182 203 227
182 203 227
182 203 227
182 203 227
182 203 227
182 203 227
182 203 227
182 203 227
182 203 227
182 203 227
182 203 227
182 203 227
182 203 227
182 203 227
182 203 227
182 203 227
182 203 227
182 203 227
182 203 227
182 203 227
182 203 228
182 203 228
182 203 228
182 203 228
182 203 228
182 203 228
182 203 228
182 203 228
182 203 228
182 203 228
182 203 228
182 203 228
182 203 228
182 203 228
182 203 228
182 203 228
182 203 228
182 203 228
182 203 228
182 203 228
182 203 228
182 203 228
182 203 228
182 203 228
182 203 228
182 203 228
182 203 228
182 203 228
182 203 228
182 203 228
182 203 228
182 203 228
182 203 228
182 203 228
182 203 228
182 203 228
182 203 228
182 203 228
182 204 228
182 204 228
182 204 228
182 204 228
182 204 228
182 204 228
182 204 228
182 204 228
182 204 228
182 204 228
182 204 228
182 204 228
182 204 228
182 204 228
182 204 228
182 204 228
182 204 228
182 204 228
182 204 228
182 204 228
182 204 228
182 204 228
182 204 228
182 204 228
182 204 228
182 204 228
182 204 228
182 204 228
182 204 228
182 204 228
182 204 228
182 204 228
182 204 228
182 204 228
182 204 228
182 204 228
182 204 228
182 204 228
182 204 228
182 204 228
182 204 228
182 204 228
182 204 228
182 204 228
182 204 228
182 204 228
182 204 228
182 204 228
182 204 228
182 204 228
182 204 228
182 204 228
182 204 228
182 204 228
182 204 228
182 204 228
182 204 228
182 204 228
182 204 228
182 204 228
182 204 228
182 204 228
182 204 228
182 204 228
182 204 228
182 204 228
182 204 228
182 204 228
182 204 228
182 204 228
182 204 228
182 204 228
182 203 228
182 203 228
182 203 228
182 203 228
182 203 228
182 203 228
182 203 228
182 203 228
182 203 228
182 203 228
182 203 228
182 203 228
182 203 228
182 203 228
182 203 228
182 203 228
182 203 228
182 203 228
182 203 228
182 203 228
182 203 228
182 203 228
182 203 228
182 203 228
182 203 228
182 203 228
182 203 228
182 203 228
182 203 228
182 203 228
182 203 228
182 203 228
182 203 228
182 203 228
182 203 228
182 203 228
182 203 228
182 203 228
182 203 227
182 203 227
182 203 227
182 203 227
182 203 227
182 203 227
182 203 227
182 203 227
182 203 227
182 203 227
182 203 227
182 203 227
182 203 227
182 203 227
182 203 227
182 203 227
182 203 227
182 203 227
182 203 227
182 203 227
182 203 227
182 203 227
182 203 227
182 203 227
182 203 227
182 203 227
182 203 227
182 203 227
182 203 227
182 203 227
182 203 227
182 203 227
182 203 227
182 203 227
182 203 227
182 203 227
182 203 227
182 203 227
182 203 227
182 203 227
182 203 227
182 203 227
182 203 227
182 203 227
182 203 227
182 203 227
182 203 227
182 203 227
182 203 227
182 203 227
182 203 227
182 203 227
182 203 227
182 203 227
182 203 227
182 203 227
182 203 227
182 203 227
182 203 227
182 203 227
182 203 227
182 203 227
182 203 227
182 203 227
182 203 227
182 203 227
182 203 227
182 203 227
182 203 227
182 203 227
182 203 227
182 203 227
182 203 227
182 203 227
182 203 227
182 203 227
182 203 227
182 203 227
182 203 227
182 203 227
182 203 227
182 203 227
182 203 227
182 203 227
182 203 227
182 203 227
182 203 227
182 203 227
182 203 227
182 203 227
182 203 227
182 203 227
182 203 227
182 203 227
182 203 227
182 203 227
182 203 227
182 203 227
182 203 227
182 203 227
182 203 227
182 203 227
182 203 227
182 203 227
182 203 227
182 203 227
182 203 227
182 203 227
182 203 227
182 203 227
182 203 227
182 203 227
182 203 227
182 203 227
182 203 227
182 203 227
182 203 227
182 203 227
182 203 227
182 203 227
182 203 227
182 203 227
182 203 227
182 203 227
182 203 227
182 203 227
182 203 227
182 203 227
182 203 227
182 203 227
182 203 227
182 203 227
182 203 227
182 203 227
182 203 227
182 203 227
182 203 227
182 203 227
182 203 227
182 203 227
182 203 227
182 203 227
182 203 227
182 203 227
182 203 227
182 203 227
182 203 227
182 203 227
182 203 227
182 203 227
182 203 227
182 203 227
182 203 227
182 203 227
182 203 227
182 203 227
182 203 227
182 203 227
182 203 227
182 203 227
182 203 227
182 203 227
182 203 227
182 203 227
182 203 227
182 203 227
182 203 227
182 203 227
182 203 227
182 203 227
182 203 227
182 203 227
182 203 227
182 203 227
182 203 227
182 203 227
182 203 227
182 203 227
182 203 227
182 203 227
182 203 227
182 203 227
182 203 227
182 203 227
182 203 227
182 203 227
182 203 227
182 203 227
182 203 227
182 203 227
182 203 227
182 203 227
182 203 227
182 203 227
182 203 227
182 203 227
182 203 227
182 203 227
182 203 227
182 203 227
182 203 227
182 203 227
182 203 227
182 203 227
182 203 227
182 203 227
182 203 227
182 203 227
182 203 227
182 203 227
182 203 227
182 203 227
182 203 227
182 203 227
182 203 227
182 203 227
182 203 227
182 203 227
182 203 227
182 203 227
182 203 227
182 203 227
182 203 227
182 203 227
182 203 227
182 203 227
181 203 227
181 203 227
181 203 227
181 203 227
181 203 227
181 203 227
181 203 227
181 203 227
181 203 227
181 203 227
181 203 227
181 203 227
181 203 227
181 203 227
181 203 227
181 203 227
181 203 227
181 203 227
181 203 227
181 203 227
181 203 227
181 203 227
181 203 227
181 203 227
181 203 227
181 203 227
181 203 227
181 203 227
181 203 227
181 203 227
181 203 227
181 203 227
181 203 227
181 203 227
181 203 227
181 203 227
181 203 227
181 203 227
181 203 227
181 203 227
181 203 227
181 203 227
181 203 227
181 203 227
181 203 227
181 203 227
181 203 227
181 203 227
181 203 227
181 203 227
181 203 227
181 203 227
181 203 227
181 203 227
181 203 227
181 203 227
181 203 227
181 203 227
181 203 227
181 203 227
181 203 227
181 203 227
181 203 227
181 203 227
181 203 227
181 203 227
181 203 227
181 203 227
181 203 227
181 203 227
181 203 227
181 203 227
181 203 227
181 203 227
181 203 227
181 203 227
181 203 227
181 203 227
181 203 227
181 203 227
181 203 227
181 203 227
181 203 227
181 203 227
181 203 227
181 203 227
181 203 227
181 203 227
181 203 227
181 203 227
181 203 227
181 203 227
181 203 227
181 203 227
181 203 227
181 203 227
181 203 227
181 203 227
181 203 227
181 203 227
181 203 227
181 203 227
181 203 227
181 203 227
181 203 227
181 203 227
181 203 227
181 203 227
181 203 227
181 203 227
181 203 227
181 203 227
181 203 227
181 203 227
181 203 227
181 203 227
181 203 227
181 203 227
181 203 227
181 203 227
181 203 227
181 203 227
181 203 227
181 203 227
181 203 227
181 203 227
181 203 227
181 203 227
181 203 227
181 203 227
181 203 227
181 203 227
181 203 227
181 203 227
181 203 227
181 203 227
181 203 227
181 203 227
181 203 227
181 203 227
181 203 227
181 203 227
181 203 227
181 203 227
181 203 227
181 203 227
181 203 227
181 203 227
181 203 227
181 203 227
181 203 227
181 203 227
181 203 227
181 203 227
181 203 227
181 203 227
181 203 227
181 203 227
181 203 227
181 203 227
181 203 227
181 203 227
181 203 227
181 203 227
181 203 227
181 203 227
181 203 227
181 203 227
181 203 227
181 203 227
181 203 227
181 203 227
181 203 227
181 203 227
181 203 227
181 203 227
181 203 227
181 203 227
181 203 227
181 203 227
181 203 227
181 203 227
181 203 227
181 203 227
181 203 227
181 203 227
181 203 227
181 203 227
181 203 227
181 203 227
181 203 227
181 203 227
181 203 227
181 203 227
181 203 227
181 203 227
181 203 227
181 203 227
181 203 227
181 203 227
181 203 227
181 203 227
181 203 227
181 203 227
181 203 227
181 203 227
181 203 227
181 203 227
181 203 227
181 203 227
181 203 227
181 203 227
181 203 227
181 203 227
181 203 227
181 203 227
181 203 227
181 203 227
181 203 227
181 203 227
181 203 227
181 203 227
181 203 227
181 203 227
181 203 227
181 203 227
181 203 227
181 203 227
181 203 227
181 203 227
181 203 227
181 203 227
181 203 227
181 203 227
181 203 227
181 203 227
181 203 227
181 203 227
181 203 227
181 203 227
181 203 227
181 203 227
181 203 227
181 203 227
181 203 227
181 203 227
181 203 227
181 203 227
181 203 227
181 203 227
181 203 227
181 203 227
181 203 227
181 203 227
181 203 227
181 203 227
181 203 227
181 203 227
181 203 227
181 203 227
181 203 227
181 203 227
181 203 227
181 203 227
181 203 227
181 203 227
181 203 227
181 203 227
181 203 227
181 203 227
181 203 227
181 203 227
181 203 227
181 203 227
181 203 227
181 203 227
181 203 227
181 203 227
181 203 227
181 203 227
181 203 227
181 203 227
181 203 227
181 203 227
181 203 227
181 203 227
181 203 227
181 203 227
181 203 227
181 203 227
181 203 227
181 203 227
181 203 227
181 203 227
181 203 227
181 203 227
181 203 227
181 203 227
181 203 227
181 203 227
181 203 227
181 203 227
181 203 227
181 203 227
181 203 227
181 203 227
181 203 227
181 203 227
181 203 227
181 203 227
181 203 227
181 203 227
181 203 227
181 203 227
181 203 227
181 203 227
181 203 227
181 203 227
181 203 227
181 203 227
181 203 227
181 203 227
181 203 227
181 203 227
181 203 227
181 203 227
181 203 227
181 203 227
181 203 227
181 203 227
181 203 227
181 203 227
181 203 227
181 203 227
181 203 227
181 203 227
181 203 227
181 203 227
181 203 227
181 203 227
181 203 227
181 203 227
181 203 227
181 203 227
181 203 227
181 203 227
181 203 227
181 203 227
181 203 227
181 203 227
181 203 227
181 203 227
181 203 227
181 203 227
181 203 227
181 203 227
181 203 227
181 203 227
181 203 227
181 203 227
181 203 227
181 203 227
181 203 227
181 203 227
181 203 227
181 203 227
181 203 227
181 203 227
181 203 227
181 203 227
181 203 227
181 203 227
181 203 227
181 203 227
181 203 227
181 203 227
181 203 227
181 203 227
181 203 227
181 203 227
181 203 227
181 203 227
181 203 227
181 203 227
181 203 227
181 203 227
181 203 227
181 203 227
181 203 227
181 203 227
181 203 227
181 203 227
181 203 227
181 203 227
181 203 227
181 203 227
181 203 227
181 203 227
181 203 227
181 203 227
24 27 31
24 27 31
24 27 31
24 27 31
24 27 31
24 27 31
24 27 31
24 27 31
24 27 31
24 27 31
24 27 31
24 27 31
24 27 31
24 27 31
24 27 31
24 27 31
24 27 31
24 27 31
24 27 31
24 27 31
24 27 31
24 27 31
24 27 31
24 27 31
24 27 31
24 27 31
24 27 31
24 27 31
24 27 31
24 27 31
24 27 31
24 27 31
24 27 31
24 27 31
24 27 31
24 27 31
24 27 31
24 27 31
24 27 31
24 27 31
24 27 31
24 27 31
24 27 31
24 27 31
24 27 31
24 27 31
24 27 31
24 27 31
24 27 31
24 27 31
24 27 31
24 27 31
24 27 31
24 27 31
25 27 31
25 27 31
25 27 31
25 27 31
25 27 31
25 27 31
25 27 31
25 27 31
25 27 31
25 27 31
25 27 31
25 27 31
25 27 31
25 27 31
25 27 31
25 27 31
25 27 31
25 27 31
25 27 31
25 27 31
25 27 31
25 27 31
25 27 31
25 27 31
25 27 31
25 27 31
25 27 31
25 27 31
25 27 31
25 27 31
25 27 31
25 27 31
25 27 31
25 27 31
25 27 31
25 27 31
25 27 31
25 27 31
25 27 31
25 27 31
25 27 31
25 27 31
25 27 31
25 27 31
25 27 31
25 27 31
25 27 31
25 27 31
25 27 31
25 27 31
25 27 31
25 27 31
25 27 31
25 27 31
25 27 31
25 27 31
25 27 31
25 27 31
25 27 31
25 27 31
25 27 31
25 27 31
25 27 31
25 27 31
25 27 31
25 27 31
25 27 31
25 27 31
25 27 31
25 27 31
25 27 31
25 27 31
25 27 31
25 27 31
25 27 31
25 27 31
25 27 31
25 27 31
25 27 31
25 27 31
25 27 31
25 27 31
25 27 31
25 27 31
25 27 31
25 27 31
25 27 31
25 27 31
25 27 31
25 27 31
25 27 31
25 27 31
24 27 31
24 27 31
24 27 31
24 27 31
24 27 31
24 27 31
24 27 31
24 27 31
24 27 31
24 27 31
24 27 31
24 27 31
24 27 31
24 27 31
24 27 31
24 27 31
24 27 31
24 27 31
24 27 31
24 27 31
24 27 31
24 27 31
24 27 31
24 27 31
24 27 31
24 27 31
24 27 31
24 27 31
24 27 31
24 27 31
24 27 31
24 27 31
24 27 31
24 27 31
24 27 31
24 27 31
24 27 31
24 27 31
24 27 31
24 27 31
24 27 31
24 27 31
24 27 31
24 27 31
24 27 31
24 27 31
24 27 31
24 27 31
24 27 31
24 27 31
24 27 31
24 27 31
24 27 31
24 27 31
26 29 33
26 29 33
26 29 33
26 29 33
26 29 33
26 29 33
26 29 33
26 29 33
26 29 33
26 29 33
26 29 33
26 29 33
26 29 33
26 29 33
26 29 33
26 29 33
26 29 33
26 29 33
26 29 33
26 29 33
26 29 33
26 29 33
26 29 33
26 29 33
26 29 33
26 29 33
26 29 33
26 29 33
26 29 33
26 29 33
26 29 33
26 29 33
26 29 33
26 29 33
26 29 33
26 29 34
26 29 34
26 29 34
26 29 34
26 29 34
26 29 34
26 29 34
26 29 34
26 29 34
26 29 34
26 29 34
26 29 34
26 29 34
26 29 34
26 29 34
26 29 34
26 29 34
26 29 34
26 29 34
26 29 34
26 29 34
26 29 34
26 29 34
26 29 34
26 29 34
26 29 34
26 29 34
26 29 34
26 29 34
26 29 34
26 29 34
26 29 34
26 29 34
26 29 34
27 29 34
27 29 34
27 29 34
27 29 34
27 29 34
27 29 34
27 29 34
27 29 34
27 29 34
27 29 34
27 29 34
27 29 34
27 29 34
27 29 34
27 29 34
27 29 34
27 29 34
27 29 34
27 29 34
27 29 34
27 29 34
27 29 34
27 29 34
27 29 34
27 29 34
27 29 34
27 29 34
27 29 34
27 29 34
27 29 34
27 29 34
27 29 34
27 29 34
27 29 34
27 29 34
27 29 34
27 29 34
27 29 34
27 29 34
27 29 34
27 29 34
27 29 34
27 29 34
27 29 34
27 29 34
27 29 34
27 29 34
27 29 34
27 29 34
27 29 34
27 29 34
27 29 34
27 29 34
27 29 34
27 29 34
27 29 34
27 29 34
27 29 34
27 29 34
27 29 34
27 29 34
27 29 34
27 29 34
27 29 34
26 29 34
26 29 34
26 29 34
26 29 34
26 29 34
26 29 34
26 29 34
26 29 34
26 29 34
26 29 34
26 29 34
26 29 34
26 29 34
26 29 34
26 29 34
26 29 34
26 29 34
26 29 34
26 29 34
26 29 34
26 29 34
26 29 34
26 29 34
26 29 34
26 29 34
26 29 34
26 29 34
26 29 34
26 29 34
26 29 34
26 29 34
26 29 34
26 29 34
26 29 33
26 29 33
26 29 33
26 29 33
26 29 33
26 29 33
26 29 33
26 29 33
26 29 33
26 29 33
26 29 33
26 29 33
26 29 33
26 29 33
26 29 33
26 29 33
26 29 33
26 29 33
26 29 33
26 29 33
26 29 33
26 29 33
26 29 33
26 29 33
26 29 33
26 29 33
26 29 33
26 29 33
26 29 33
26 29 33
26 29 33
26 29 33
26 29 33
26 29 33
28 31 35
28 31 35
28 31 35
28 31 35
28 31 35
28 31 35
28 31 35
28 31 35
28 31 35
28 31 35
28 31 36
28 31 36
28 31 36
28 31 36
28 31 36
28 31 36
28 31 36
28 31 36
28 31 36
28 31 36
28 31 36
28 31 36
28 31 36
28 31 36
28 31 36
28 31 36
28 31 36
28 31 36
28 31 36
28 31 36
28 31 36
28 31 36
28 31 36
28 31 36
28 31 36
28 31 36
28 31 36
28 31 36
28 31 36
28 31 36
28 31 36
28 31 36
28 31 36
28 31 36
28 31 36
28 31 36
28 31 36
28 31 36
28 31 36
28 31 36
28 31 36
28 31 36
28 31 36
28 31 36
28 32 36
28 32 36
28 32 36
28 32 36
28 32 36
28 32 36
28 32 36
28 32 36
28 32 36
29 32 36
29 32 36
29 32 36
29 32 36
29 32 36
29 32 36
29 32 36
29 32 36
29 32 36
29 32 36
29 32 36
29 32 36
29 32 36
29 32 36
29 32 36
29 32 36
29 32 36
29 32 36
29 32 36
29 32 36
29 32 36
29 32 36
29 32 36
29 32 36
29 32 36
29 32 36
29 32 36
29 32 36
29 32 36
29 32 36
29 32 36
29 32 36
29 32 36
29 32 36
29 32 36
29 32 36
29 32 36
29 32 36
29 32 36
29 32 36
29 32 36
29 32 36
29 32 36
29 32 36
29 32 36
29 32 36
29 32 36
29 32 36
29 32 36
29 32 36
29 32 36
29 32 36
29 32 36
29 32 36
29 32 36
29 32 36
29 32 36
29 32 36
29 32 36
29 32 36
29 32 36
29 32 36
29 32 36
29 32 36
29 32 36
29 32 36
29 32 36
29 32 36
29 32 36
29 32 36
29 32 36
29 32 36
29 32 36
29 32 36
29 32 36
29 32 36
29 32 36
28 32 36
28 32 36
28 32 36
28 32 36
28 32 36
28 32 36
28 32 36
28 32 36
28 31 36
28 31 36
28 31 36
28 31 36
28 31 36
28 31 36
28 31 36
28 31 36
28 31 36
28 31 36
28 31 36
28 31 36
28 31 36
28 31 36
28 31 36
28 31 36
28 31 36
28 31 36
28 31 36
28 31 36
28 31 36
28 31 36
28 31 36
28 31 36
28 31 36
28 31 36
28 31 36
28 31 36
28 31 36
28 31 36
28 31 36
28 31 36
28 31 36
28 31 36
28 31 36
28 31 36
28 31 36
28 31 36
28 31 36
28 31 36
28 31 36
28 31 36
28 31 36
28 31 36
28 31 35
28 31 35
28 31 35
28 31 35
28 31 35
28 31 35
28 31 35
28 31 35
30 33 38
30 33 38
30 33 38
30 33 38
30 33 38
30 33 38
30 33 38
30 33 38
30 33 38
30 33 38
30 33 38
30 33 38
30 33 38
30 33 38
30 33 38
30 33 38
30 33 38
30 33 38
30 33 38
30 33 38
30 33 38
30 33 38
30 33 38
30 33 38
30 33 38
30 33 38
30 33 38
30 33 38
30 33 38
30 33 38
30 33 38
30 33 38
30 33 38
30 33 38
30 33 38
30 33 38
30 33 38
30 33 38
30 33 38
30 33 38
30 34 38
30 34 38
30 34 38
30 34 38
30 34 38
30 34 38
30 34 38
30 34 38
30 34 38
30 34 38
30 34 38
30 34 38
30 34 38
30 34 38
30 34 38
30 34 39
31 34 39
31 34 39
31 34 39
31 34 39
31 34 39
31 34 39
31 34 39
31 34 39
31 34 39
31 34 39
31 34 39
31 34 39
31 34 39
31 34 39
31 34 39
31 34 39
31 34 39
31 34 39
31 34 39
31 34 39
31 34 39
31 34 39
31 34 39
31 34 39
31 34 39
31 34 39
31 34 39
31 34 39
31 34 39
31 34 39
31 34 39
31 34 39
31 34 39
31 34 39
31 34 39
31 34 39
31 34 39
31 34 39
31 34 39
31 34 39
31 34 39
31 34 39
31 34 39
31 34 39
31 34 39
31 34 39
31 34 39
31 34 39
31 34 39
31 34 39
31 34 39
31 34 39
31 34 39
31 34 39
31 34 39
31 34 39
31 34 39
31 34 39
31 34 39
31 34 39
31 34 39
31 34 39
31 34 39
31 34 39
31 34 39
31 34 39
31 34 39
31 34 39
31 34 39
31 34 39
31 34 39
31 34 39
31 34 39
31 34 39
31 34 39
31 34 39
31 34 39
31 34 39
31 34 39
31 34 39
31 34 39
31 34 39
31 34 39
31 34 39
31 34 39
31 34 39
31 34 39
31 34 39
31 34 39
31 34 39
31 34 39
30 34 39
30 34 39
30 34 38
30 34 38
30 34 38
30 34 38
30 34 38
30 34 38
30 34 38
30 34 38
30 34 38
30 34 38
30 34 38
30 34 38
30 34 38
30 34 38
30 34 38
30 33 38
30 33 38
30 33 38
30 33 38
30 33 38
30 33 38
30 33 38
30 33 38
30 33 38
30 33 38
30 33 38
30 33 38
30 33 38
30 33 38
30 33 38
30 33 38
30 33 38
30 33 38
30 33 38
30 33 38
30 33 38
30 33 38
30 33 38
30 33 38
30 33 38
30 33 38
30 33 38
30 33 38
30 33 38
30 33 38
30 33 38
30 33 38
30 33 38
30 33 38
30 33 38
30 33 38
31 35 40
32 35 40
32 35 40
32 35 40
32 35 40
32 35 40
32 35 40
32 35 40
32 35 40
32 35 40
32 35 40
32 35 40
32 35 40
32 35 40
32 35 40
32 35 40
32 35 40
32 35 40
32 35 40
32 35 40
32 35 40
32 35 40
32 35 40
32 35 40
32 35 40
32 35 40
32 35 40
32 35 40
32 35 40
32 35 40
32 35 40
32 36 41
32 36 41
32 36 41
32 36 41
32 36 41
32 36 41
32 36 41
32 36 41
32 36 41
32 36 41
32 36 41
32 36 41
32 36 41
32 36 41
32 36 41
32 36 41
32 36 41
32 36 41
32 36 41
33 36 41
33 36 41
33 36 41
33 36 41
33 36 41
33 36 41
33 36 41
33 36 41
33 36 41
33 36 41
33 36 41
33 36 41
33 36 41
33 36 41
33 36 41
33 36 41
33 36 41
33 36 41
33 36 41
33 36 41
33 36 41
33 36 41
33 36 41
33 36 41
33 36 41
33 36 41
33 36 41
33 36 41
33 36 41
33 36 41
33 36 41
33 36 41
33 36 41
33 36 41
33 36 41
33 36 41
33 36 41
33 36 41
33 36 41
33 36 41
33 36 41
33 36 41
33 36 41
33 36 41
33 36 41
33 36 41
33 36 41
33 36 41
33 36 42
33 36 42
33 36 42
33 36 42
33 36 42
33 36 42
33 36 42
33 36 42
33 36 42
33 36 41
33 36 41
33 36 41
33 36 41
33 36 41
33 36 41
33 36 41
33 36 41
33 36 41
33 36 41
33 36 41
33 36 41
33 36 41
33 36 41
33 36 41
33 36 41
33 36 41
33 36 41
33 36 41
33 36 41
33 36 41
33 36 41
33 36 41
33 36 41
33 36 41
33 36 41
33 36 41
33 36 41
33 36 41
33 36 41
33 36 41
33 36 41
33 36 41
33 36 41
33 36 41
33 36 41
33 36 41
33 36 41
33 36 41
33 36 41
33 36 41
33 36 41
33 36 41
33 36 41
33 36 41
33 36 41
33 36 41
32 36 41
32 36 41
32 36 41
32 36 41
32 36 41
32 36 41
32 36 41
32 36 41
32 36 41
32 36 41
32 36 41
32 36 41
32 36 41
32 36 41
32 36 41
32 36 41
32 36 41
32 36 41
32 36 41
32 35 41
32 35 40
32 35 40
32 35 40
32 35 40
32 35 40
32 35 40
32 35 40
32 35 40
32 35 40
32 35 40
32 35 40
32 35 40
32 35 40
32 35 40
32 35 40
32 35 40
32 35 40
32 35 40
32 35 40
32 35 40
32 35 40
32 35 40
32 35 40
32 35 40
32 35 40
32 35 40
33 37 42
33 37 42
33 37 42
33 37 42
33 37 42
33 37 42
33 37 42
34 37 42
34 37 42
34 37 42
34 37 42
34 37 42
34 37 42
34 37 42
34 37 42
34 37 42
34 37 42
34 37 42
34 37 43
34 37 43
34 37 43
34 37 43
34 37 43
34 37 43
34 37 43
34 38 43
34 38 43
34 38 43
34 38 43
34 38 43
34 38 43
34 38 43
34 38 43
34 38 43
34 38 43
34 38 43
34 38 43
34 38 43
34 38 43
34 38 43
34 38 43
34 38 43
34 38 43
34 38 43
34 38 43
35 38 43
35 38 43
35 38 43
35 38 43
35 38 43
35 38 43
35 38 44
35 38 44
35 38 44
35 38 44
35 38 44
35 38 44
35 38 44
35 38 44
35 38 44
35 38 44
35 38 44
35 38 44
35 38 44
35 38 44
35 38 44
35 38 44
35 38 44
35 39 44
35 39 44
35 39 44
35 39 44
35 39 44
35 39 44
35 39 44
35 39 44
35 39 44
35 39 44
35 39 44
35 39 44
35 39 44
35 39 44
35 39 44
35 39 44
35 39 44
35 39 44
35 39 44
35 39 44
35 39 44
35 39 44
35 39 44
35 39 44
35 39 44
35 39 44
35 39 44
35 39 44
35 39 44
35 39 44
35 39 44
35 39 44
35 39 44
35 39 44
35 39 44
35 39 44
35 39 44
35 39 44
35 39 44
35 39 44
35 39 44
35 39 44
35 39 44
35 39 44
35 39 44
35 39 44
35 39 44
35 39 44
35 39 44
35 39 44
35 39 44
35 39 44
35 39 44
35 39 44
35 39 44
35 39 44
35 39 44
35 39 44
35 39 44
35 39 44
35 39 44
35 39 44
211 193 85
227 208 89
235 215 91
241 220 92
244 222 93
245 223 93
244 223 93
242 221 93
238 217 92
231 211 90
219 201 87
35 38 44
35 38 44
35 38 44
35 38 44
35 38 44
35 38 44
35 38 44
35 38 44
35 38 44
35 38 44
35 38 44
35 38 44
35 38 44
35 38 44
35 38 43
35 38 43
35 38 43
35 38 43
35 38 43
34 38 43
34 38 43
34 38 43
34 38 43
34 38 43
34 38 43
34 38 43
34 38 43
34 38 43
34 38 43
34 38 43
34 38 43
34 38 43
34 38 43
34 38 43
34 38 43
34 38 43
34 38 43
34 38 43
34 38 43
34 37 43
34 37 43
34 37 43
34 37 43
34 37 43
34 37 43
34 37 43
34 37 43
34 37 42
34 37 42
34 37 42
34 37 42
34 37 42
34 37 42
34 37 42
34 37 42
34 37 42
34 37 42
33 37 42
33 37 42
35 39 44
35 39 44
35 39 44
35 39 44
35 39 44
35 39 44
35 39 44
35 39 44
35 39 45
35 39 45
36 39 45
36 39 45
36 39 45
36 39 45
36 39 45
36 39 45
36 39 45
36 39 45
36 39 45
36 39 45
36 39 45
36 40 45
36 40 45
36 40 45
36 40 45
36 40 45
36 40 45
36 40 45
36 40 45
36 40 45
36 40 45
36 40 45
36 40 45
36 40 46
36 40 46
36 40 46
36 40 46
36 40 46
36 40 46
36 40 46
36 40 46
37 40 46
37 40 46
37 40 46
37 40 46
37 40 46
37 40 46
37 40 46
37 40 46
37 40 46
37 40 46
37 41 46
37 41 46
37 41 46
37 41 46
37 41 46
37 41 46
34 18 27
36 18 28
58 26 43
75 32 54
195 95 147
196 95 147
196 95 147
196 96 147
197 96 148
197 96 148
198 96 148
198 96 148
199 96 149
199 96 149
199 97 149
200 97 150
200 97 150
201 97 150
165 65 112
163 64 110
185 86 114
152 60 103
142 56 97
127 51 87
89 37 63
37 41 47
37 41 47
37 41 47
37 41 47
37 41 47
37 41 47
37 41 47
37 41 47
37 41 47
37 41 47
37 41 47
38 41 47
38 41 47
38 41 47
38 41 47
38 41 47
38 41 47
38 41 47
38 41 47
38 41 47
38 41 47
38 41 47
38 41 47
38 41 47
38 41 47
38 41 47
38 41 47
38 41 47
38 41 47
38 41 47
38 41 47
37 41 47
37 41 47
37 41 47
37 41 47
37 41 47
37 41 47
37 41 47
37 41 47
37 41 47
37 41 47
37 41 47
37 41 47
37 41 47
37 41 47
37 41 47
214 197 86
229 209 90
238 218 92
245 224 94
250 228 95
253 231 96
255 233 96
255 233 97
255 233 96
254 232 96
252 229 95
248 226 94
242 221 93
233 213 91
221 203 88
195 179 81
37 41 46
37 41 46
37 41 46
37 41 46
37 41 46
37 41 46
37 41 46
37 41 46
37 41 46
37 41 46
37 41 46
37 40 46
37 40 46
37 40 46
37 40 46
37 40 46
37 40 46
37 40 46
37 40 46
37 40 46
37 40 46
37 40 46
36 40 46
36 40 46
36 40 46
36 40 46
36 40 46
36 40 46
36 40 46
36 40 45
36 40 45
36 40 45
36 40 45
36 40 45
36 40 45
36 40 45
36 40 45
36 40 45
36 40 45
36 40 45
36 40 45
36 40 45
36 39 45
36 39 45
36 39 45
36 39 45
36 39 45
36 39 45
36 39 45
36 39 45
36 39 45
36 39 45
36 39 45
35 39 45
35 39 44
35 39 44
37 41 46
37 41 46
37 41 47
37 41 47
37 41 47
37 41 47
37 41 47
37 41 47
37 41 47
37 41 47
37 41 47
38 41 47
38 41 47
38 41 47
38 41 47
38 41 47
38 41 47
38 42 47
38 42 47
38 42 47
38 42 47
38 42 47
38 42 48
38 42 48
38 42 48
38 42 48
38 42 48
38 42 48
38 42 48
38 42 48
38 42 48
38 42 48
38 42 48
38 42 48
38 42 48
38 42 48
38 42 48
39 42 48
39 42 48
39 42 48
39 42 48
39 43 48
39 43 48
39 43 48
39 43 49
39 43 49
39 43 49
39 43 49
39 43 49
39 43 49
39 43 49
39 43 49
39 43 49
39 43 49
39 43 49
39 43 49
39 43 49
35 18 28
36 18 28
58 26 43
75 32 54
89 38 63
101 42 71
112 46 78
122 49 84
130 53 90
138 55 94
145 58 99
150 60 103
155 62 106
159 63 108
162 64 110
165 65 112
166 65 113
166 65 113
165 65 112
163 64 110
183 84 113
152 60 104
143 57 97
127 51 87
91 38 64
40 44 50
40 44 50
40 44 50
40 44 50
40 44 50
40 44 50
40 44 50
40 44 50
40 44 50
40 44 50
40 44 50
40 44 50
40 44 50
40 44 50
40 44 50
40 44 50
40 44 50
40 44 50
40 44 50
40 44 50
40 44 50
40 44 50
40 44 50
40 44 50
40 44 50
40 44 50
40 44 50
40 44 50
40 44 50
40 44 50
40 44 50
40 44 50
40 44 50
40 44 50
40 44 50
40 44 50
40 44 50
40 44 50
40 44 50
40 44 50
40 44 50
40 44 50
40 44 50
40 44 50
200 184 83
220 202 88
232 212 91
241 220 93
247 226 95
252 230 96
255 233 97
255 236 97
255 237 98
255 238 98
255 237 98
255 236 98
255 234 97
254 231 96
250 228 95
244 222 94
236 216 92
226 207 89
210 193 85
39 43 49
39 43 49
39 43 49
39 43 49
39 43 49
39 43 49
39 43 49
39 43 49
39 43 49
39 43 49
39 43 49
39 43 49
39 43 49
39 43 49
39 43 49
39 43 49
39 43 49
39 43 49
39 43 48
39 43 48
39 43 48
39 42 48
39 42 48
39 42 48
39 42 48
39 42 48
38 42 48
38 42 48
38 42 48
38 42 48
38 42 48
38 42 48
38 42 48
38 42 48
38 42 48
38 42 48
38 42 48
38 42 48
38 42 48
38 42 48
38 42 48
38 42 47
38 42 47
38 42 47
38 42 47
38 42 47
38 41 47
38 41 47
38 41 47
38 41 47
38 41 47
37 41 47
37 41 47
37 41 47
37 41 47
39 43 49
39 43 49
39 43 49
39 43 49
39 43 49
39 43 49
39 43 49
39 43 49
39 43 49
39 43 49
39 43 49
39 43 49
40 43 49
40 43 49
40 44 50
40 44 50
40 44 50
40 44 50
40 44 50
40 44 50
40 44 50
40 44 50
40 44 50
40 44 50
40 44 50
40 44 50
40 44 50
40 44 50
40 44 50
40 44 50
40 44 50
40 44 50
40 44 51
40 44 51
41 45 51
41 45 51
41 45 51
41 45 51
41 45 51
41 45 51
41 45 51
41 45 51
41 45 51
41 45 51
41 45 51
41 45 51
41 45 51
41 45 51
41 45 51
41 45 51
41 45 51
41 45 51
41 45 52
41 45 52
41 45 52
41 45 52
41 45 52
35 18 28
35 18 28
57 26 43
74 33 54
89 38 63
101 42 71
112 46 78
122 50 84
130 53 90
138 56 95
144 58 99
150 60 103
155 62 106
159 63 109
162 65 111
165 65 112
166 66 113
166 66 113
165 65 112
198 95 117
181 82 112
152 61 104
143 57 98
128 52 88
93 39 65
42 46 53
42 46 53
42 46 53
42 46 53
42 46 53
42 46 53
42 46 53
42 46 53
42 46 53
42 46 53
42 46 53
42 46 53
42 46 53
42 46 53
42 46 53
42 46 53
42 46 53
42 46 53
42 46 53
42 46 53
42 46 53
42 46 53
42 46 53
42 46 53
42 46 53
42 46 53
42 46 53
42 46 53
42 46 53
42 46 53
42 46 53
42 46 53
42 46 53
42 46 53
42 46 53
42 46 53
42 46 53
42 46 53
42 46 53
42 46 53
42 46 53
42 46 53
42 46 53
201 185 84
218 200 88
230 210 91
238 218 93
245 224 94
251 229 96
255 232 97
255 235 97
255 237 98
255 238 98
255 239 99
255 239 98
255 238 98
255 236 98
255 234 97
253 230 96
248 226 95
242 221 93
234 214 92
224 205 89
210 193 86
183 169 79
42 46 52
42 46 52
41 46 52
41 46 52
41 45 52
41 45 52
41 45 52
41 45 52
41 45 52
41 45 52
41 45 51
41 45 51
41 45 51
41 45 51
41 45 51
41 45 51
41 45 51
41 45 51
41 45 51
41 45 51
41 45 51
41 45 51
41 45 51
41 45 51
41 45 51
41 45 51
41 45 51
41 45 51
40 44 51
40 44 51
40 44 50
40 44 50
40 44 50
40 44 50
40 44 50
40 44 50
40 44 50
40 44 50
40 44 50
40 44 50
40 44 50
40 44 50
40 44 50
40 44 50
40 44 50
40 44 50
40 44 50
40 44 50
40 43 49
40 43 49
39 43 49
39 43 49
39 43 49
41 45 51
41 45 51
41 45 51
41 45 51
41 45 51
41 45 51
41 45 51
41 45 52
41 45 52
41 45 52
41 45 52
41 46 52
42 46 52
42 46 52
42 46 52
42 46 52
42 46 52
42 46 52
42 46 52
42 46 52
42 46 52
42 46 52
42 46 53
42 46 53
42 46 53
42 46 53
42 46 53
42 46 53
42 47 53
42 47 53
42 47 53
43 47 53
43 47 53
43 47 53
43 47 53
43 47 53
43 47 53
43 47 53
43 47 54
43 47 54
43 47 54
43 47 54
43 47 54
43 47 54
43 47 54
43 47 54
43 47 54
43 48 54
43 48 54
43 48 54
43 48 54
43 48 54
44 48 54
44 48 54
44 48 54
44 48 54
44 48 54
36 19 29
36 19 29
57 27 43
74 33 54
89 38 63
101 43 71
112 47 78
122 50 84
130 53 90
138 56 95
144 59 99
150 61 103
155 62 106
159 64 109
162 65 111
165 66 113
166 66 113
166 66 113
165 66 113
195 93 116
178 81 111
155 64 104
143 58 98
128 52 88
94 40 67
45 49 55
45 49 56
45 49 56
45 49 56
45 49 56
45 49 56
45 49 56
45 49 56
45 49 56
45 49 56
45 49 56
45 49 56
45 49 56
45 49 56
45 49 56
45 49 56
45 49 56
45 49 56
45 49 56
45 49 56
45 49 56
45 49 56
45 49 56
45 49 56
45 49 56
45 49 56
45 49 56
45 49 56
45 49 56
45 49 56
45 49 56
45 49 56
45 49 56
45 49 56
45 49 56
45 49 56
45 49 56
45 49 56
45 49 56
45 49 56
45 49 56
45 49 56
196 181 83
212 195 87
224 205 89
233 213 92
241 220 93
246 225 95
251 229 96
255 232 97
255 235 98
255 236 98
255 237 98
255 238 98
255 238 98
255 237 98
255 236 98
255 233 97
253 231 96
249 227 95
244 222 94
237 217 92
229 209 90
218 200 88
204 188 85
180 167 79
44 48 55
44 48 55
44 48 55
44 48 55
44 48 55
44 48 54
44 48 54
44 48 54
44 48 54
44 48 54
43 48 54
43 48 54
43 48 54
43 48 54
43 48 54
43 47 54
43 47 54
43 47 54
43 47 54
43 47 54
43 47 54
43 47 54
43 47 54
43 47 53
43 47 53
43 47 53
43 47 53
43 47 53
43 47 53
43 47 53
43 47 53
42 47 53
42 47 53
42 47 53
42 46 53
42 46 53
42 46 53
42 46 53
42 46 53
42 46 52
42 46 52
42 46 52
42 46 52
42 46 52
42 46 52
42 46 52
42 46 52
42 46 52
42 46 52
42 46 52
41 46 52
41 45 52
43 47 53
43 47 53
43 47 54
43 47 54
43 47 54
43 47 54
43 47 54
43 47 54
43 48 54
43 48 54
43 48 54
43 48 54
44 48 54
44 48 54
44 48 54
44 48 55
44 48 55
44 48 55
44 48 55
44 48 55
44 48 55
44 48 55
44 48 55
44 49 55
44 49 55
44 49 55
44 49 55
44 49 55
45 49 55
45 49 56
45 49 56
45 49 56
45 49 56
45 49 56
45 49 56
45 49 56
45 49 56
45 49 56
45 49 56
45 50 56
45 50 56
45 50 56
45 50 56
45 50 57
45 50 57
45 50 57
46 50 57
46 50 57
46 50 57
46 50 57
46 50 57
46 50 57
46 50 57
46 50 57
46 50 57
46 50 57
46 50 57
36 19 29
36 19 29
57 27 43
74 33 54
88 38 63
101 43 71
112 47 78
121 50 85
130 54 90
138 56 95
144 59 100
150 61 104
155 63 107
159 65 109
162 66 112
165 67 113
166 67 114
166 67 114
165 67 113
192 91 115
176 79 111
155 64 103
143 58 99
128 53 89
95 41 68
47 51 58
47 51 58
47 52 59
47 52 59
47 52 59
47 52 59
47 52 59
47 52 59
47 52 59
47 52 59
47 52 59
47 52 59
47 52 59
47 52 59
47 52 59
47 52 59
47 52 59
47 52 59
47 52 59
47 52 59
47 52 59
47 52 59
47 52 59
47 52 59
47 52 59
47 52 59
47 52 59
47 52 59
47 52 59
47 52 59
47 52 59
47 52 59
47 52 59
47 52 59
47 52 59
47 52 59
47 52 59
47 52 59
47 52 59
47 52 59
47 52 59
186 172 81
204 188 85
216 198 88
226 207 90
234 214 92
240 219 93
245 224 95
250 228 96
253 230 97
255 233 97
255 234 98
255 235 98
255 236 98
255 236 98
255 235 98
255 234 97
254 232 97
251 229 96
247 226 95
243 222 94
237 217 93
230 211 91
221 203 89
210 193 86
195 180 83
169 157 76
46 51 58
46 51 58
46 51 57
46 51 57
46 50 57
46 50 57
46 50 57
46 50 57
46 50 57
46 50 57
46 50 57
46 50 57
46 50 57
46 50 57
46 50 57
46 50 57
45 50 57
45 50 57
45 50 56
45 50 56
45 50 56
45 50 56
45 49 56
45 49 56
45 49 56
45 49 56
45 49 56
45 49 56
45 49 56
45 49 56
45 49 56
45 49 56
45 49 56
45 49 55
44 49 55
44 49 55
44 49 55
44 49 55
44 48 55
44 48 55
44 48 55
44 48 55
44 48 55
44 48 55
44 48 55
44 48 55
44 48 55
44 48 54
44 48 54
44 48 54
43 48 54
45 49 56
45 49 56
45 49 56
45 49 56
45 49 56
45 49 56
45 50 56
45 50 56
45 50 56
45 50 57
45 50 57
46 50 57
46 50 57
46 50 57
46 50 57
46 50 57
46 50 57
46 50 57
46 50 57
46 51 57
46 51 57
46 51 58
46 51 58
46 51 58
46 51 58
46 51 58
47 51 58
47 51 58
47 51 58
47 51 58
47 51 58
47 51 58
47 51 58
47 52 58
47 52 59
47 52 59
47 52 59
47 52 59
47 52 59
47 52 59
47 52 59
48 52 59
48 52 59
48 52 59
48 52 59
48 52 59
48 52 59
48 52 60
48 53 60
48 53 60
48 53 60
48 53 60
48 53 60
48 53 60
48 53 60
48 53 60
48 53 60
48 53 60
37 20 30
56 27 43
74 33 54
88 39 63
101 43 71
112 47 79
121 51 85
130 54 91
138 57 96
144 60 100
150 62 104
155 64 107
159 65 110
162 66 112
165 67 114
166 68 114
166 68 114
165 67 114
189 89 114
173 77 110
154 63 103
143 59 99
129 53 89
97 42 69
49 54 61
50 54 61
50 54 62
50 54 62
50 54 62
50 54 62
50 54 62
50 54 62
50 54 62
50 54 62
50 54 62
50 54 62
50 54 62
50 54 62
50 54 62
50 54 62
50 54 62
50 54 62
50 54 62
50 55 62
50 55 62
50 55 62
50 55 62
50 55 62
50 55 62
50 55 62
50 55 62
50 55 62
50 55 62
50 54 62
50 54 62
50 54 62
50 54 62
50 54 62
50 54 62
50 54 62
50 54 62
50 54 62
50 54 62
50 54 62
173 161 78
193 178 82
206 190 85
217 199 88
225 206 90
232 212 92
238 217 93
243 221 94
246 225 95
250 228 96
252 230 96
254 231 97
255 232 97
255 233 98
255 233 97
254 232 97
253 230 97
251 229 96
248 226 95
245 223 95
240 220 94
235 215 92
229 210 91
221 203 89
212 195 87
200 184 84
184 170 80
113 100 28
49 53 60
49 53 60
49 53 60
48 53 60
48 53 60
48 53 60
48 53 60
48 53 60
48 53 60
48 53 60
48 53 60
48 53 60
48 53 60
48 52 60
48 52 60
48 52 59
48 52 59
48 52 59
48 52 59
48 52 59
48 52 59
47 52 59
47 52 59
47 52 59
47 52 59
47 52 59
47 52 59
47 52 59
47 51 58
47 51 58
47 51 58
47 51 58
47 51 58
47 51 58
47 51 58
47 51 58
46 51 58
46 51 58
46 51 58
46 51 58
46 51 57
46 51 57
46 50 57
46 50 57
46 50 57
46 50 57
46 50 57
46 50 57
46 50 57
46 50 57
47 51 58
47 51 58
47 51 58
47 51 58
47 52 59
47 52 59
47 52 59
47 52 59
47 52 59
47 52 59
47 52 59
48 52 59
48 52 59
48 52 59
48 52 59
48 52 60
48 53 60
48 53 60
48 53 60
48 53 60
48 53 60
48 53 60
48 53 60
48 53 60
49 53 60
49 53 60
49 53 61
49 53 61
49 54 61
49 54 61
49 54 61
49 54 61
49 54 61
49 54 61
49 54 61
49 54 61
49 54 61
50 54 62
50 54 62
50 54 62
50 54 62
50 55 62
50 55 62
50 55 62
50 55 62
50 55 62
50 55 62
50 55 62
50 55 62
50 55 63
50 55 63
50 55 63
51 55 63
51 55 63
51 55 63
51 55 63
51 56 63
51 56 63
37 20 30
56 27 43
73 34 54
88 39 63
100 43 72
111 48 79
121 51 85
130 55 91
138 57 96
144 60 101
150 62 105
155 64 108
159 66 111
163 67 113
165 68 114
166 68 115
166 68 115
165 68 114
186 87 113
171 75 109
154 63 103
143 59 99
129 54 90
98 42 70
52 57 65
52 57 65
52 57 65
52 57 65
52 57 65
52 57 65
52 57 65
52 57 65
52 57 65
52 57 65
52 57 65
52 57 65
52 57 65
52 57 65
52 57 65
52 57 65
52 57 65
52 57 65
52 57 65
52 57 65
52 57 65
52 57 65
52 57 65
52 57 65
52 57 65
52 57 65
52 57 65
52 57 65
52 57 65
52 57 65
52 57 65
52 57 65
52 57 65
52 57 65
52 57 65
52 57 65
52 57 65
52 57 65
52 57 65
155 145 74
179 166 79
194 179 83
206 189 85
215 197 88
222 204 89
229 209 91
234 214 92
239 218 93
242 221 94
245 224 95
247 226 95
251 229 97
255 239 107
255 249 116
255 240 107
252 230 98
248 227 96
246 225 95
244 223 94
241 220 94
237 216 93
232 212 92
226 207 90
219 201 89
211 194 87
201 185 84
187 173 81
168 157 77
51 56 63
51 56 63
51 56 63
51 56 63
51 56 63
51 56 63
51 56 63
51 55 63
51 55 63
51 55 63
51 55 63
50 55 63
50 55 63
50 55 62
50 55 62
50 55 62
50 55 62
50 55 62
50 55 62
50 55 62
50 55 62
50 54 62
50 54 62
50 54 62
50 54 62
49 54 61
49 54 61
49 54 61
49 54 61
49 54 61
49 54 61
49 54 61
49 54 61
49 54 61
49 53 61
49 53 61
49 53 61
49 53 60
49 53 60
48 53 60
48 53 60
48 53 60
48 53 60
48 53 60
48 53 60
48 53 60
48 52 60
48 52 59
48 52 59
48 52 59
49 53 61
49 53 61
49 53 61
49 54 61
49 54 61
49 54 61
49 54 61
49 54 61
49 54 61
49 54 61
50 54 62
50 54 62
50 54 62
50 55 62
50 55 62
50 55 62
50 55 62
50 55 62
50 55 62
50 55 62
50 55 63
50 55 63
51 55 63
51 55 63
51 56 63
51 56 63
51 56 63
51 56 63
51 56 63
51 56 63
51 56 64
51 56 64
51 56 64
51 56 64
52 56 64
52 56 64
52 57 64
52 57 64
52 57 64
52 57 64
52 57 65
52 57 65
52 57 65
52 57 65
52 57 65
52 57 65
52 57 65
53 57 65
53 58 65
53 58 65
53 58 65
53 58 66
53 58 66
53 58 66
53 58 66
53 58 66
53 58 66
53 58 66
37 21 31
56 27 43
73 34 54
88 39 64
100 44 72
111 48 79
121 52 86
130 55 91
138 58 97
144 61 101
150 63 105
155 65 109
160 67 111
163 68 114
165 69 115
167 69 116
166 88 139
166 88 138
164 86 134
159 83 131
153 63 102
144 60 100
129 54 90
99 43 71
55 60 68
55 60 68
55 60 68
55 60 68
55 60 68
55 60 68
55 60 68
55 60 68
55 60 68
55 60 68
55 60 68
55 60 68
55 60 68
55 60 68
55 60 68
55 60 68
55 60 68
55 60 68
55 60 68
55 60 68
55 60 68
55 60 68
55 60 68
55 60 68
55 60 68
55 60 68
55 60 68
55 60 68
55 60 68
55 60 68
55 60 68
55 60 68
55 60 68
55 60 68
55 60 68
55 60 68
55 60 68
55 60 68
92 83 27
162 151 75
180 167 80
193 178 83
203 187 85
211 194 87
218 200 88
224 206 90
229 210 91
233 214 92
237 217 93
240 219 93
243 222 95
255 236 107
255 255 165
255 255 220
255 255 169
255 238 109
244 223 95
241 220 94
239 218 93
236 215 92
232 212 92
227 208 91
222 203 89
216 198 88
208 191 86
199 183 84
187 173 81
172 160 78
147 138 72
54 59 66
53 58 66
53 58 66
53 58 66
53 58 66
53 58 66
53 58 66
53 58 66
53 58 66
53 58 66
53 58 66
53 58 65
53 58 65
53 58 65
53 58 65
53 57 65
52 57 65
52 57 65
52 57 65
52 57 65
52 57 65
52 57 65
52 57 65
52 57 64
52 57 64
52 57 64
52 57 64
52 56 64
52 56 64
51 56 64
51 56 64
51 56 64
51 56 64
51 56 63
51 56 63
51 56 63
51 56 63
51 56 63
51 55 63
51 55 63
51 55 63
50 55 63
50 55 63
50 55 62
50 55 62
50 55 62
50 55 62
50 55 62
50 55 62
51 55 63
51 56 63
51 56 63
51 56 63
51 56 63
51 56 63
51 56 64
51 56 64
51 56 64
51 56 64
52 56 64
52 57 64
52 57 64
52 57 64
52 57 64
52 57 65
52 57 65
52 57 65
52 57 65
52 57 65
53 57 65
53 58 65
53 58 65
53 58 65
53 58 66
53 58 66
53 58 66
53 58 66
53 58 66
53 58 66
53 58 66
54 59 66
54 59 66
54 59 67
54 59 67
54 59 67
54 59 67
54 59 67
54 59 67
54 59 67
54 59 67
54 59 67
54 60 68
55 60 68
55 60 68
55 60 68
55 60 68
55 60 68
55 60 68
55 60 68
55 60 68
55 60 68
55 60 69
55 61 69
55 61 69
56 61 69
56 61 69
56 61 69
38 21 31
55 28 43
73 34 54
88 39 64
100 44 72
111 48 79
121 52 86
130 56 92
138 59 97
144 61 102
151 64 106
156 66 109
160 68 112
163 69 114
166 70 116
155 61 106
156 61 107
165 86 136
162 85 135
158 83 130
152 63 102
144 60 100
130 55 91
100 44 72
57 62 71
57 62 71
57 62 71
57 63 71
57 63 71
57 63 71
57 63 71
57 63 71
57 63 71
57 63 71
57 63 71
57 63 71
58 63 71
58 63 71
58 63 71
58 63 71
58 63 71
58 63 71
58 63 71
58 63 71
58 63 71
58 63 71
58 63 71
58 63 71
58 63 71
58 63 71
58 63 71
58 63 71
58 63 71
58 63 71
58 63 71
58 63 71
58 63 71
58 63 71
58 63 71
58 63 71
58 63 71
58 63 71
141 133 71
163 152 76
178 165 79
190 175 82
199 183 84
207 190 86
213 196 87
219 201 89
224 205 90
228 208 91
231 211 91
234 214 92
237 216 93
254 233 108
255 255 172
255 255 230
255 255 176
255 235 111
238 217 94
235 215 92
233 213 92
230 210 91
226 207 90
222 203 89
217 199 88
211 194 87
204 188 85
195 180 83
185 171 81
172 160 78
153 144 73
56 61 69
56 61 69
56 61 69
56 61 69
56 61 69
56 61 69
56 61 69
56 61 69
55 61 69
55 61 69
55 60 69
55 60 68
55 60 68
55 60 68
55 60 68
55 60 68
55 60 68
55 60 68
55 60 68
55 60 68
55 60 68
54 60 67
54 59 67
54 59 67
54 59 67
54 59 67
54 59 67
54 59 67
54 59 67
54 59 67
54 59 67
54 59 66
53 58 66
53 58 66
53 58 66
53 58 66
53 58 66
53 58 66
53 58 66
53 58 66
53 58 65
53 58 65
53 57 65
52 57 65
52 57 65
52 57 65
52 57 65
52 57 65
52 57 65
53 58 65
53 58 65
53 58 66
53 58 66
53 58 66
53 58 66
53 58 66
53 58 66
53 58 66
54 59 66
54 59 66
54 59 67
54 59 67
54 59 67
54 59 67
54 59 67
54 59 67
54 59 67
54 60 67
55 60 68
55 60 68
55 60 68
55 60 68
55 60 68
55 60 68
55 60 68
55 60 68
55 60 69
55 61 69
56 61 69
56 61 69
56 61 69
56 61 69
56 61 69
56 61 69
56 61 70
56 61 70
56 62 70
56 62 70
57 62 70
57 62 70
57 62 70
57 62 70
57 62 70
57 62 71
57 62 71
57 62 71
57 63 71
57 63 71
57 63 71
58 63 71
58 63 71
58 63 71
58 63 72
58 63 72
58 63 72
58 63 72
58 63 72
38 22 32
55 28 43
73 34 54
87 40 64
100 45 72
111 49 80
121 53 86
130 56 92
138 59 97
145 62 102
151 65 106
156 67 110
160 68 113
164 70 115
166 71 117
155 60 106
155 61 106
154 60 106
152 59 104
150 58 102
144 56 98
144 61 101
130 55 92
101 45 73
60 65 74
60 65 74
60 65 74
60 65 74
66 173 204
66 173 204
66 173 204
66 173 204
66 174 205
67 174 205
67 174 205
67 174 205
67 174 206
67 175 206
67 175 206
67 175 206
67 175 207
67 175 207
67 175 207
67 176 207
67 176 207
67 176 208
67 176 208
67 176 208
67 176 208
67 176 208
67 177 208
60 66 75
60 66 75
60 66 75
60 66 75
60 66 75
60 66 75
60 66 75
60 66 74
60 66 74
60 66 74
60 66 74
143 135 71
161 151 75
174 162 78
185 171 81
194 179 83
201 185 84
207 191 86
213 195 87
217 199 88
221 203 89
224 205 90
227 208 90
229 210 91
234 214 95
250 230 109
255 244 123
252 232 111
235 216 95
230 211 91
228 209 91
226 207 90
223 204 89
220 202 89
216 198 88
211 194 87
205 189 85
199 183 84
191 176 82
181 168 80
169 158 77
154 144 74
127 121 68
59 64 72
58 64 72
58 64 72
58 64 72
58 64 72
58 64 72
58 63 72
58 63 72
58 63 72
58 63 72
58 63 71
58 63 71
58 63 71
57 63 71
57 63 71
57 63 71
57 63 71
57 62 71
57 62 71
57 62 71
57 62 70
57 62 70
57 62 70
57 62 70
56 62 70
56 62 70
56 62 70
56 61 70
56 61 69
56 61 69
56 61 69
56 61 69
56 61 69
56 61 69
56 61 69
55 61 69
55 60 69
55 60 68
55 60 68
55 60 68
55 60 68
55 60 68
55 60 68
55 60 68
55 60 68
54 59 67
54 59 67
54 59 67
55 60 68
55 60 68
55 60 68
55 60 68
55 60 68
55 60 68
55 60 68
55 60 69
55 61 69
56 61 69
56 61 69
56 61 69
56 61 69
56 61 69
56 61 70
56 61 70
56 62 70
56 62 70
57 62 70
57 62 70
57 62 70
57 62 70
57 62 71
57 62 71
57 63 71
57 63 71
57 63 71
58 63 71
58 63 71
58 63 71
58 63 72
58 63 72
58 63 72
58 64 72
58 64 72
58 64 72
59 64 72
59 64 73
59 64 73
59 64 73
59 64 73
59 64 73
59 65 73
59 65 73
59 65 73
59 65 73
60 65 74
60 65 74
60 65 74
60 65 74
60 65 74
60 65 74
60 66 74
60 66 74
60 66 75
60 66 75
60 66 75
61 66 75
39 22 32
55 28 43
72 35 54
87 40 64
100 45 73
111 49 80
121 53 87
130 57 93
138 60 98
145 63 103
151 65 107
156 68 111
161 69 114
164 71 116
166 72 118
154 60 106
154 60 106
154 60 105
152 59 104
149 58 102
143 56 98
144 61 102
130 56 92
102 45 74
62 68 77
62 68 77
68 178 210
68 178 210
68 179 211
68 179 211
68 179 211
68 179 212
68 180 212
69 180 212
69 180 212
69 180 213
69 181 213
69 181 213
69 181 213
69 181 214
69 181 214
69 182 214
69 182 214
69 182 214
69 182 215
69 182 215
69 182 215
69 182 215
69 183 215
69 183 215
69 183 216
63 69 78
63 69 78
63 69 78
63 69 78
63 69 78
63 69 78
63 69 78
63 69 78
63 69 78
63 69 78
115 110 65
141 133 71
157 147 74
169 158 77
179 166 79
188 174 81
195 180 83
201 185 84
206 189 85
210 193 86
214 196 87
217 199 88
219 201 88
221 203 89
223 204 89
225 206 90
226 207 91
225 206 90
224 205 90
222 204 89
221 202 89
219 201 88
216 198 88
213 195 87
209 192 86
204 188 85
199 183 84
192 178 82
185 171 81
176 164 79
165 154 76
151 142 73
130 124 68
61 67 76
61 67 75
61 66 75
61 66 75
61 66 75
61 66 75
61 66 75
61 66 75
60 66 75
60 66 75
60 66 74
60 66 74
60 66 74
60 65 74
60 65 74
60 65 74
60 65 74
60 65 74
59 65 74
59 65 73
59 65 73
59 65 73
59 65 73
59 64 73
59 64 73
59 64 73
59 64 73
59 64 72
58 64 72
58 64 72
58 64 72
58 64 72
58 63 72
58 63 72
58 63 72
58 63 71
58 63 71
58 63 71
57 63 71
57 63 71
57 62 71
57 62 71
57 62 71
57 62 70
57 62 70
57 62 70
57 62 70
56 62 70
57 62 70
57 62 70
57 62 70
57 62 70
57 62 71
57 62 71
57 63 71
57 63 71
57 63 71
58 63 71
58 63 71
58 63 72
58 63 72
58 63 72
58 64 72
58 64 72
58 64 72
59 64 72
59 64 73
59 64 73
59 64 73
59 64 73
59 65 73
59 65 73
59 65 73
60 65 74
60 65 74
60 65 74
60 65 74
60 65 74
60 66 74
60 66 74
60 66 75
60 66 75
61 66 75
61 66 75
61 66 75
61 66 75
61 67 75
61 67 76
61 67 76
61 67 76
61 67 76
62 67 76
62 67 76
62 67 76
62 67 76
62 68 77
62 68 77
62 68 77
62 68 77
62 68 77
62 68 77
63 68 77
63 68 77
63 68 78
63 69 78
63 69 78
39 23 33
54 28 43
72 35 55
87 40 64
100 45 73
111 50 80
121 53 87
130 57 93
138 60 98
145 63 103
151 66 108
157 68 112
161 70 115
164 72 117
167 73 119
153 60 105
154 60 105
153 60 105
151 59 104
149 58 102
143 55 98
145 62 102
131 56 93
103 46 75
65 71 80
40 109 130
40 109 130
40 110 130
40 110 130
40 110 130
40 110 131
40 110 131
41 110 131
41 111 131
41 111 131
41 111 131
41 111 132
41 111 132
41 111 132
41 111 132
41 111 132
41 112 132
41 112 132
41 112 133
41 112 133
41 112 133
41 112 133
41 112 133
41 112 133
41 112 133
71 188 222
71 188 222
66 72 81
66 72 81
66 72 81
66 72 81
66 72 81
66 72 81
66 72 81
66 72 81
66 71 81
116 111 65
137 130 70
152 143 73
163 153 76
173 161 78
181 168 80
187 173 81
193 178 82
198 183 83
202 186 84
206 190 85
209 192 86
211 194 86
213 196 87
215 197 87
215 198 87
216 198 87
216 198 87
215 198 87
214 197 87
213 195 87
211 194 86
208 191 86
205 189 85
201 185 84
197 182 83
192 177 82
186 172 81
178 166 79
170 158 77
160 149 75
147 138 72
129 122 68
64 69 79
64 69 79
63 69 78
63 69 78
63 69 78
63 69 78
63 69 78
63 69 78
63 69 78
63 69 78
63 68 78
63 68 77
63 68 77
62 68 77
62 68 77
62 68 77
62 68 77
62 68 77
62 68 77
62 67 76
62 67 76
62 67 76
62 67 76
61 67 76
61 67 76
61 67 76
61 67 75
61 67 75
61 66 75
61 66 75
61 66 75
61 66 75
60 66 75
60 66 75
60 66 74
60 66 74
60 65 74
60 65 74
60 65 74
60 65 74
59 65 74
59 65 73
59 65 73
59 65 73
59 64 73
59 64 73
59 64 73
59 64 73
59 64 72
59 64 73
59 64 73
59 64 73
59 64 73
59 65 73
59 65 73
59 65 73
60 65 74
60 65 74
60 65 74
60 65 74
60 66 74
60 66 74
60 66 75
60 66 75
61 66 75
61 66 75
61 66 75
61 66 75
61 67 75
61 67 76
61 67 76
61 67 76
62 67 76
62 67 76
62 67 76
62 68 77
62 68 77
62 68 77
62 68 77
62 68 77
63 68 77
63 68 77
63 68 78
63 69 78
63 69 78
63 69 78
63 69 78
63 69 78
63 69 78
64 69 79
64 70 79
64 70 79
64 70 79
64 70 79
64 70 79
64 70 79
64 70 80
65 70 80
65 71 80
65 71 80
65 71 80
65 71 80
65 71 80
65 71 80
65 71 81
65 71 81
40 23 33
54 28 43
72 35 55
87 41 64
100 46 73
111 50 80
121 54 87
130 58 93
138 61 99
145 64 104
151 67 108
157 69 112
161 71 115
165 73 118
167 74 120
153 60 105
153 60 105
152 60 105
150 59 103
148 58 101
142 55 97
145 62 103
131 57 93
104 47 75
67 74 83
40 109 129
40 109 130
40 110 130
40 110 130
41 110 130
41 110 130
41 110 131
41 110 131
41 110 131
41 111 131
41 111 131
41 111 131
41 111 132
41 111 132
41 111 132
41 111 132
41 112 132
41 112 132
41 112 132
41 112 133
41 112 133
41 112 133
41 112 133
41 112 133
41 112 133
41 112 133
41 112 133
68 74 84
68 74 84
68 74 84
68 74 84
68 74 84
68 74 84
68 74 84
68 74 84
68 74 84
112 108 65
132 125 69
109 102 33
143 116 46
165 128 56
173 161 78
180 167 79
185 171 80
190 176 81
194 179 82
198 182 83
201 185 84
203 187 84
205 188 85
206 190 85
207 190 85
207 191 85
207 191 85
207 190 85
206 189 85
204 188 85
202 186 84
200 184 84
197 182 83
193 178 82
189 175 81
184 170 80
178 165 79
171 159 77
163 152 76
153 144 73
141 133 71
125 119 67
64 59 25
66 72 82
66 72 82
66 72 81
66 72 81
66 72 81
66 72 81
66 71 81
65 71 81
65 71 81
65 71 81
65 71 80
65 71 80
65 71 80
65 71 80
65 71 80
65 70 80
65 70 80
64 70 80
64 70 79
64 70 79
64 70 79
64 70 79
64 70 79
64 69 79
64 69 79
63 69 78
63 69 78
63 69 78
63 69 78
63 69 78
63 69 78
63 68 78
63 68 77
62 68 77
62 68 77
62 68 77
62 68 77
62 68 77
62 68 76
62 67 76
62 67 76
61 67 76
61 67 76
61 67 76
61 67 76
61 67 75
61 66 75
60 66 75
61 66 75
61 66 75
61 66 75
61 67 75
61 67 76
61 67 76
61 67 76
62 67 76
62 67 76
62 67 76
62 68 77
62 68 77
62 68 77
62 68 77
62 68 77
63 68 77
63 68 77
63 69 78
63 69 78
63 69 78
63 69 78
63 69 78
64 69 78
64 69 79
64 70 79
64 70 79
64 70 79
64 70 79
64 70 79
64 70 80
65 70 80
65 71 80
65 71 80
65 71 80
65 71 80
65 71 81
65 71 81
66 71 81
66 72 81
66 72 81
66 72 81
66 72 81
66 72 82
66 72 82
66 72 82
67 73 82
67 73 82
67 73 82
67 73 83
67 73 83
67 73 83
67 73 83
67 73 83
67 74 83
68 74 83
68 74 84
68 74 84
40 23 34
54 29 43
72 35 55
87 41 65
99 46 73
111 50 81
121 54 87
130 58 94
138 61 99
145 65 104
151 67 109
157 70 113
162 72 116
165 74 119
168 75 120
152 60 104
152 60 105
152 60 104
150 59 103
148 57 101
142 55 97
145 63 103
131 57 94
105 47 76
70 76 86
40 109 129
41 109 130
41 109 130
41 110 130
41 110 130
41 110 130
41 110 130
41 110 131
41 110 131
41 111 131
41 111 131
41 111 131
41 111 131
41 111 132
41 111 132
41 111 132
41 111 132
41 112 132
41 112 132
42 112 132
42 112 133
42 112 133
42 112 133
42 112 133
42 112 133
42 112 133
42 112 133
71 77 88
71 77 88
71 77 88
71 77 88
71 77 87
71 77 87
71 77 87
71 77 87
71 77 87
75 68 23
125 119 67
102 96 32
113 106 34
122 114 36
131 121 38
171 159 77
177 164 78
181 168 79
185 172 80
189 175 81
192 177 82
194 179 82
196 181 83
197 182 83
198 183 83
198 183 83
198 183 83
198 183 83
197 182 83
196 180 83
194 179 82
191 177 82
188 174 81
185 171 80
180 167 79
176 163 78
170 158 77
163 152 76
155 146 74
146 137 72
134 127 69
119 114 66
64 59 25
69 75 85
69 75 85
69 75 85
68 75 84
68 74 84
68 74 84
68 74 84
68 74 84
68 74 84
68 74 84
68 74 83
68 74 83
67 74 83
67 73 83
67 73 83
67 73 83
67 73 83
67 73 82
67 73 82
67 73 82
66 72 82
66 72 82
66 72 82
66 72 82
66 72 81
66 72 81
66 72 81
66 72 81
65 71 81
65 71 81
65 71 81
65 71 80
65 71 80
65 71 80
65 71 80
65 70 80
64 70 80
64 70 79
64 70 79
64 70 79
64 70 79
64 70 79
64 69 79
63 69 78
63 69 78
63 69 78
63 69 78
62 68 77
63 68 77
63 68 77
63 69 78
63 69 78
63 69 78
63 69 78
63 69 78
64 69 78
64 69 79
64 70 79
64 70 79
64 70 79
64 70 79
64 70 79
65 70 80
65 71 80
65 71 80
65 71 80
65 71 80
65 71 81
65 71 81
66 71 81
66 72 81
66 72 81
66 72 81
66 72 82
66 72 82
66 72 82
67 72 82
67 73 82
67 73 82
67 73 83
67 73 83
67 73 83
67 73 83
67 74 83
68 74 83
68 74 84
68 74 84
68 74 84
68 74 84
68 74 84
68 75 84
69 75 85
69 75 85
69 75 85
69 75 85
69 75 85
69 75 85
69 76 85
69 76 86
70 76 86
70 76 86
70 76 86
70 76 86
70 76 86
70 76 87
40 24 35
53 29 43
71 35 55
86 41 65
99 46 73
110 51 81
121 55 88
130 58 94
138 62 100
145 65 105
151 68 109
157 71 113
162 73 117
165 74 119
168 75 121
151 59 104
152 60 104
151 59 104
149 59 103
147 57 101
141 55 97
145 63 103
132 58 94
106 48 77
73 79 89
41 109 129
41 109 129
41 109 130
41 109 130
41 110 130
41 110 130
41 110 130
41 110 131
41 110 131
41 110 131
41 111 131
41 111 131
41 111 131
41 111 132
42 111 132
42 111 132
42 111 132
42 111 132
42 112 132
42 112 132
42 112 132
42 112 133
42 112 133
42 112 133
42 112 133
42 112 133
42 112 133
74 80 91
74 80 91
74 80 91
74 80 91
74 80 91
74 80 91
74 80 91
74 80 91
43 41 25
73 67 28
86 77 26
94 89 30
105 99 32
114 106 34
122 113 36
128 119 40
133 124 41
172 160 77
176 164 78
180 167 79
182 169 79
185 171 80
187 173 80
188 174 81
189 174 81
189 175 81
189 175 81
189 174 81
188 174 81
186 172 80
184 171 80
182 169 79
179 166 79
176 163 78
172 160 77
167 155 76
161 151 75
155 145 73
147 138 72
138 130 70
127 120 67
79 71 24
61 56 26
71 78 88
71 78 88
71 77 88
71 77 87
71 77 87
71 77 87
71 77 87
71 77 87
70 77 87
70 77 87
70 76 86
70 76 86
70 76 86
70 76 86
70 76 86
70 76 86
69 76 86
69 76 85
69 75 85
69 75 85
69 75 85
69 75 85
69 75 85
69 75 85
68 75 84
68 74 84
68 74 84
68 74 84
68 74 84
68 74 84
68 74 83
67 74 83
67 73 83
67 73 83
67 73 83
67 73 83
67 73 82
67 73 82
66 72 82
66 72 82
66 72 82
66 72 81
66 72 81
66 72 81
66 72 81
65 71 81
65 71 81
64 70 79
64 70 80
65 70 80
65 71 80
65 71 80
65 71 80
65 71 80
65 71 81
65 71 81
66 72 81
66 72 81
66 72 81
66 72 82
66 72 82
66 72 82
67 73 82
67 73 82
67 73 82
67 73 83
67 73 83
67 73 83
67 74 83
68 74 83
68 74 84
68 74 84
68 74 84
68 74 84
68 74 84
68 75 84
69 75 85
69 75 85
69 75 85
69 75 85
69 75 85
69 76 86
70 76 86
70 76 86
70 76 86
70 76 86
70 76 86
70 77 87
70 77 87
71 77 87
71 77 87
71 77 87
71 77 87
71 77 88
71 78 88
71 78 88
72 78 88
72 78 88
72 78 88
72 78 89
72 78 89
72 79 89
72 79 89
72 79 89
73 79 89
41 24 35
53 29 43
71 36 55
86 41 65
99 46 73
110 51 81
120 55 88
129 59 94
138 62 100
145 66 105
151 68 110
157 71 114
162 73 117
165 75 120
168 76 121
151 59 104
151 59 104
151 59 103
149 58 102
146 57 100
141 55 96
145 64 104
132 58 95
107 49 78
75 82 93
41 109 129
41 109 129
41 109 129
41 109 130
41 110 130
41 110 130
41 110 130
41 110 130
41 110 131
41 110 131
41 110 131
42 111 131
42 111 131
42 111 131
42 111 131
42 111 132
42 111 132
42 111 132
42 111 132
42 112 132
42 112 132
42 112 132
42 112 132
42 112 133
42 112 133
42 112 133
42 112 133
76 83 94
76 83 94
76 83 94
76 83 94
76 83 94
76 83 94
76 83 94
76 83 94
39 39 25
69 64 30
84 77 32
85 81 28
95 90 30
105 99 32
113 105 34
119 111 38
124 116 39
163 152 75
167 155 76
170 158 76
173 161 77
175 163 77
177 164 78
178 165 78
179 166 78
179 166 78
179 166 78
179 166 78
178 165 78
177 164 78
175 162 77
173 160 77
170 158 76
166 155 76
162 151 75
158 147 74
152 143 73
146 137 71
138 131 70
95 85 26
88 79 28
77 70 29
56 52 27
74 80 91
74 80 91
74 80 91
73 80 91
73 80 90
73 80 90
73 80 90
73 80 90
73 79 90
73 79 90
73 79 90
73 79 89
72 79 89
72 79 89
72 79 89
72 78 89
72 78 89
72 78 88
72 78 88
71 78 88
71 78 88
71 78 88
71 77 88
71 77 87
71 77 87
71 77 87
71 77 87
70 77 87
70 77 87
70 76 86
70 76 86
70 76 86
70 76 86
69 76 86
69 76 85
69 75 85
69 75 85
69 75 85
69 75 85
69 75 85
68 75 84
68 74 84
68 74 84
68 74 84
68 74 84
68 74 84
68 74 83
66 72 82
66 72 82
66 72 82
67 73 82
67 73 82
67 73 83
67 73 83
67 73 83
67 73 83
68 74 83
68 74 84
68 74 84
68 74 84
68 74 84
68 75 84
69 75 85
69 75 85
69 75 85
69 75 85
69 75 85
69 76 85
69 76 86
70 76 86
70 76 86
70 76 86
70 76 86
70 77 87
70 77 87
71 77 87
71 77 87
71 77 87
71 77 88
71 78 88
71 78 88
72 78 88
72 78 88
72 78 89
72 78 89
72 79 89
72 79 89
72 79 89
73 79 89
73 79 90
73 79 90
73 80 90
73 80 90
73 80 90
73 80 91
74 80 91
74 80 91
74 80 91
74 81 91
74 81 91
74 81 92
74 81 92
75 81 92
75 81 92
75 82 92
41 25 36
52 29 43
71 36 55
86 42 65
99 47 74
110 51 81
120 55 88
129 59 94
137 63 100
145 66 105
151 69 110
157 71 114
162 74 117
165 75 120
168 76 122
150 59 103
151 59 103
150 59 103
148 58 102
146 57 100
140 55 96
145 64 104
132 59 95
107 49 79
78 85 96
41 109 129
41 109 129
41 109 129
41 109 129
41 109 130
41 110 130
41 110 130
41 110 130
42 110 130
42 110 131
42 110 131
42 110 131
42 111 131
42 111 131
42 111 131
42 111 131
42 111 132
42 111 132
42 111 132
42 111 132
42 111 132
42 112 132
42 112 132
42 112 132
42 112 132
42 112 133
42 112 133
79 86 97
79 86 97
79 86 97
79 86 97
79 86 97
79 86 97
79 86 97
79 86 97
40 40 27
62 59 32
79 73 35
76 74 26
86 82 28
95 90 30
103 96 32
108 101 34
113 106 35
126 113 39
128 114 37
130 115 36
131 116 35
132 117 33
132 117 32
168 157 76
169 157 76
169 158 76
169 158 76
169 157 76
168 156 76
167 155 75
165 154 75
163 152 75
160 149 74
123 109 31
120 107 32
117 104 33
113 101 34
109 98 34
103 93 35
95 86 34
85 78 33
71 66 31
48 46 27
76 83 94
76 83 94
76 83 94
76 83 94
76 83 93
76 82 93
76 82 93
76 82 93
75 82 93
75 82 93
75 82 92
75 82 92
75 82 92
75 81 92
75 81 92
74 81 92
74 81 92
74 81 91
74 81 91
74 80 91
74 80 91
74 80 91
73 80 90
73 80 90
73 80 90
73 80 90
73 79 90
73 79 90
73 79 89
72 79 89
72 79 89
72 79 89
72 78 89
72 78 88
72 78 88
71 78 88
71 78 88
71 78 88
71 77 88
71 77 87
71 77 87
71 77 87
70 77 87
70 77 87
70 76 86
70 76 86
70 76 86
68 74 84
68 74 84
68 74 84
69 75 84
69 75 85
69 75 85
69 75 85
69 75 85
69 76 85
69 76 86
70 76 86
70 76 86
70 76 86
70 76 86
70 77 87
70 77 87
71 77 87
71 77 87
71 77 87
71 78 88
71 78 88
72 78 88
72 78 88
72 78 89
72 78 89
72 79 89
72 79 89
72 79 89
73 79 90
73 79 90
73 79 90
73 80 90
73 80 90
73 80 91
74 80 91
74 80 91
74 81 91
74 81 91
74 81 91
74 81 92
75 81 92
75 81 92
75 82 92
75 82 92
75 82 93
75 82 93
76 82 93
76 82 93
76 83 93
76 83 94
76 83 94
76 83 94
76 83 94
77 83 94
77 84 94
77 84 95
77 84 95
77 84 95
42 25 36
52 29 43
71 36 55
86 42 65
99 47 74
110 51 81
120 56 88
129 59 94
137 63 100
144 66 105
151 69 110
157 72 114
161 74 117
165 75 120
167 76 122
149 59 103
150 59 103
149 59 103
148 58 101
145 57 99
140 54 96
146 65 105
132 59 96
108 50 79
80 87 99
41 109 129
41 109 129
41 109 129
41 109 129
41 109 129
41 109 130
42 110 130
42 110 130
42 110 130
42 110 130
42 110 130
42 110 131
42 110 131
42 111 131
42 111 131
42 111 131
42 111 131
42 111 131
42 111 132
42 111 132
42 111 132
42 111 132
42 111 132
42 112 132
42 112 132
42 112 132
42 112 132
81 89 100
81 89 100
81 89 100
81 89 100
81 89 100
81 89 100
81 89 100
81 89 100
81 89 100
53 51 31
56 50 17
67 65 24
77 74 26
85 81 28
92 87 29
99 94 32
104 98 34
127 116 49
131 119 50
134 122 51
137 125 51
139 126 52
141 128 52
142 129 52
142 129 52
142 129 51
142 128 51
141 128 50
140 127 50
138 125 49
136 123 48
134 121 48
131 119 47
127 116 46
123 112 45
119 108 44
113 103 43
107 98 42
99 91 40
90 83 38
79 73 35
64 60 32
41 40 27
79 86 97
79 86 97
79 86 97
78 85 97
78 85 96
78 85 96
78 85 96
78 85 96
78 85 96
78 85 96
78 84 95
77 84 95
77 84 95
77 84 95
77 84 95
77 84 95
77 84 94
77 83 94
76 83 94
76 83 94
76 83 94
76 83 94
76 83 93
76 82 93
76 82 93
75 82 93
75 82 93
75 82 92
75 82 92
75 81 92
75 81 92
74 81 92
74 81 91
74 81 91
74 81 91
74 80 91
74 80 91
73 80 90
73 80 90
73 80 90
73 79 90
73 79 90
73 79 89
72 79 89
72 79 89
72 79 89
72 78 89
70 76 86
70 76 86
70 76 87
70 77 87
71 77 87
71 77 87
71 77 87
71 77 88
71 78 88
71 78 88
72 78 88
72 78 88
72 78 89
72 79 89
72 79 89
72 79 89
73 79 89
73 79 90
73 79 90
73 80 90
73 80 90
73 80 90
74 80 91
74 80 91
74 81 91
74 81 91
74 81 92
75 81 92
75 81 92
75 82 92
75 82 92
75 82 93
75 82 93
76 82 93
76 82 93
76 83 93
76 83 94
76 83 94
76 83 94
77 83 94
77 84 94
77 84 95
77 84 95
77 84 95
77 84 95
78 84 95
78 85 96
78 85 96
78 85 96
78 85 96
78 85 96
79 85 97
79 86 97
79 86 97
79 86 97
79 86 97
79 86 98
79 86 98
42 26 36
52 29 43
70 36 55
85 42 65
98 47 74
110 52 81
120 56 88
129 59 94
137 63 100
144 66 105
151 69 110
156 72 114
161 74 117
164 75 120
167 76 121
149 59 102
149 59 103
149 59 102
147 58 101
145 56 99
139 54 95
146 65 105
133 60 96
109 50 80
83 90 101
41 108 128
41 109 129
41 109 129
41 109 129
42 109 129
42 109 129
42 109 130
42 110 130
42 110 130
42 110 130
42 110 130
42 110 130
42 110 131
42 110 131
42 110 131
42 111 131
42 111 131
42 111 131
42 111 131
42 111 131
42 111 132
42 111 132
42 111 132
42 111 132
42 111 132
43 111 132
43 112 132
84 91 103
84 91 103
84 91 103
84 91 103
84 91 103
84 91 103
84 91 103
84 91 103
84 91 103
44 43 30
61 59 35
56 56 22
67 65 24
75 72 26
83 80 29
89 85 31
95 90 32
119 110 50
124 114 51
127 117 52
130 120 53
133 122 54
135 124 55
136 125 55
137 126 56
138 126 56
138 126 56
137 125 55
136 124 55
134 123 54
132 121 53
129 118 52
126 115 51
122 112 50
118 108 48
113 103 47
107 98 45
100 92 43
92 85 41
82 77 38
70 66 36
54 52 32
41 40 28
81 88 100
81 88 100
81 88 100
81 88 100
81 88 99
81 88 99
81 88 99
80 87 99
80 87 99
80 87 99
80 87 98
80 87 98
80 87 98
80 87 98
79 86 98
79 86 97
79 86 97
79 86 97
79 86 97
79 86 97
78 85 97
78 85 96
78 85 96
78 85 96
78 85 96
78 85 96
78 84 95
77 84 95
77 84 95
77 84 95
77 84 95
77 83 94
77 83 94
76 83 94
76 83 94
76 83 94
76 83 93
76 82 93
76 82 93
75 82 93
75 82 93
75 82 92
75 81 92
75 81 92
74 81 92
74 81 92
74 81 91
72 78 88
72 78 88
72 78 89
72 79 89
72 79 89
73 79 89
73 79 90
73 79 90
73 80 90
73 80 90
73 80 90
74 80 91
74 80 91
74 81 91
74 81 91
74 81 92
75 81 92
75 81 92
75 82 92
75 82 92
75 82 93
75 82 93
76 82 93
76 83 93
76 83 94
76 83 94
76 83 94
77 83 94
77 83 94
77 84 95
77 84 95
77 84 95
77 84 95
78 84 95
78 85 96
78 85 96
78 85 96
78 85 96
78 85 97
79 86 97
79 86 97
79 86 97
79 86 97
79 86 98
80 87 98
80 87 98
80 87 98
80 87 98
80 87 99
80 87 99
81 88 99
81 88 99
81 88 99
81 88 100
81 88 100
81 88 100
81 89 100
82 89 100
42 26 37
51 29 43
70 36 55
85 42 65
98 47 74
109 52 81
119 56 88
128 60 94
136 63 100
144 66 105
150 69 110
156 72 114
160 74 117
164 75 119
166 76 121
148 58 102
149 59 102
148 58 102
146 58 101
144 56 99
139 54 95
146 65 105
133 60 96
110 51 81
85 92 104
41 108 128
41 108 128
41 109 129
42 109 129
42 109 129
42 109 129
42 109 129
42 109 129
42 109 130
42 110 130
42 110 130
42 110 130
42 110 130
42 110 130
42 110 131
42 110 131
42 110 131
42 111 131
42 111 131
42 111 131
42 111 131
42 111 131
42 111 131
43 111 132
43 111 132
43 111 132
43 111 132
86 94 106
86 94 106
86 94 106
86 94 106
86 94 106
86 94 106
86 94 106
86 94 106
86 94 106
44 44 31
50 49 33
45 46 20
55 55 22
64 63 24
73 71 27
79 76 28
84 81 30
110 101 48
114 105 50
117 108 51
120 111 51
123 113 52
125 115 53
126 116 53
127 117 54
128 117 54
128 117 54
127 117 53
126 116 53
125 115 52
122 113 52
120 110 51
117 108 50
113 104 49
109 100 47
103 96 46
97 90 44
90 84 42
82 77 40
72 68 38
60 57 34
44 43 30
84 91 103
84 91 103
84 91 103
83 91 103
83 91 102
83 91 102
83 90 102
83 90 102
83 90 102
83 90 102
83 90 101
82 90 101
82 89 101
82 89 101
82 89 101
82 89 101
82 89 100
81 89 100
81 88 100
81 88 100
81 88 100
81 88 99
81 88 99
80 88 99
80 87 99
80 87 99
80 87 98
80 87 98
80 87 98
79 86 98
79 86 98
79 86 97
79 86 97
79 86 97
79 86 97
78 85 97
78 85 96
78 85 96
78 85 96
78 85 96
78 84 95
77 84 95
77 84 95
77 84 95
77 84 95
77 83 94
76 83 94
76 83 94
73 80 90
74 80 91
74 80 91
74 81 91
74 81 91
74 81 92
75 81 92
75 81 92
75 82 92
75 82 92
75 82 93
75 82 93
76 82 93
76 83 93
76 83 94
76 83 94
76 83 94
77 83 94
77 84 94
77 84 95
77 84 95
77 84 95
78 84 95
78 85 96
78 85 96
78 85 96
78 85 96
78 85 97
79 86 97
79 86 97
79 86 97
79 86 97
79 86 98
80 87 98
80 87 98
80 87 98
80 87 99
80 87 99
80 88 99
81 88 99
81 88 99
81 88 100
81 88 100
81 89 100
82 89 100
82 89 101
82 89 101
82 89 101
82 89 101
82 90 101
83 90 102
83 90 102
83 90 102
83 90 102
83 91 102
83 91 103
84 91 103
84 91 103
43 27 37
51 30 43
70 37 55
85 42 65
98 47 74
109 52 81
119 56 88
128 60 94
136 63 100
143 66 105
149 69 109
155 71 113
159 73 116
163 75 119
165 76 121
148 58 102
148 58 102
148 58 102
146 58 100
144 56 98
138 54 95
132 51 89
133 60 97
110 51 81
87 95 107
41 108 128
41 108 128
41 108 128
42 108 128
42 109 129
42 109 129
42 109 129
42 109 129
42 109 129
42 109 129
42 109 130
42 110 130
42 110 130
42 110 130
42 110 130
42 110 130
42 110 130
42 110 131
42 110 131
42 110 131
42 111 131
42 111 131
43 111 131
43 111 131
43 111 131
43 111 131
43 111 131
89 97 109
89 97 109
89 97 109
89 97 109
89 97 109
89 97 109
89 97 109
89 97 109
89 97 109
44 44 31
45 45 33
33 35 17
44 45 19
54 54 23
62 61 25
68 67 26
73 71 27
78 75 28
103 96 47
107 99 48
110 102 49
112 104 50
114 105 50
115 107 51
116 107 51
117 108 51
117 108 51
116 107 51
115 107 51
114 105 50
112 103 49
109 101 49
106 98 48
103 95 47
98 91 46
93 87 44
87 81 43
80 75 41
71 68 39
61 59 36
48 47 33
44 43 31
86 94 106
86 94 106
86 93 106
86 93 105
86 93 105
86 93 105
85 93 105
85 93 105
85 93 105
85 92 104
85 92 104
85 92 104
85 92 104
84 92 104
84 92 104
84 91 103
84 91 103
84 91 103
84 91 103
83 91 103
83 91 102
83 90 102
83 90 102
83 90 102
83 90 102
82 90 101
82 89 101
82 89 101
82 89 101
82 89 100
82 89 100
81 89 100
81 88 100
81 88 100
81 88 99
81 88 99
80 88 99
80 87 99
80 87 99
80 87 98
80 87 98
80 87 98
79 86 98
79 86 97
79 86 97
79 86 97
79 86 97
78 85 96
75 82 92
75 82 93
76 82 93
76 82 93
76 83 93
76 83 94
76 83 94
76 83 94
77 83 94
77 84 95
77 84 95
77 84 95
77 84 95
78 84 96
78 85 96
78 85 96
78 85 96
78 85 96
79 86 97
79 86 97
79 86 97
79 86 97
79 86 98
80 87 98
80 87 98
80 87 98
80 87 99
80 87 99
81 88 99
81 88 99
81 88 100
81 88 100
81 88 100
82 89 100
82 89 100
82 89 101
82 89 101
82 89 101
82 90 101
83 90 102
83 90 102
83 90 102
83 91 102
83 91 102
84 91 103
84 91 103
84 91 103
84 91 103
84 92 104
84 92 104
85 92 104
85 92 104
85 92 104
85 93 105
85 93 105
86 93 105
86 93 105
86 93 105
43 27 38
50 30 43
69 37 55
84 42 65
97 47 74
109 52 81
119 56 88
127 60 94
135 63 100
143 66 105
149 69 109
154 71 113
159 73 116
162 74 118
165 75 120
147 58 101
147 58 102
147 58 101
145 57 100
143 56 98
138 54 94
131 51 88
133 61 97
111 52 82
89 97 110
41 108 127
41 108 128
41 108 128
42 108 128
42 108 128
42 108 128
42 109 129
42 109 129
42 109 129
42 109 129
42 109 129
42 109 129
42 109 130
42 110 130
42 110 130
42 110 130
42 110 130
42 110 130
42 110 130
42 110 130
42 110 131
42 110 131
42 110 131
43 110 131
43 111 131
43 111 131
43 111 131
91 99 112
91 99 112
91 99 112
91 99 112
91 99 112
91 99 112
91 99 112
91 99 112
91 99 112
91 99 112
46 45 33
28 26 12
33 36 19
42 44 21
50 51 22
56 56 24
62 61 25
67 66 26
92 86 45
95 89 46
98 92 47
101 94 47
103 96 48
104 97 48
105 98 48
106 98 48
106 98 48
105 98 48
104 97 48
103 96 48
101 94 47
98 92 46
95 89 46
91 86 45
87 82 43
82 77 42
76 72 40
68 65 39
60 58 36
49 48 34
45 45 32
44 43 31
89 96 109
88 96 109
88 96 108
88 96 108
88 96 108
88 96 108
88 95 108
88 95 108
87 95 107
87 95 107
87 95 107
87 95 107
87 94 107
87 94 106
87 94 106
86 94 106
86 94 106
86 94 106
86 93 105
86 93 105
86 93 105
85 93 105
85 93 105
85 92 104
85 92 104
85 92 104
84 92 104
84 92 104
84 91 103
84 91 103
84 91 103
84 91 103
83 91 102
83 90 102
83 90 102
83 90 102
83 90 102
82 90 101
82 89 101
82 89 101
82 89 101
82 89 100
81 89 100
81 88 100
81 88 100
81 88 99
81 88 99
81 88 99
77 84 95
77 84 95
77 84 95
77 84 95
78 84 95
78 85 96
78 85 96
78 85 96
78 85 96
79 86 97
79 86 97
79 86 97
79 86 97
79 86 98
80 87 98
80 87 98
80 87 98
80 87 99
80 87 99
81 88 99
81 88 99
81 88 100
81 88 100
81 89 100
82 89 100
82 89 101
82 89 101
82 89 101
82 90 101
83 90 102
83 90 102
83 90 102
83 90 102
83 91 102
84 91 103
84 91 103
84 91 103
84 92 103
84 92 104
85 92 104
85 92 104
85 92 104
85 93 105
85 93 105
86 93 105
86 93 105
86 93 106
86 94 106
86 94 106
86 94 106
87 94 106
87 94 107
87 95 107
87 95 107
87 95 107
88 95 108
88 95 108
88 96 108
44 27 38
50 30 43
69 37 55
84 43 65
97 48 74
108 52 81
118 56 88
127 60 94
135 63 99
142 66 104
148 68 109
153 71 112
158 73 115
161 74 118
164 75 119
146 58 101
147 58 101
146 58 101
145 57 100
142 56 98
137 53 94
131 50 88
133 61 97
111 52 83
92 100 112
92 100 113
41 107 127
41 108 127
41 108 128
42 108 128
42 108 128
42 108 128
42 108 128
42 109 129
42 109 129
42 109 129
42 109 129
42 109 129
42 109 129
42 109 129
42 109 130
42 109 130
42 110 130
42 110 130
42 110 130
42 110 130
42 110 130
42 110 130
42 110 130
42 110 130
43 110 131
43 110 131
93 102 115
93 102 115
93 102 115
93 102 115
93 102 115
93 102 115
93 102 115
93 102 115
93 102 115
93 102 115
46 45 33
46 46 34
27 31 18
29 33 18
37 40 20
44 46 21
69 66 39
74 70 40
80 76 42
84 79 43
87 82 44
89 84 45
91 86 45
93 87 46
94 88 46
94 88 46
94 88 46
94 88 46
93 87 45
91 85 45
89 84 45
87 81 44
84 79 43
80 75 42
75 71 41
70 67 40
64 61 38
56 54 36
47 46 34
46 46 33
45 45 32
91 99 112
91 99 111
91 99 111
91 98 111
90 98 111
90 98 111
90 98 111
90 98 110
90 98 110
90 97 110
90 97 110
89 97 110
89 97 110
89 97 109
89 97 109
89 96 109
89 96 109
88 96 109
88 96 108
88 96 108
88 96 108
88 95 108
88 95 108
87 95 107
87 95 107
87 95 107
87 94 107
87 94 106
86 94 106
86 94 106
86 94 106
86 93 106
86 93 105
86 93 105
85 93 105
85 93 105
85 92 104
85 92 104
85 92 104
84 92 104
84 92 103
84 91 103
84 91 103
84 91 103
83 91 102
83 90 102
83 90 102
83 90 102
83 90 102
78 85 97
79 86 97
79 86 97
79 86 97
79 86 98
79 86 98
80 87 98
80 87 98
80 87 98
80 87 99
81 88 99
81 88 99
81 88 99
81 88 100
81 88 100
82 89 100
82 89 100
82 89 101
82 89 101
82 90 101
83 90 101
83 90 102
83 90 102
83 90 102
83 91 102
84 91 103
84 91 103
84 91 103
84 92 103
84 92 104
85 92 104
85 92 104
85 92 104
85 93 105
85 93 105
86 93 105
86 93 105
86 94 106
86 94 106
86 94 106
87 94 106
87 94 107
87 95 107
87 95 107
87 95 107
88 95 108
88 95 108
88 96 108
88 96 108
88 96 109
89 96 109
89 96 109
24 27 31
24 27 31
24 27 31
24 27 31
24 27 31
24 27 31
44 28 39
49 30 42
68 37 55
84 43 65
97 48 73
108 52 81
118 56 88
126 59 94
134 63 99
141 66 104
147 68 108
153 70 112
157 72 115
160 73 117
163 74 119
146 58 100
146 58 101
146 58 100
144 57 99
142 55 97
137 53 94
131 50 88
133 61 97
45 29 40
94 102 115
94 102 115
41 107 127
41 107 127
41 107 127
41 108 127
42 108 128
42 108 128
42 108 128
42 108 128
42 108 128
42 108 128
42 109 129
42 109 129
42 109 129
42 109 129
42 109 129
42 109 129
42 109 129
42 109 129
42 109 130
42 109 130
42 110 130
42 110 130
42 110 130
42 110 130
42 110 130
96 104 117
96 104 117
96 104 117
96 104 117
96 104 117
96 104 117
96 104 117
96 104 117
96 104 117
96 104 117
96 104 117
45 44 32
46 46 34
47 46 34
46 45 33
46 46 33
50 49 34
56 55 36
62 60 37
66 64 38
72 68 41
75 71 42
77 73 42
79 75 43
81 77 43
82 78 44
83 78 44
83 78 43
82 77 43
81 76 43
79 75 42
77 73 42
75 71 41
72 68 41
68 65 40
63 61 38
57 56 37
51 50 36
47 47 35
47 46 34
46 46 33
45 44 32
93 101 114
93 101 114
93 101 114
93 101 114
93 101 114
92 100 113
92 100 113
92 100 113
92 100 113
92 100 113
92 100 113
92 99 112
91 99 112
91 99 112
91 99 112
91 99 112
91 99 111
91 98 111
90 98 111
90 98 111
90 98 111
90 98 110
90 97 110
89 97 110
89 97 110
89 97 109
89 97 109
89 96 109
89 96 109
88 96 109
88 96 108
88 96 108
88 95 108
88 95 108
87 95 107
87 95 107
87 95 107
87 94 107
87 94 106
86 94 106
86 94 106
86 94 106
86 93 105
86 93 105
85 93 105
85 93 105
85 92 104
85 92 104
85 92 104
80 87 98
80 87 99
80 88 99
81 88 99
81 88 99
81 88 100
81 88 100
82 89 100
82 89 100
82 89 101
82 89 101
82 90 101
83 90 101
83 90 102
83 90 102
83 90 102
83 91 103
84 91 103
84 91 103
84 91 103
84 92 104
84 92 104
85 92 104
85 92 104
85 93 105
85 93 105
86 93 105
86 93 105
86 93 106
86 94 106
86 94 106
87 94 106
87 94 107
87 95 107
87 95 107
87 95 107
88 95 108
88 95 108
88 96 108
88 96 108
88 96 109
89 96 109
89 97 109
89 97 109
89 97 110
89 97 110
90 97 110
90 98 110
24 27 31
24 27 31
24 27 31
24 27 31
24 27 31
24 27 31
24 27 31
24 27 31
24 27 31
24 27 31
44 28 39
49 30 42
68 37 55
83 43 65
96 48 73
107 52 81
117 56 87
126 59 93
134 62 99
140 65 103
146 68 107
152 70 111
156 72 114
159 73 116
162 74 118
145 57 100
145 58 100
145 57 100
144 57 99
141 55 97
136 53 93
145 66 105
133 61 97
45 29 41
96 104 117
96 104 117
41 107 126
41 107 127
41 107 127
41 107 127
41 107 127
41 107 127
42 108 127
42 108 128
42 108 128
42 108 128
42 108 128
42 108 128
42 108 128
42 108 128
42 109 129
42 109 129
42 109 129
42 109 129
42 109 129
42 109 129
42 109 129
42 109 129
42 109 129
42 109 129
42 109 130
98 106 120
98 106 120
98 106 120
98 106 120
98 106 120
98 106 120
98 106 120
98 106 120
98 106 120
98 106 120
98 106 120
98 106 120
46 46 33
47 46 34
47 47 35
46 45 33
46 46 34
46 46 34
49 48 35
53 52 36
59 57 38
62 60 39
65 63 40
68 65 41
73 70 44
78 74 48
78 74 48
74 70 44
70 67 41
69 66 40
67 64 40
65 62 39
62 60 39
59 57 38
55 54 37
50 49 36
48 47 35
47 47 35
47 47 34
47 46 34
46 45 33
95 104 117
95 103 117
95 103 117
95 103 117
95 103 116
95 103 116
95 103 116
94 103 116
94 102 116
94 102 115
94 102 115
94 102 115
94 102 115
93 102 115
93 101 115
93 101 114
93 101 114
93 101 114
93 101 114
92 100 113
92 100 113
92 100 113
92 100 113
92 100 113
92 99 112
91 99 112
91 99 112
91 99 112
91 99 111
91 98 111
90 98 111
90 98 111
90 98 111
90 98 110
90 97 110
89 97 110
89 97 110
89 97 109
89 97 109
89 96 109
88 96 109
88 96 108
88 96 108
88 95 108
88 95 108
87 95 107
87 95 107
87 95 107
87 94 107
87 94 106
82 89 100
82 89 101
82 89 101
82 89 101
82 90 101
83 90 102
83 90 102
83 90 102
83 91 102
84 91 103
84 91 103
84 91 103
84 92 103
84 92 104
85 92 104
85 92 104
85 92 104
85 93 105
85 93 105
86 93 105
86 93 106
86 94 106
86 94 106
87 94 106
87 94 107
87 95 107
87 95 107
87 95 107
88 95 108
88 96 108
88 96 108
88 96 108
89 96 109
89 96 109
89 97 109
89 97 109
89 97 110
90 97 110
90 98 110
90 98 110
90 98 111
90 98 111
91 98 111
91 99 111
91 99 112
91 99 112
24 27 31
24 27 31
24 27 31
24 27 31
24 27 31
24 27 31
24 27 31
24 27 31
24 27 31
24 27 31
24 27 31
24 27 31
32 15 25
48 30 42
68 37 55
83 43 65
96 48 73
107 52 81
117 56 87
125 59 93
133 62 98
140 65 103
146 67 107
151 69 110
155 71 113
158 72 115
161 73 117
144 57 100
145 57 100
144 57 100
143 57 99
141 55 97
134 52 92
144 66 105
133 61 98
46 30 41
98 106 120
98 106 120
41 106 126
41 106 126
41 107 126
41 107 126
41 107 127
41 107 127
41 107 127
41 107 127
42 107 127
42 108 127
42 108 128
42 108 128
42 108 128
42 108 128
42 108 128
42 108 128
42 108 128
42 108 128
42 109 129
42 109 129
42 109 129
42 109 129
42 109 129
42 109 129
42 109 129
100 108 122
100 108 122
100 108 122
100 108 122
100 108 122
100 108 122
100 108 122
100 108 122
100 108 122
100 108 122
100 108 122
100 108 122
100 108 122
47 46 34
47 47 34
47 47 35
46 46 34
46 46 34
46 46 34
46 46 34
48 48 36
49 49 36
52 51 37
57 56 40
70 68 51
84 82 63
83 81 63
70 68 50
60 58 41
56 55 38
54 53 37
52 51 37
49 48 36
48 48 36
48 48 35
48 47 35
47 47 35
47 47 35
47 47 34
46 46 34
98 106 120
97 106 120
97 106 119
97 106 119
97 105 119
97 105 119
97 105 119
97 105 118
96 105 118
96 105 118
96 104 118
96 104 118
96 104 118
96 104 117
96 104 117
95 104 117
95 103 117
95 103 117
95 103 116
95 103 116
94 103 116
94 102 116
94 102 115
94 102 115
94 102 115
94 102 115
93 101 115
93 101 114
93 101 114
93 101 114
93 101 114
92 100 113
92 100 113
92 100 113
92 100 113
92 100 112
91 99 112
91 99 112
91 99 112
91 99 111
91 98 111
90 98 111
90 98 111
90 98 110
90 98 110
90 97 110
89 97 110
89 97 109
89 97 109
89 96 109
88 96 109
83 90 102
83 91 102
84 91 103
84 91 103
84 91 103
84 92 104
84 92 104
85 92 104
85 92 104
85 93 105
85 93 105
86 93 105
86 93 105
86 93 106
86 94 106
86 94 106
87 94 106
87 94 107
87 95 107
87 95 107
88 95 107
88 95 108
88 96 108
88 96 108
88 96 109
89 96 109
89 97 109
89 97 109
89 97 110
90 97 110
90 98 110
90 98 110
90 98 111
90 98 111
91 98 111
91 99 111
91 99 112
91 99 112
91 99 112
92 100 112
92 100 113
92 100 113
92 100 113
93 101 114
93 101 114
93 101 114
93 101 114
24 27 31
24 27 31
24 27 31
24 27 31
24 27 31
24 27 31
24 27 31
24 27 31
24 27 31
24 27 31
24 27 31
32 15 25
48 30 42
67 37 55
82 43 65
95 48 73
106 52 80
116 56 87
125 59 93
132 62 98
139 65 102
145 67 106
150 69 110
154 71 112
157 72 115
160 73 116
144 57 99
144 57 99
144 57 99
142 56 98
140 55 96
134 52 92
129 50 87
32 15 25
46 30 41
99 108 122
100 108 122
41 106 125
41 106 126
41 106 126
41 106 126
41 107 126
41 107 126
41 107 126
41 107 127
41 107 127
41 107 127
41 107 127
42 107 127
42 107 127
42 108 127
42 108 128
42 108 128
42 108 128
42 108 128
42 108 128
42 108 128
42 108 128
42 108 128
42 108 128
42 108 128
42 109 128
102 110 125
102 110 125
102 110 125
102 110 125
102 110 125
102 110 125
102 110 125
102 110 125
102 110 125
102 110 125
24 27 31
24 27 31
24 27 31
24 27 31
28 26 12
47 47 35
47 47 35
46 46 34
46 46 34
48 48 36
48 48 36
48 48 36
48 48 36
50 50 38
56 56 44
66 65 52
66 65 53
57 56 44
50 50 38
48 48 36
48 48 36
48 48 36
48 48 36
48 48 36
48 47 35
48 47 35
47 47 35
47 47 35
47 46 34
28 26 12
100 108 122
99 108 122
99 108 122
99 108 122
99 108 121
99 107 121
99 107 121
99 107 121
98 107 121
98 107 121
98 107 120
98 106 120
98 106 120
98 106 120
97 106 120
97 106 119
97 106 119
97 105 119
97 105 119
97 105 118
96 105 118
96 105 118
96 104 118
96 104 118
96 104 117
96 104 117
95 104 117
95 103 117
95 103 116
95 103 116
95 103 116
94 102 116
94 102 115
94 102 115
94 102 115
94 102 115
93 101 115
93 101 114
93 101 114
93 101 114
93 101 114
92 100 113
92 100 113
92 100 113
92 100 112
91 99 112
91 99 112
91 99 112
91 99 111
91 98 111
90 98 111
85 92 104
85 92 104
85 92 105
85 93 105
86 93 105
86 93 105
86 93 106
86 94 106
86 94 106
87 94 106
87 94 107
87 95 107
87 95 107
88 95 107
88 95 108
88 96 108
88 96 108
88 96 109
89 96 109
89 97 109
89 97 109
89 97 110
90 97 110
90 98 110
90 98 110
90 98 111
90 98 111
91 98 111
91 99 112
91 99 112
91 99 112
92 99 112
92 100 113
92 100 113
92 100 113
92 100 113
93 101 114
93 101 114
93 101 114
93 101 114
94 102 115
94 102 115
94 102 115
94 102 115
94 103 116
95 103 116
95 103 116
95 103 117
95 103 117
24 27 31
24 27 31
24 27 31
24 27 31
24 27 31
24 27 31
24 27 31
24 27 31
24 27 31
32 15 25
47 30 42
67 37 54
82 43 64
95 48 73
106 52 80
115 55 86
124 59 92
132 62 97
138 64 102
144 66 105
149 68 109
153 70 112
156 71 114
159 72 115
143 57 99
144 57 99
143 57 99
142 56 98
140 55 96
133 52 92
129 50 87
32 15 25
46 30 42
101 110 124
101 110 124
41 105 125
41 106 125
41 106 125
41 106 125
41 106 126
41 106 126
41 106 126
41 106 126
41 107 126
41 107 126
41 107 126
41 107 127
41 107 127
41 107 127
42 107 127
42 107 127
42 107 127
42 108 127
42 108 127
42 108 127
42 108 128
42 108 128
42 108 128
42 108 128
42 108 128
103 112 127
104 112 127
104 112 127
104 112 127
104 112 127
104 112 127
104 112 127
104 112 127
104 112 127
24 27 31
24 27 31
24 27 31
24 27 31
24 27 31
24 27 31
28 26 12
47 47 35
48 47 35
48 47 35
48 48 35
48 48 36
48 48 36
48 48 36
48 48 36
49 49 36
50 49 37
50 50 37
49 49 37
48 48 36
48 48 36
48 48 36
48 48 36
48 48 35
48 47 35
48 47 35
47 47 35
47 47 35
28 26 12
28 26 12
24 27 31
24 27 31
101 110 124
101 110 124
101 110 124
101 110 124
101 109 124
101 109 123
100 109 123
100 109 123
100 109 123
100 109 123
100 108 122
100 108 122
100 108 122
99 108 122
99 108 122
99 108 121
99 107 121
99 107 121
99 107 121
98 107 121
98 107 120
98 106 120
98 106 120
98 106 120
97 106 119
97 106 119
97 105 119
97 105 119
97 105 118
96 105 118
96 104 118
96 104 118
96 104 118
96 104 117
95 104 117
95 103 117
95 103 117
95 103 116
95 103 116
94 102 116
94 102 115
94 102 115
94 102 115
93 102 115
93 101 114
93 101 114
93 101 114
93 101 114
92 100 113
92 100 113
86 94 106
86 94 106
87 94 106
87 94 107
87 95 107
87 95 107
87 95 107
88 95 108
88 95 108
88 96 108
88 96 108
89 96 109
89 96 109
89 97 109
89 97 110
89 97 110
90 97 110
90 98 110
90 98 111
90 98 111
91 98 111
91 99 111
91 99 112
91 99 112
91 99 112
92 100 113
92 100 113
92 100 113
92 100 113
93 101 114
93 101 114
93 101 114
93 101 114
94 102 115
94 102 115
94 102 115
94 102 116
94 103 116
95 103 116
95 103 116
95 103 117
95 103 117
95 104 117
96 104 117
96 104 118
96 104 118
96 105 118
97 105 118
97 105 119
97 105 119
97 106 119
97 106 119
24 27 31
24 27 31
24 27 31
24 27 31
24 27 31
24 27 31
32 15 25
47 30 42
66 37 54
82 43 64
94 47 73
105 52 80
115 55 86
123 58 92
131 61 97
137 64 101
143 66 105
148 68 108
152 69 111
155 71 113
158 72 115
141 55 97
142 55 97
141 55 97
140 55 96
138 55 96
133 52 91
32 15 25
32 15 25
32 15 25
24 27 31
24 27 31
41 105 124
41 105 125
41 105 125
41 105 125
41 106 125
41 106 125
41 106 125
41 106 126
41 106 126
41 106 126
41 106 126
41 106 126
41 107 126
41 107 126
41 107 126
41 107 127
41 107 127
41 107 127
41 107 127
42 107 127
42 107 127
42 107 127
42 107 127
42 107 127
42 108 127
105 114 129
105 114 129
105 114 129
105 114 129
105 114 129
105 114 129
105 114 129
105 114 129
24 27 31
24 27 31
24 27 31
24 27 31
24 27 31
24 27 31
24 27 31
24 27 31
28 26 12
28 26 12
46 46 33
46 46 33
46 46 33
46 46 33
47 46 34
47 46 34
47 46 34
47 46 34
47 46 34
47 46 34
47 46 34
47 46 34
47 46 34
47 46 34
46 46 34
48 47 35
47 47 35
28 26 12
28 26 12
24 27 31
24 27 31
24 27 31
24 27 31
24 27 31
24 27 31
103 112 126
103 112 126
103 111 126
102 111 126
102 111 125
102 111 125
102 111 125
102 111 125
102 110 125
102 110 124
101 110 124
101 110 124
101 110 124
101 109 124
101 109 123
100 109 123
100 109 123
100 109 123
100 109 123
100 108 122
100 108 122
99 108 122
99 108 122
99 108 121
99 107 121
99 107 121
98 107 121
98 107 120
98 106 120
98 106 120
98 106 120
97 106 119
97 106 119
97 105 119
97 105 119
97 105 118
96 105 118
96 104 118
96 104 118
96 104 117
95 104 117
95 103 117
95 103 117
95 103 116
95 103 116
94 103 116
94 102 116
94 102 115
87 95 107
88 95 108
88 96 108
88 96 108
88 96 108
89 96 109
89 97 109
89 97 109
89 97 110
89 97 110
90 97 110
90 98 110
90 98 111
90 98 111
91 98 111
91 99 111
91 99 112
91 99 112
92 99 112
92 100 113
92 100 113
92 100 113
92 100 113
93 101 114
93 101 114
93 101 114
93 101 115
94 102 115
94 102 115
94 102 115
94 102 116
95 103 116
95 103 116
95 103 116
95 103 117
95 104 117
96 104 117
96 104 118
96 104 118
96 105 118
97 105 118
97 105 119
97 105 119
97 106 119
97 106 119
98 106 120
98 106 120
98 106 120
98 107 120
98 107 121
99 107 121
99 107 121
99 108 122
99 108 122
24 27 31
24 27 31
24 27 31
24 27 31
32 15 25
46 30 41
66 37 54
81 43 64
94 47 72
105 51 79
114 55 86
123 58 91
130 61 96
137 63 100
142 66 104
147 67 107
151 69 110
155 70 112
157 71 114
142 53 94
142 54 95
141 55 97
139 54 96
137 53 94
132 52 91
32 15 25
32 15 25
32 15 25
24 27 31
24 27 31
40 105 124
40 105 124
41 105 124
41 105 124
41 105 125
41 105 125
41 105 125
41 106 125
41 106 125
41 106 125
41 106 125
41 106 125
41 106 126
41 106 126
41 106 126
41 106 126
41 106 126
41 107 126
41 107 126
41 107 126
41 107 126
41 107 127
41 107 127
41 107 127
41 107 127
107 116 131
107 116 131
107 116 131
107 116 131
107 116 131
107 116 131
107 116 131
107 116 131
24 27 31
24 27 31
24 27 31
24 27 31
24 27 31
24 27 31
24 27 31
24 27 31
24 27 31
28 26 12
27 25 10
27 25 10
27 25 10
27 25 10
46 46 33
46 46 33
46 46 34
46 46 34
46 46 34
46 46 34
46 46 34
46 46 33
46 46 33
46 46 33
27 25 10
27 25 10
28 26 12
28 26 12
24 27 31
24 27 31
24 27 31
24 27 31
24 27 31
24 27 31
24 27 31
24 27 31
104 113 128
104 113 128
104 113 128
104 113 127
104 113 127
104 113 127
104 112 127
103 112 127
103 112 126
103 112 126
103 112 126
103 112 126
103 111 126
102 111 125
102 111 125
102 111 125
102 111 125
102 110 125
101 110 124
101 110 124
101 110 124
101 110 124
101 109 123
101 109 123
100 109 123
100 109 123
100 109 122
100 108 122
100 108 122
99 108 122
99 108 122
99 107 121
99 107 121
98 107 121
98 107 120
98 106 120
98 106 120
98 106 120
97 106 119
97 106 119
97 105 119
97 105 119
97 105 118
96 105 118
96 104 118
96 104 118
96 104 117
89 96 109
89 97 109
89 97 110
89 97 110
90 97 110
90 98 110
90 98 111
90 98 111
91 98 111
91 99 111
91 99 112
91 99 112
92 99 112
92 100 113
92 100 113
92 100 113
92 100 113
93 101 114
93 101 114
93 101 114
93 101 115
94 102 115
94 102 115
94 102 115
94 102 116
95 103 116
95 103 116
95 103 117
95 103 117
95 104 117
96 104 117
96 104 118
96 104 118
96 105 118
97 105 118
97 105 119
97 105 119
97 106 119
98 106 120
98 106 120
98 106 120
98 107 120
98 107 121
99 107 121
99 107 121
99 108 121
99 108 122
100 108 122
100 108 122
100 109 122
100 109 123
100 109 123
101 109 123
101 109 124
101 110 124
101 110 124
101 110 124
24 27 31
32 15 25
46 30 42
65 37 54
81 43 64
93 47 72
104 51 79
114 55 85
122 58 91
129 61 96
136 63 100
141 65 103
146 67 107
150 68 109
154 70 111
156 71 113
141 53 94
142 53 94
141 53 94
140 53 93
137 52 92
133 50 89
32 15 25
32 15 25
32 15 25
24 27 31
24 27 31
40 104 123
40 104 124
40 104 124
40 105 124
40 105 124
41 105 124
41 105 124
41 105 124
41 105 125
41 105 125
41 105 125
41 105 125
41 106 125
41 106 125
41 106 125
41 106 125
41 106 125
41 106 126
41 106 126
41 106 126
41 106 126
41 106 126
41 106 126
41 106 126
41 107 126
108 118 133
108 118 133
108 118 133
109 118 133
109 118 133
109 118 133
109 118 133
109 118 133
109 118 133
24 27 31
24 27 31
24 27 31
24 27 31
24 27 31
24 27 31
24 27 31
24 27 31
24 27 31
24 27 31
27 25 10
27 25 10
27 25 10
27 25 10
27 25 10
27 25 10
27 25 10
27 25 10
27 25 10
27 25 10
27 25 10
27 25 10
27 25 10
27 25 10
28 26 12
24 27 31
24 27 31
24 27 31
24 27 31
24 27 31
24 27 31
24 27 31
24 27 31
24 27 31
24 27 31
24 27 31
106 115 130
106 115 130
106 115 129
106 115 129
105 114 129
105 114 129
105 114 129
105 114 128
105 114 128
105 113 128
104 113 128
104 113 128
104 113 127
104 113 127
104 113 127
104 112 127
103 112 127
103 112 126
103 112 126
103 112 126
103 111 126
102 111 125
102 111 125
102 111 125
102 111 125
102 110 124
101 110 124
101 110 124
101 110 124
101 109 124
101 109 123
100 109 123
100 109 123
100 109 122
100 108 122
99 108 122
99 108 122
99 108 121
99 107 121
99 107 121
98 107 121
98 107 120
98 106 120
98 106 120
98 106 120
97 106 119
90 98 111
90 98 111
91 98 111
91 99 111
91 99 112
91 99 112
91 99 112
92 100 112
92 100 113
92 100 113
92 100 113
93 101 114
93 101 114
93 101 114
93 101 114
94 102 115
94 102 115
94 102 115
94 102 116
94 103 116
95 103 116
95 103 116
95 103 117
95 104 117
96 104 117
96 104 118
96 104 118
96 105 118
97 105 118
97 105 119
97 105 119
97 106 119
97 106 120
98 106 120
98 106 120
98 107 120
98 107 121
99 107 121
99 107 121
99 108 121
99 108 122
100 108 122
100 108 122
100 109 123
100 109 123
100 109 123
101 109 123
101 110 124
101 110 124
101 110 124
102 110 124
102 110 125
102 111 125
102 111 125
102 111 125
103 111 126
103 112 126
103 112 126
98 105 120
46 30 42
65 37 54
80 43 64
93 47 72
103 51 79
113 55 85
121 58 90
129 60 95
135 63 99
141 65 103
145 66 106
149 68 109
153 69 111
155 70 112
156 69 112
156 70 112
141 53 94
140 53 93
137 52 91
31 14 23
19 20 24
19 20 24
19 20 24
24 27 31
24 27 31
40 104 123
40 104 123
40 104 123
40 104 123
40 104 123
40 104 124
40 104 124
40 105 124
40 105 124
41 105 124
41 105 124
41 105 124
41 105 124
41 105 125
41 105 125
41 105 125
41 105 125
41 106 125
41 106 125
41 106 125
41 106 125
41 106 125
41 106 125
41 106 125
41 106 126
110 119 135
110 119 135
110 119 135
110 119 135
110 119 135
110 119 135
110 119 135
110 119 135
110 119 135
110 119 135
110 119 135
24 27 31
24 27 31
24 27 31
24 27 31
24 27 31
24 27 31
24 27 31
24 27 31
24 27 31
24 27 31
27 25 10
27 25 10
27 25 10
27 25 10
27 25 10
27 25 10
27 25 10
27 25 10
27 25 10
27 25 10
27 25 10
24 27 31
24 27 31
24 27 31
24 27 31
24 27 31
24 27 31
24 27 31
24 27 31
24 27 31
24 27 31
24 27 31
24 27 31
108 117 132
107 117 132
107 117 131
107 116 131
107 116 131
107 116 131
107 116 131
107 116 131
106 116 130
106 115 130
106 115 130
106 115 130
106 115 130
106 115 129
105 114 129
105 114 129
105 114 129
105 114 129
105 114 128
105 113 128
104 113 128
104 113 128
104 113 127
104 113 127
104 112 127
103 112 127
103 112 126
103 112 126
103 112 126
103 111 126
102 111 125
102 111 125
102 111 125
102 110 125
102 110 124
101 110 124
101 110 124
101 110 124
101 109 123
100 109 123
100 109 123
100 109 123
100 108 122
100 108 122
99 108 122
99 108 121
99 107 121
91 99 112
92 99 112
92 100 113
92 100 113
92 100 113
92 100 113
93 101 114
93 101 114
93 101 114
93 101 115
94 102 115
94 102 115
94 102 115
94 102 116
95 103 116
95 103 116
95 103 117
95 103 117
96 104 117
96 104 117
96 104 118
96 104 118
96 105 118
97 105 119
97 105 119
97 105 119
97 106 119
98 106 120
98 106 120
98 107 120
98 107 121
99 107 121
99 107 121
99 108 121
99 108 122
99 108 122
100 108 122
100 108 122
100 109 123
100 109 123
101 109 123
101 109 124
101 110 124
101 110 124
102 110 124
102 110 125
102 111 125
102 111 125
102 111 125
103 111 126
103 112 126
103 112 126
103 112 126
103 112 127
104 113 127
104 113 127
104 113 127
104 113 128
104 113 128
100 107 121
100 108 122
101 108 123
102 108 123
103 51 78
112 54 84
121 57 90
128 60 94
134 62 99
140 64 102
145 66 105
149 67 108
152 69 110
154 69 112
105 110 126
106 110 126
106 111 126
106 111 127
106 111 127
22 20 25
19 20 24
19 20 24
19 20 24
24 27 31
24 27 31
40 103 122
40 103 122
40 103 123
40 104 123
40 104 123
40 104 123
40 104 123
40 104 123
40 104 123
40 104 124
40 104 124
40 104 124
40 105 124
40 105 124
41 105 124
41 105 124
41 105 124
41 105 124
41 105 124
41 105 125
41 105 125
41 105 125
41 105 125
41 105 125
41 106 125
111 121 136
111 121 136
111 121 136
111 121 136
111 121 136
111 121 136
111 121 136
111 121 136
111 121 136
111 121 136
111 121 136
111 121 136
111 121 136
111 121 136
24 27 31
24 27 31
24 27 31
24 27 31
24 27 31
18 20 22
18 19 22
18 19 22
18 19 22
18 19 22
18 19 22
18 19 22
18 19 22
18 19 22
18 19 22
18 19 22
18 19 22
24 27 31
24 27 31
24 27 31
24 27 31
24 27 31
24 27 31
24 27 31
24 27 31
24 27 31
24 27 31
24 27 31
109 119 134
109 119 134
109 118 134
109 118 133
109 118 133
109 118 133
109 118 133
108 118 133
108 117 133
108 117 132
108 117 132
108 117 132
108 117 132
107 117 132
107 116 131
107 116 131
107 116 131
107 116 131
107 116 131
106 115 130
106 115 130
106 115 130
106 115 130
106 115 129
105 114 129
105 114 129
105 114 129
105 114 128
105 114 128
104 113 128
104 113 128
104 113 128
104 113 127
104 113 127
103 112 127
103 112 126
103 112 126
103 112 126
103 111 126
102 111 125
102 111 125
102 111 125
102 110 125
102 110 124
101 110 124
101 110 124
101 109 124
101 109 123
100 109 123
92 100 113
93 101 114
93 101 114
93 101 114
93 101 115
94 102 115
94 102 115
94 102 115
94 102 116
95 103 116
95 103 116
95 103 117
95 104 117
96 104 117
96 104 117
96 104 118
96 105 118
96 105 118
97 105 119
97 105 119
97 106 119
97 106 119
98 106 120
98 106 120
98 107 120
98 107 121
99 107 121
99 107 121
99 108 121
99 108 122
100 108 122
100 108 122
100 109 123
100 109 123
100 109 123
101 109 123
101 110 124
101 110 124
101 110 124
102 110 124
102 111 125
102 111 125
102 111 125
103 111 126
103 112 126
103 112 126
103 112 126
103 112 127
104 112 127
104 113 127
104 113 127
104 113 128
104 113 128
105 114 128
105 114 128
105 114 129
105 114 129
106 115 129
106 115 129
101 108 123
102 109 124
102 109 124
103 110 125
104 110 125
104 110 126
105 111 126
105 111 127
106 111 127
106 112 127
107 112 128
107 112 128
107 112 128
108 113 129
107 112 127
107 112 128
107 112 128
107 112 128
22 21 25
22 20 25
19 20 24
19 20 24
19 20 24
24 27 31
24 27 31
40 103 122
40 103 122
40 103 122
40 103 122
40 103 122
40 103 122
40 103 123
40 104 123
40 104 123
40 104 123
40 104 123
40 104 123
40 104 123
40 104 123
40 104 124
40 104 124
40 104 124
40 105 124
40 105 124
40 105 124
40 105 124
41 105 124
41 105 124
41 105 124
41 105 124
113 122 138
113 122 138
113 122 138
113 122 138
113 122 138
113 122 138
113 122 138
113 122 138
113 122 138
113 122 138
113 122 138
113 122 138
113 122 138
113 122 138
113 122 138
113 122 138
113 122 138
106 115 129
106 115 129
18 19 22
18 19 22
18 19 22
18 19 22
18 19 22
18 19 22
18 19 22
18 19 22
18 19 22
18 19 22
18 19 22
18 19 22
18 19 22
18 19 22
24 27 31
24 27 31
24 27 31
24 27 31
24 27 31
24 27 31
111 121 136
111 120 136
111 120 136
111 120 136
111 120 135
110 120 135
110 120 135
110 120 135
110 119 135
110 119 135
110 119 134
110 119 134
109 119 134
109 119 134
109 118 134
109 118 133
109 118 133
109 118 133
109 118 133
108 118 133
108 117 132
108 117 132
108 117 132
108 117 132
107 117 132
107 116 131
107 116 131
107 116 131
107 116 131
107 116 130
106 115 130
106 115 130
106 115 130
106 115 129
106 115 129
105 114 129
105 114 129
105 114 128
105 114 128
104 113 128
104 113 128
104 113 127
104 113 127
104 112 127
103 112 127
103 112 126
103 112 126
103 112 126
103 111 126
102 111 125
102 111 125
102 111 125
94 102 115
94 102 115
94 102 115
94 102 116
95 103 116
95 103 116
95 103 117
95 103 117
96 104 117
96 104 117
96 104 118
96 104 118
96 105 118
97 105 119
97 105 119
97 106 119
97 106 119
98 106 120
98 106 120
98 107 120
98 107 121
99 107 121
99 107 121
99 108 121
99 108 122
100 108 122
100 108 122
100 109 123
100 109 123
100 109 123
101 109 123
101 110 124
101 110 124
101 110 124
102 110 125
102 111 125
102 111 125
102 111 125
103 111 126
103 112 126
103 112 126
103 112 126
103 112 127
104 113 127
104 113 127
104 113 128
104 113 128
105 113 128
105 114 128
105 114 129
105 114 129
105 114 129
106 115 129
106 115 130
106 115 130
106 115 130
106 116 130
107 116 131
107 116 131
102 110 124
103 110 125
104 111 126
104 111 126
105 111 127
106 112 127
106 112 128
107 112 128
107 113 128
107 113 129
108 113 129
108 113 129
108 114 130
109 114 130
108 113 129
108 113 129
108 113 129
108 113 129
108 113 130
108 114 130
23 22 26
19 20 24
19 20 24
24 27 31
24 27 31
39 102 121
40 102 121
40 103 121
40 103 122
40 103 122
40 103 122
40 103 122
40 103 122
40 103 122
40 103 122
40 103 122
40 104 123
40 104 123
40 104 123
40 104 123
40 104 123
40 104 123
40 104 123
40 104 123
40 104 123
40 104 123
40 104 124
40 104 124
40 104 124
40 104 124
114 123 139
114 123 139
114 123 139
114 123 139
114 124 139
114 124 139
114 124 139
114 124 139
114 124 139
114 124 139
114 124 139
114 124 139
114 124 139
114 124 139
114 124 139
109 118 132
107 116 131
107 116 131
107 116 130
107 116 130
107 116 130
107 116 130
107 116 130
107 116 130
107 116 130
107 116 130
107 116 130
107 116 130
107 116 130
107 115 130
107 115 130
107 115 130
107 115 130
106 115 129
108 117 131
113 122 138
113 122 138
113 122 138
113 122 138
112 122 138
112 122 137
112 122 137
112 122 137
112 121 137
112 121 137
112 121 137
112 121 137
111 121 136
111 121 136
111 121 136
111 120 136
111 120 136
111 120 135
111 120 135
110 120 135
110 120 135
110 119 135
110 119 134
110 119 134
110 119 134
109 119 134
109 118 134
109 118 133
109 118 133
109 118 133
108 118 133
108 117 133
108 117 132
108 117 132
108 117 132
107 117 132
107 116 131
107 116 131
107 116 131
107 116 131
106 116 130
106 115 130
106 115 130
106 115 130
106 115 129
105 114 129
105 114 129
105 114 129
105 114 128
105 113 128
104 113 128
104 113 128
104 113 127
104 113 127
103 112 127
103 112 126
95 103 116
95 103 116
95 103 117
95 104 117
96 104 117
96 104 118
96 104 118
96 105 118
97 105 118
97 105 119
97 105 119
97 106 119
98 106 120
98 106 120
98 106 120
98 107 120
99 107 121
99 107 121
99 107 121
99 108 122
99 108 122
100 108 122
100 108 122
100 109 123
100 109 123
101 109 123
101 109 124
101 110 124
101 110 124
102 110 124
102 111 125
102 111 125
102 111 125
102 111 126
103 112 126
103 112 126
103 112 126
103 112 127
104 112 127
104 113 127
104 113 128
104 113 128
105 113 128
105 114 128
105 114 129
105 114 129
105 114 129
106 115 129
106 115 130
106 115 130
106 115 130
107 116 130
107 116 131
107 116 131
107 116 131
107 117 131
108 117 132
108 117 132
108 117 132
103 111 126
104 111 126
105 112 127
105 112 127
106 112 128
107 113 128
107 113 129
108 113 129
108 114 130
108 114 130
109 114 130
109 115 131
110 115 131
110 115 131
109 114 130
109 114 130
109 114 131
109 115 131
109 115 131
109 115 131
111 116 132
107 115 130
19 20 24
24 27 31
24 27 31
39 102 121
39 102 121
39 102 121
39 102 121
39 102 121
40 102 121
40 103 121
40 103 122
40 103 122
40 103 122
40 103 122
40 103 122
40 103 122
40 103 122
40 103 122
40 103 122
40 103 123
40 104 123
40 104 123
40 104 123
40 104 123
40 104 123
40 104 123
40 104 123
40 104 123
115 125 141
115 125 141
115 125 141
115 125 141
115 125 141
115 125 141
115 125 141
115 125 141
115 125 141
115 125 141
115 125 141
115 125 141
115 125 141
115 125 141
110 119 134
109 117 132
109 117 132
109 117 132
109 117 132
108 117 132
108 117 132
108 117 132
108 117 132
108 117 132
108 117 131
108 117 131
108 117 131
108 117 131
108 117 131
108 117 131
108 117 131
108 117 131
108 117 131
108 116 131
108 116 131
108 117 131
114 124 139
114 123 139
114 123 139
114 123 139
113 123 139
113 123 139
113 123 139
113 123 138
113 123 138
113 122 138
113 122 138
113 122 138
112 122 138
112 122 137
112 122 137
112 122 137
112 121 137
112 121 137
112 121 137
111 121 136
111 121 136
111 121 136
111 120 136
111 120 136
111 120 135
110 120 135
110 120 135
110 119 135
110 119 135
110 119 134
110 119 134
109 119 134
109 118 134
109 118 133
109 118 133
109 118 133
108 118 133
108 117 132
108 117 132
108 117 132
108 117 132
107 117 131
107 116 131
107 116 131
107 116 131
107 116 130
106 115 130
106 115 130
106 115 130
106 115 129
105 114 129
105 114 129
105 114 129
105 114 128
105 113 128
96 104 117
96 104 118
96 105 118
96 105 118
97 105 119
97 105 119
97 106 119
97 106 119
98 106 120
98 106 120
98 107 120
98 107 121
99 107 121
99 107 121
99 108 121
99 108 122
100 108 122
100 108 122
100 109 123
100 109 123
100 109 123
101 109 123
101 110 124
101 110 124
101 110 124
102 110 125
102 111 125
102 111 125
102 111 125
103 111 126
103 112 126
103 112 126
103 112 127
104 112 127
104 113 127
104 113 127
104 113 128
104 113 128
105 114 128
105 114 128
105 114 129
105 114 129
106 115 129
106 115 130
106 115 130
106 115 130
106 116 130
107 116 131
107 116 131
107 116 131
107 116 131
108 117 132
108 117 132
108 117 132
108 117 132
108 118 133
109 118 133
109 118 133
109 118 133
104 112 127
105 112 127
106 113 128
106 113 129
107 114 129
108 114 130
108 114 130
109 115 131
109 115 131
110 115 131
110 115 132
110 116 132
111 116 132
111 116 133
110 115 131
110 115 132
110 115 132
110 116 132
110 116 132
110 116 132
112 117 134
111 117 134
108 116 131
113 123 139
24 27 31
39 101 120
39 101 120
39 102 120
39 102 121
39 102 121
39 102 121
39 102 121
39 102 121
39 102 121
40 102 121
40 102 121
40 103 121
40 103 122
40 103 122
40 103 122
40 103 122
40 103 122
40 103 122
40 103 122
40 103 122
40 103 122
40 103 122
40 103 122
40 103 123
40 103 123
116 126 142
116 126 142
116 126 142
116 126 142
116 126 142
116 126 142
116 126 142
116 126 142
116 126 142
116 126 142
116 126 142
116 126 142
116 126 142
111 120 135
110 119 134
110 119 133
110 119 133
110 119 133
110 118 133
109 118 133
109 118 133
109 118 133
109 118 133
109 118 133
109 118 133
109 118 133
109 118 133
109 118 133
109 118 133
109 118 132
109 118 132
109 118 132
109 118 132
109 118 132
109 118 132
109 117 132
109 118 133
115 125 141
115 125 140
115 124 140
115 124 140
115 124 140
114 124 140
114 124 140
114 124 140
114 124 140
114 124 139
114 123 139
114 123 139
114 123 139
113 123 139
113 123 139
113 123 138
113 123 138
113 122 138
113 122 138
112 122 138
112 122 137
112 122 137
112 121 137
112 121 137
112 121 137
111 121 136
111 121 136
111 121 136
111 120 136
111 120 136
111 120 135
110 120 135
110 120 135
110 119 135
110 119 134
110 119 134
109 119 134
109 119 134
109 118 133
109 118 133
109 118 133
108 118 133
108 117 132
108 117 132
108 117 132
108 117 132
107 116 131
107 116 131
107 116 131
107 116 131
106 116 130
106 115 130
106 115 130
106 115 130
97 105 119
97 105 119
97 106 119
97 106 120
98 106 120
98 106 120
98 107 120
98 107 121
99 107 121
99 107 121
99 108 122
99 108 122
100 108 122
100 108 122
100 109 123
100 109 123
101 109 123
101 109 123
101 110 124
101 110 124
101 110 124
102 110 125
102 111 125
102 111 125
102 111 125
103 111 126
103 112 126
103 112 126
103 112 127
104 112 127
104 113 127
104 113 127
104 113 128
105 113 128
105 114 128
105 114 129
105 114 129
105 114 129
106 115 129
106 115 130
106 115 130
106 115 130
107 116 130
107 116 131
107 116 131
107 116 131
107 117 132
108 117 132
108 117 132
108 117 132
108 118 133
109 118 133
109 118 133
109 118 133
109 118 134
109 119 134
110 119 134
110 119 134
110 119 135
105 113 128
106 113 129
107 114 129
107 114 130
108 115 130
109 115 131
109 115 131
110 116 132
110 116 132
110 116 132
111 116 133
111 117 133
112 117 133
112 117 134
111 116 133
111 116 133
111 117 133
111 117 133
111 117 133
111 117 133
113 118 135
112 118 135
112 118 134
114 124 140
114 124 140
109 120 136
109 120 136
109 120 136
109 120 136
109 121 136
109 121 137
109 121 137
109 121 137
110 121 137
110 121 137
110 121 137
110 121 137
110 122 138
110 122 138
110 122 138
110 122 138
110 122 138
110 122 138
111 122 138
111 122 138
111 122 138
111 122 138
111 122 139
111 123 139
111 123 139
117 127 143
117 127 143
117 127 143
117 127 143
117 127 143
117 127 143
117 127 143
117 127 143
117 127 143
117 127 143
117 127 143
117 127 143
112 121 136
111 120 135
111 120 135
111 120 135
111 120 135
111 120 135
111 120 135
111 120 135
111 120 135
111 120 135
111 120 135
111 120 135
110 119 134
110 119 134
110 119 134
110 119 134
110 119 134
110 119 134
110 119 134
110 119 134
110 119 133
110 119 133
110 119 133
110 119 133
110 118 133
110 119 134
116 126 142
116 126 142
116 125 142
116 125 141
115 125 141
115 125 141
115 125 141
115 125 141
115 125 141
115 125 141
115 124 140
115 124 140
114 124 140
114 124 140
114 124 140
114 124 140
114 124 139
114 123 139
114 123 139
113 123 139
113 123 139
113 123 138
113 123 138
113 122 138
113 122 138
112 122 138
112 122 137
112 122 137
112 121 137
112 121 137
112 121 136
111 121 136
111 121 136
111 120 136
111 120 136
111 120 135
110 120 135
110 120 135
110 119 135
110 119 134
110 119 134
109 119 134
109 118 134
109 118 133
109 118 133
109 118 133
108 118 133
108 117 132
108 117 132
108 117 132
107 117 132
107 116 131
107 116 131
98 106 120
98 106 120
98 107 120
98 107 121
99 107 121
99 107 121
99 108 122
99 108 122
100 108 122
100 108 122
100 109 123
100 109 123
101 109 123
101 109 124
101 110 124
101 110 124
102 110 124
102 110 125
102 111 125
102 111 125
102 111 125
103 111 126
103 112 126
103 112 126
103 112 127
104 112 127
104 113 127
104 113 127
104 113 128
105 113 128
105 114 128
105 114 129
105 114 129
105 114 129
106 115 129
106 115 130
106 115 130
106 115 130
107 116 131
107 116 131
107 116 131
107 116 131
107 117 132
108 117 132
108 117 132
108 117 132
108 118 133
109 118 133
109 118 133
109 118 133
109 119 134
109 119 134
110 119 134
110 119 134
110 119 135
110 120 135
110 120 135
111 120 135
111 120 136
106 114 129
107 114 130
108 115 130
108 115 131
109 116 131
109 116 132
110 116 132
111 117 133
111 117 133
111 117 133
112 117 134
112 118 134
112 118 134
113 118 135
112 117 134
112 117 134
112 117 134
112 118 134
112 118 134
112 118 134
113 119 136
113 119 136
113 119 136
115 125 141
115 125 141
109 121 137
110 121 137
110 121 137
110 121 137
110 122 137
110 122 138
110 122 138
110 122 138
110 122 138
111 122 138
111 122 138
111 122 138
111 123 139
111 123 139
111 123 139
111 123 139
111 123 139
111 123 139
111 123 139
112 123 139
112 123 139
112 123 140
112 123 140
112 123 140
112 124 140
118 128 144
118 128 144
118 128 144
118 128 144
118 128 144
118 128 144
118 128 144
118 128 144
118 128 144
118 128 144
118 128 144
118 128 144
112 121 136
112 121 136
112 121 136
112 121 136
112 121 136
112 121 136
112 121 136
112 121 136
112 121 136
112 121 136
112 121 136
112 121 136
112 121 136
112 121 136
112 121 136
112 121 136
112 121 136
112 121 136
112 121 136
112 121 136
112 121 136
112 121 135
111 120 135
111 120 135
111 120 135
111 120 135
112 121 136
117 127 143
117 127 143
117 126 143
116 126 142
116 126 142
116 126 142
116 126 142
116 126 142
116 126 142
116 126 142
116 125 141
115 125 141
115 125 141
115 125 141
115 125 141
115 125 141
115 124 140
115 124 140
114 124 140
114 124 140
114 124 140
114 124 139
114 123 139
114 123 139
113 123 139
113 123 139
113 123 138
113 123 138
113 122 138
113 122 138
112 122 138
112 122 137
112 122 137
112 121 137
112 121 137
111 121 136
111 121 136
111 121 136
111 120 136
111 120 135
110 120 135
110 120 135
110 119 135
110 119 134
110 119 134
109 119 134
109 119 134
109 118 133
109 118 133
109 118 133
108 118 133
108 117 132
99 107 121
99 107 121
99 108 122
99 108 122
100 108 122
100 108 122
100 109 123
100 109 123
101 109 123
101 109 123
101 110 124
101 110 124
101 110 124
102 110 125
102 111 125
102 111 125
102 111 125
103 111 126
103 112 126
103 112 126
103 112 127
104 112 127
104 113 127
104 113 127
104 113 128
105 113 128
105 114 128
105 114 129
105 114 129
105 114 129
106 115 129
106 115 130
106 115 130
106 115 130
107 116 130
107 116 131
107 116 131
107 116 131
107 117 132
108 117 132
108 117 132
108 117 132
108 118 133
109 118 133
109 118 133
109 118 133
109 119 134
109 119 134
110 119 134
110 119 134
110 119 135
110 120 135
110 120 135
111 120 135
111 120 136
111 121 136
111 121 136
112 121 136
112 121 137
107 115 130
107 115 131
108 116 131
109 116 132
110 116 132
110 117 133
111 117 133
111 117 134
112 118 134
112 118 135
113 118 135
113 119 135
113 119 135
114 119 136
113 118 135
113 118 135
113 118 135
113 118 135
113 119 135
113 119 135
114 120 137
114 120 137
114 120 137
116 126 142
116 126 142
110 122 138
110 122 138
111 122 138
111 122 138
111 122 138
111 123 139
111 123 139
111 123 139
111 123 139
111 123 139
112 123 139
112 123 139
112 123 140
112 123 140
112 124 140
112 124 140
112 124 140
112 124 140
112 124 140
112 124 140
112 124 140
112 124 141
113 124 141
113 124 141
113 124 141
119 129 145
119 129 145
119 129 145
119 129 145
119 129 145
119 129 145
119 129 145
119 129 145
119 129 145
119 129 145
119 129 145
114 123 138
113 122 137
113 122 137
113 122 137
113 122 137
113 122 137
113 122 137
113 122 137
113 122 137
113 122 137
113 122 137
113 122 137
113 122 137
113 122 137
113 122 137
113 122 137
113 122 137
113 122 137
113 122 137
113 122 137
113 122 137
112 122 137
112 122 137
112 121 136
112 121 136
112 121 136
112 121 136
112 121 136
113 122 137
118 127 144
117 127 144
117 127 144
117 127 143
117 127 143
117 127 143
117 127 143
117 127 143
117 127 143
117 126 143
116 126 142
116 126 142
116 126 142
116 126 142
116 126 142
116 126 142
116 125 141
115 125 141
115 125 141
115 125 141
115 125 141
115 125 140
115 124 140
114 124 140
114 124 140
114 124 140
114 124 139
114 123 139
114 123 139
113 123 139
113 123 139
113 123 138
113 122 138
113 122 138
113 122 138
112 122 137
112 122 137
112 121 137
112 121 137
112 121 137
111 121 136
111 121 136
111 120 136
111 120 136
111 120 135
110 120 135
110 119 135
110 119 135
110 119 134
109 119 134
109 119 134
100 108 122
100 108 122
100 109 123
100 109 123
100 109 123
101 109 123
101 110 124
101 110 124
101 110 124
102 110 125
102 111 125
102 111 125
102 111 125
103 111 126
103 112 126
103 112 126
103 112 126
104 112 127
104 113 127
104 113 127
104 113 128
104 113 128
105 114 128
105 114 128
105 114 129
105 114 129
106 115 129
106 115 130
106 115 130
106 115 130
106 116 130
107 116 131
107 116 131
107 116 131
107 117 131
108 117 132
108 117 132
108 117 132
108 117 133
109 118 133
109 118 133
109 118 133
109 118 134
109 119 134
110 119 134
110 119 134
110 119 135
110 120 135
110 120 135
111 120 135
111 120 136
111 121 136
111 121 136
111 121 136
112 121 137
112 121 137
112 122 137
112 122 137
112 122 138
108 116 131
108 116 132
109 117 132
110 117 133
111 117 133
111 118 134
112 118 134
112 118 135
113 119 135
113 119 135
113 119 136
114 119 136
114 120 136
114 120 137
113 119 136
114 119 136
114 119 136
114 119 136
114 119 136
114 119 136
115 121 138
115 121 138
114 121 137
117 126 143
117 127 143
111 123 139
111 123 139
111 123 139
111 123 139
112 123 139
112 123 140
112 123 140
112 124 140
112 124 140
112 124 140
112 124 140
112 124 140
112 124 140
113 124 141
113 124 141
113 125 141
113 125 141
113 125 141
113 125 141
113 125 141
113 125 141
113 125 141
113 125 142
113 125 142
113 125 142
119 129 146
119 129 146
119 129 146
119 129 146
119 130 146
120 130 146
120 130 146
120 130 146
120 130 146
120 130 146
115 124 139
114 123 138
114 123 138
113 122 137
114 123 138
114 123 138
114 123 138
114 123 138
114 123 138
114 123 138
114 123 138
114 123 138
114 123 138
114 123 138
114 124 139
115 124 139
114 123 139
114 123 138
114 123 138
113 123 138
113 123 138
113 123 138
113 122 138
113 122 138
113 122 137
113 122 137
113 122 137
113 122 137
113 122 137
112 121 136
118 128 145
118 128 145
118 128 145
118 128 144
118 128 144
118 128 144
118 128 144
118 128 144
118 127 144
117 127 144
117 127 143
117 127 143
117 127 143
117 127 143
117 127 143
117 126 143
116 126 142
116 126 142
116 126 142
116 126 142
116 126 142
116 126 142
116 125 141
115 125 141
115 125 141
115 125 141
115 125 141
115 124 140
115 124 140
114 124 140
114 124 140
114 124 140
114 123 139
114 123 139
113 123 139
113 123 139
113 123 138
113 122 138
113 122 138
113 122 138
112 122 137
112 122 137
112 121 137
112 121 137
112 121 136
111 121 136
111 121 136
111 120 136
111 120 135
110 120 135
110 120 135
100 109 123
101 109 123
101 109 124
101 110 124
101 110 124
102 110 124
102 110 125
102 111 125
102 111 125
102 111 126
103 111 126
103 112 126
103 112 126
103 112 127
104 112 127
104 113 127
104 113 127
104 113 128
105 113 128
105 114 128
105 114 129
105 114 129
105 114 129
106 115 129
106 115 130
106 115 130
106 115 130
107 116 131
107 116 131
107 116 131
107 116 131
108 117 132
108 117 132
108 117 132
108 117 132
108 118 133
109 118 133
109 118 133
109 118 133
109 119 134
110 119 134
110 119 134
110 119 135
110 120 135
110 120 135
111 120 135
111 120 136
111 120 136
111 121 136
111 121 136
112 121 137
112 121 137
112 122 137
112 122 137
112 122 138
113 122 138
113 122 138
113 123 138
113 123 139
108 116 132
109 117 132
110 117 133
111 118 134
111 118 134
112 118 135
112 119 135
113 119 136
113 119 136
114 120 136
114 120 137
114 120 137
115 120 137
115 121 138
114 120 136
114 120 137
114 120 137
115 120 137
115 120 137
115 120 137
116 122 139
116 122 139
115 122 138
117 127 143
117 127 144
112 123 140
112 124 140
112 124 140
112 124 140
112 124 140
112 124 140
112 124 141
113 124 141
113 124 141
113 125 141
113 125 141
113 125 141
113 125 141
113 125 141
113 125 142
113 125 142
113 125 142
114 125 142
114 126 142
114 126 142
114 126 142
114 126 142
114 126 142
114 126 142
114 126 143
120 130 147
120 130 147
120 130 147
120 130 147
120 130 147
120 130 147
120 130 147
120 130 147
120 130 147
120 130 147
115 125 140
114 124 139
114 124 139
114 123 138
114 123 138
114 124 139
114 124 139
114 124 139
114 124 139
114 124 139
114 124 139
115 124 139
115 124 139
115 124 139
115 124 140
116 125 140
115 124 140
114 124 139
114 124 139
114 123 139
114 123 139
114 123 139
114 123 139
114 123 138
114 123 138
114 123 138
114 123 138
114 123 138
113 123 138
113 122 138
114 123 139
119 129 146
119 129 146
119 129 145
119 129 145
119 129 145
119 129 145
118 128 145
118 128 145
118 128 145
118 128 144
118 128 144
118 128 144
118 128 144
118 128 144
117 127 144
117 127 143
117 127 143
117 127 143
117 127 143
117 127 143
117 126 143
116 126 142
116 126 142
116 126 142
116 126 142
116 126 142
116 125 141
115 125 141
115 125 141
115 125 141
115 125 141
115 124 140
115 124 140
114 124 140
114 124 140
114 124 139
114 123 139
114 123 139
113 123 139
113 123 139
113 123 138
113 122 138
113 122 138
112 122 138
112 122 137
112 122 137
112 121 137
112 121 137
111 121 136
111 121 136
101 110 124
101 110 124
102 110 125
102 111 125
102 111 125
102 111 125
103 111 126
103 112 126
103 112 126
103 112 126
103 112 127
104 113 127
104 113 127
104 113 128
104 113 128
105 114 128
105 114 128
105 114 129
105 114 129
106 115 129
106 115 130
106 115 130
106 115 130
106 116 130
107 116 131
107 116 131
107 116 131
107 116 131
108 117 132
108 117 132
108 117 132
108 117 133
108 118 133
109 118 133
109 118 133
109 118 134
109 119 134
110 119 134
110 119 134
110 119 135
110 120 135
110 120 135
111 120 135
111 120 136
111 120 136
111 121 136
111 121 136
112 121 137
112 121 137
112 122 137
112 122 137
113 122 138
113 122 138
113 122 138
113 123 138
113 123 139
114 123 139
114 123 139
114 124 139
109 117 133
110 118 133
110 118 134
111 118 134
112 119 135
112 119 135
113 119 136
114 120 136
114 120 137
114 120 137
115 121 137
115 121 138
115 121 138
116 121 138
115 120 137
115 120 137
115 121 138
115 121 138
115 121 138
115 121 138
116 122 139
116 122 139
116 122 139
118 128 144
118 128 144
112 124 140
112 124 141
113 124 141
113 124 141
113 125 141
113 125 141
113 125 141
113 125 141
113 125 142
113 125 142
114 125 142
114 125 142
114 126 142
114 126 142
114 126 142
114 126 142
114 126 143
114 126 143
114 126 143
114 126 143
114 126 143
115 126 143
115 127 143
115 127 143
115 127 143
121 131 147
121 131 148
121 131 148
121 131 148
121 131 148
121 131 148
121 131 148
121 131 148
121 131 148
121 131 148
116 125 141
115 124 140
115 124 140
114 124 139
114 124 139
114 124 139
115 124 140
115 124 140
115 124 140
115 124 140
115 125 140
115 125 140
115 124 140
115 125 140
115 125 140
115 125 140
115 125 140
115 124 140
115 124 140
115 124 140
115 124 139
115 124 139
115 124 139
115 124 139
115 124 139
114 124 139
114 124 139
114 124 139
114 123 139
114 123 139
115 124 139
120 130 146
120 130 146
120 130 146
120 130 146
119 129 146
119 129 146
119 129 146
119 129 146
119 129 145
119 129 145
119 129 145
119 129 145
118 128 145
118 128 145
118 128 145
118 128 144
118 128 144
118 128 144
118 128 144
118 127 144
117 127 144
117 127 143
117 127 143
117 127 143
117 127 143
117 126 143
116 126 142
116 126 142
116 126 142
116 126 142
116 126 142
116 125 141
115 125 141
115 125 141
115 125 141
115 125 141
115 124 140
114 124 140
114 124 140
114 124 140
114 124 139
114 123 139
114 123 139
113 123 139
113 123 138
113 123 138
113 122 138
113 122 138
112 122 137
112 122 137
102 111 125
102 111 125
102 111 125
103 111 126
103 112 126
103 112 126
103 112 127
104 112 127
104 113 127
104 113 127
104 113 128
104 113 128
105 114 128
105 114 128
105 114 129
105 114 129
106 115 129
106 115 130
106 115 130
106 115 130
106 116 130
107 116 131
107 116 131
107 116 131
107 117 131
108 117 132
108 117 132
108 117 132
108 117 133
109 118 133
109 118 133
109 118 133
109 118 134
109 119 134
110 119 134
110 119 134
110 119 135
110 120 135
110 120 135
111 120 135
111 120 136
111 121 136
111 121 136
112 121 136
112 121 137
112 121 137
112 122 137
112 122 137
113 122 138
113 122 138
113 123 138
113 123 138
113 123 139
114 123 139
114 123 139
114 124 139
114 124 140
114 124 140
115 124 140
110 118 133
110 118 134
111 119 135
112 119 135
112 119 136
113 120 136
114 120 137
114 120 137
115 121 137
115 121 138
115 121 138
116 121 138
116 122 139
116 122 139
115 121 138
116 121 138
116 121 138
116 121 139
116 122 139
116 122 139
117 123 140
117 123 140
116 123 140
119 129 145
119 129 145
113 125 141
113 125 141
113 125 141
113 125 142
113 125 142
114 125 142
114 126 142
114 126 142
114 126 142
114 126 142
114 126 143
114 126 143
114 126 143
114 126 143
115 126 143
115 127 143
115 127 143
115 127 143
115 127 143
115 127 144
115 127 144
115 127 144
115 127 144
115 127 144
115 127 144
121 131 148
121 131 148
121 131 148
121 132 148
121 132 148
121 132 148
121 132 148
121 132 148
121 132 149
116 126 141
116 126 141
115 125 140
115 124 140
115 124 140
115 125 140
115 125 140
115 125 140
116 125 141
116 125 141
116 125 141
116 125 141
116 125 141
116 125 141
116 125 141
116 125 141
116 125 141
116 125 140
116 125 140
116 125 140
115 125 140
115 125 140
115 125 140
115 125 140
115 125 140
115 125 140
115 124 140
115 124 140
115 124 140
115 124 139
115 124 139
115 125 140
120 131 147
120 131 147
120 130 147
120 130 147
120 130 147
120 130 147
120 130 147
120 130 146
120 130 146
120 130 146
119 129 146
119 129 146
119 129 146
119 129 146
119 129 145
119 129 145
119 129 145
119 129 145
118 128 145
118 128 145
118 128 144
118 128 144
118 128 144
118 128 144
118 127 144
117 127 144
117 127 143
117 127 143
117 127 143
117 127 143
117 126 143
116 126 142
116 126 142
116 126 142
116 126 142
116 125 141
115 125 141
115 125 141
115 125 141
115 125 141
115 124 140
115 124 140
114 124 140
114 124 140
114 124 139
114 123 139
114 123 139
113 123 139
113 123 139
113 123 138
103 111 126
103 112 126
103 112 126
103 112 127
104 112 127
104 113 127
104 113 127
104 113 128
104 113 128
105 114 128
105 114 128
105 114 129
105 114 129
106 115 129
106 115 130
106 115 130
106 115 130
107 116 130
107 116 131
107 116 131
107 116 131
107 117 131
108 117 132
108 117 132
108 117 132
108 117 133
109 118 133
109 118 133
109 118 133
109 118 134
109 119 134
110 119 134
110 119 134
110 119 135
110 120 135
110 120 135
111 120 135
111 120 136
111 121 136
111 121 136
112 121 136
112 121 137
112 121 137
112 122 137
112 122 137
113 122 138
113 122 138
113 123 138
113 123 138
113 123 139
114 123 139
114 123 139
114 124 139
114 124 140
114 124 140
115 124 140
115 124 140
115 125 141
115 125 141
110 118 134
111 119 135
112 119 135
112 120 136
113 120 136
114 120 137
114 121 137
115 121 138
115 121 138
116 122 139
116 122 139
116 122 139
117 122 139
117 123 140
116 121 139
116 122 139
116 122 139
116 122 139
116 122 139
116 122 139
118 124 141
117 124 141
117 123 140
119 129 146
119 129 146
113 125 142
114 125 142
114 126 142
114 126 142
114 126 142
114 126 142
114 126 143
114 126 143
114 126 143
115 126 143
115 127 143
115 127 143
115 127 143
115 127 144
115 127 144
115 127 144
115 127 144
115 127 144
115 127 144
115 127 144
116 128 144
116 128 144
116 128 144
116 128 145
116 128 145
122 132 149
122 132 149
122 132 149
122 132 149
122 132 149
122 132 149
122 132 149
122 132 149
122 132 149
117 126 142
117 126 142
116 125 141
115 125 140
115 125 140
115 125 141
115 125 141
115 125 141
115 125 141
116 126 141
116 126 141
116 126 141
116 126 141
116 126 141
116 126 141
116 126 141
116 126 141
116 126 141
116 126 141
116 126 141
116 125 141
116 125 141
116 125 141
116 125 141
116 125 141
116 125 141
116 125 141
116 125 140
116 125 140
115 125 140
115 125 140
116 125 141
116 125 141
121 131 148
121 131 148
121 131 148
121 131 148
121 131 147
120 131 147
120 131 147
120 130 147
120 130 147
120 130 147
120 130 147
120 130 147
120 130 146
120 130 146
119 130 146
119 129 146
119 129 146
119 129 146
119 129 145
119 129 145
119 129 145
118 128 145
118 128 145
118 128 145
118 128 144
118 128 144
118 128 144
118 128 144
117 127 144
117 127 143
117 127 143
117 127 143
117 127 143
117 126 143
116 126 142
116 126 142
116 126 142
116 126 142
116 125 142
116 125 141
115 125 141
115 125 141
115 125 141
115 124 140
115 124 140
114 124 140
114 124 140
114 124 139
114 123 139
103 112 127
104 112 127
104 113 127
104 113 127
104 113 128
104 113 128
105 114 128
105 114 128
105 114 129
105 114 129
106 115 129
106 115 130
106 115 130
106 115 130
106 116 130
107 116 131
107 116 131
107 116 131
107 117 131
108 117 132
108 117 132
108 117 132
108 117 133
108 118 133
109 118 133
109 118 133
109 118 134
109 119 134
110 119 134
110 119 134
110 119 135
110 120 135
110 120 135
111 120 135
111 120 136
111 120 136
111 121 136
111 121 136
112 121 137
112 121 137
112 122 137
112 122 137
113 122 138
113 122 138
113 123 138
113 123 138
113 123 139
114 123 139
114 123 139
114 124 139
114 124 140
114 124 140
115 124 140
115 124 140
115 125 141
115 125 141
115 125 141
115 125 141
116 125 141
111 119 135
111 119 135
112 120 136
113 120 136
114 121 137
114 121 138
115 121 138
115 122 138
116 122 139
116 122 139
116 122 139
117 123 140
117 123 140
117 123 140
116 122 139
117 122 139
117 122 140
117 123 140
117 123 140
117 123 140
118 124 141
118 124 141
117 124 141
120 130 146
120 130 146
114 126 142
114 126 142
114 126 143
114 126 143
114 126 143
115 126 143
115 127 143
115 127 143
115 127 144
115 127 144
115 127 144
115 127 144
115 127 144
115 127 144
115 128 144
116 128 144
116 128 144
116 128 145
116 128 145
116 128 145
116 128 145
116 128 145
116 128 145
116 128 145
116 128 145
122 132 149
122 132 149
122 133 149
122 133 149
122 133 150
122 133 150
122 133 150
122 133 150
122 133 150
117 127 143
117 127 143
116 125 141
116 126 141
116 126 141
116 126 141
116 126 141
116 126 141
116 126 141
117 127 142
117 127 142
117 127 142
117 127 142
117 127 142
117 127 142
117 127 142
117 127 142
117 127 142
117 126 142
117 126 142
117 126 142
117 126 142
117 126 142
116 126 141
116 126 141
116 126 141
116 126 141
116 126 141
116 125 141
116 125 141
116 125 140
116 126 142
116 126 141
122 132 149
121 132 148
121 132 148
121 131 148
121 131 148
121 131 148
121 131 148
121 131 148
121 131 148
121 131 148
121 131 147
120 131 147
120 130 147
120 130 147
120 130 147
120 130 147
120 130 147
120 130 146
120 130 146
119 129 146
119 129 146
119 129 146
119 129 146
119 129 145
119 129 145
119 129 145
118 128 145
118 128 145
118 128 144
118 128 144
118 128 144
118 128 144
117 127 144
117 127 143
117 127 143
117 127 143
117 127 143
117 126 143
116 126 142
116 126 142
116 126 142
116 126 142
116 125 142
116 125 141
115 125 141
115 125 141
115 125 141
115 124 140
115 124 140
104 113 127
104 113 128
104 113 128
105 114 128
105 114 128
105 114 129
105 114 129
106 115 129
106 115 130
106 115 130
106 115 130
106 116 130
107 116 131
107 116 131
107 116 131
107 116 131
108 117 132
108 117 132
108 117 132
108 117 132
108 118 133
109 118 133
109 118 133
109 118 133
109 119 134
110 119 134
110 119 134
110 119 135
110 119 135
110 120 135
111 120 135
111 120 136
111 120 136
111 121 136
111 121 136
112 121 137
112 121 137
112 122 137
112 122 137
112 122 138
113 122 138
113 122 138
113 123 138
113 123 139
113 123 139
114 123 139
114 124 139
114 124 140
114 124 140
114 124 140
115 124 140
115 125 140
115 125 141
115 125 141
115 125 141
116 125 141
116 126 142
116 126 142
116 126 142
111 120 135
112 120 136
113 120 136
113 121 137
114 121 138
115 121 138
115 122 139
116 122 139
116 122 139
117 123 140
117 123 140
117 123 140
118 123 141
118 124 141
117 123 140
117 123 140
117 123 140
117 123 140
117 123 141
117 123 141
119 125 142
118 125 142
118 124 142
120 130 147
120 130 147
114 126 143
114 126 143
115 127 143
115 127 143
115 127 143
115 127 144
115 127 144
115 127 144
115 127 144
115 127 144
116 128 144
116 128 144
116 128 145
116 128 145
116 128 145
116 128 145
116 128 145
116 128 145
116 128 145
116 128 145
116 129 145
116 129 145
117 129 146
117 129 146
117 129 146
123 133 150
123 133 150
123 133 150
123 133 150
123 133 150
123 133 150
123 133 150
123 133 150
123 133 150
118 127 143
118 127 143
117 126 142
117 126 142
117 126 142
117 127 142
117 127 142
117 127 142
117 127 142
118 128 143
118 128 143
118 128 143
118 128 143
118 128 143
118 128 143
118 127 143
118 127 143
118 127 142
118 127 142
118 127 142
118 127 142
118 127 142
117 127 142
117 127 142
117 127 142
117 126 142
117 126 142
117 126 142
116 126 141
116 126 141
116 125 141
117 127 142
117 126 142
122 132 149
122 132 149
122 132 149
122 132 149
122 132 149
122 132 149
121 132 149
121 132 148
121 132 148
121 131 148
121 131 148
121 131 148
121 131 148
121 131 148
121 131 147
121 131 147
120 131 147
120 130 147
120 130 147
120 130 147
120 130 147
120 130 146
120 130 146
119 130 146
119 129 146
119 129 146
119 129 146
119 129 145
119 129 145
119 129 145
118 128 145
118 128 145
118 128 144
118 128 144
118 128 144
118 128 144
117 127 144
117 127 143
117 127 143
117 127 143
117 127 143
117 126 143
116 126 142
116 126 142
116 126 142
116 126 142
116 125 141
115 125 141
115 125 141
105 114 128
105 114 128
105 114 129
105 114 129
106 115 129
106 115 129
106 115 130
106 115 130
106 115 130
107 116 131
107 116 131
107 116 131
107 116 131
107 117 132
108 117 132
108 117 132
108 117 132
108 118 133
109 118 133
109 118 133
109 118 133
109 118 134
109 119 134
110 119 134
110 119 134
110 119 135
110 120 135
110 120 135
111 120 135
111 120 136
111 121 136
111 121 136
112 121 136
112 121 137
112 121 137
112 122 137
112 122 137
113 122 138
113 122 138
113 123 138
113 123 138
113 123 139
114 123 139
114 123 139
114 124 139
114 124 140
114 124 140
115 124 140
115 124 140
115 125 141
115 125 141
115 125 141
116 125 141
116 125 142
116 126 142
116 126 142
116 126 142
116 126 142
117 126 143
112 120 136
112 120 136
113 121 137
114 121 138
114 122 138
115 122 139
116 122 139
116 123 139
117 123 140
117 123 140
117 123 141
118 124 141
118 124 141
118 124 141
117 123 140
118 123 141
118 123 141
118 123 141
118 124 141
118 124 141
119 125 142
119 125 142
118 125 142
120 131 147
121 131 147
115 127 143
115 127 144
115 127 144
115 127 144
115 127 144
115 127 144
115 128 144
116 128 144
116 128 145
116 128 145
116 128 145
116 128 145
116 128 145
116 128 145
116 128 145
116 129 145
116 129 145
117 129 146
117 129 146
117 129 146
117 129 146
117 129 146
117 129 146
117 129 146
117 129 146
123 133 150
123 133 150
123 133 150
123 133 150
123 133 151
123 134 151
123 134 151
123 134 151
123 134 151
118 128 144
119 128 144
117 127 142
118 127 142
118 127 142
118 127 142
118 127 142
118 128 142
118 128 142
119 128 143
119 128 143
119 128 143
119 128 143
119 128 143
119 128 143
119 128 143
119 128 143
119 128 143
119 128 143
119 128 143
119 128 143
118 128 143
118 128 143
118 128 143
118 127 143
118 127 142
118 127 142
117 127 142
117 127 142
117 126 141
117 127 143
117 127 143
117 127 143
122 133 150
122 133 150
122 133 150
122 133 149
122 132 149
122 132 149
122 132 149
122 132 149
122 132 149
122 132 149
122 132 149
121 132 148
121 132 148
121 131 148
121 131 148
121 131 148
121 131 148
121 131 148
121 131 148
121 131 147
120 131 147
120 130 147
120 130 147
120 130 147
120 130 147
120 130 146
120 130 146
119 129 146
119 129 146
119 129 146
119 129 145
119 129 145
119 129 145
119 128 145
118 128 145
118 128 145
118 128 144
118 128 144
118 128 144
118 127 144
117 127 144
117 127 143
117 127 143
117 127 143
117 126 143
116 126 142
116 126 142
116 126 142
116 126 142
105 114 129
105 114 129
106 115 129
106 115 130
106 115 130
106 115 130
107 116 130
107 116 131
107 116 131
107 116 131
107 117 131
108 117 132
108 117 132
108 117 132
108 117 132
108 118 133
109 118 133
109 118 133
109 118 134
109 119 134
110 119 134
110 119 134
110 119 135
110 120 135
110 120 135
111 120 135
111 120 136
111 120 136
111 121 136
111 121 136
112 121 137
112 121 137
112 122 137
112 122 137
112 122 138
113 122 138
113 122 138
113 123 138
113 123 139
113 123 139
114 123 139
114 123 139
114 124 140
114 124 140
114 124 140
115 124 140
115 125 140
115 125 141
115 125 141
115 125 141
116 125 141
116 126 142
116 126 142
116 126 142
116 126 142
117 126 142
117 127 143
117 127 143
117 127 143
112 120 136
112 121 137
113 121 137
114 122 138
115 122 139
115 122 139
116 123 140
117 123 140
117 123 140
117 124 141
118 124 141
118 124 141
118 124 142
119 124 142
119 125 142
118 124 141
118 124 141
118 124 141
118 124 141
118 124 141
119 125 143
119 125 143
119 125 143
121 131 148
121 131 148
115 127 144
115 127 144
115 127 144
115 128 144
116 128 144
116 128 145
116 128 145
116 128 145
116 128 145
116 128 145
116 128 145
116 128 145
116 129 145
117 129 146
117 129 146
117 129 146
117 129 146
117 129 146
117 129 146
117 129 146
117 129 146
117 129 146
117 129 146
117 130 147
117 130 147
123 134 151
123 134 151
123 134 151
123 134 151
123 134 151
124 134 151
124 134 151
124 134 151
124 134 151
119 129 144
119 129 144
118 128 143
118 128 143
118 128 143
119 128 143
119 128 143
119 128 143
119 129 143
120 129 143
120 129 144
120 129 144
120 129 144
120 129 144
120 129 144
120 129 144
120 129 144
120 129 144
120 129 144
119 129 144
119 129 143
119 129 143
119 128 143
119 128 143
119 128 143
119 128 143
118 128 143
118 127 142
117 127 142
119 128 143
118 128 143
118 128 143
118 127 143
123 133 150
123 133 150
123 133 150
123 133 150
123 133 150
122 133 150
122 133 150
122 133 150
122 132 149
122 132 149
122 132 149
122 132 149
122 132 149
122 132 149
122 132 149
121 132 149
121 132 148
121 131 148
121 131 148
121 131 148
121 131 148
121 131 148
121 131 147
120 131 147
120 130 147
120 130 147
120 130 147
120 130 147
120 130 146
120 130 146
120 130 146
119 129 146
119 129 146
119 129 146
119 129 145
119 129 145
119 129 145
118 128 145
118 128 145
118 128 144
118 128 144
118 128 144
118 128 144
117 127 144
117 127 143
117 127 143
117 127 143
117 127 143
117 126 143
106 115 130
106 115 130
106 115 130
106 115 130
107 116 131
107 116 131
107 116 131
107 116 131
108 117 132
108 117 132
108 117 132
108 117 132
108 118 133
109 118 133
109 118 133
109 118 133
109 118 134
109 119 134
110 119 134
110 119 134
110 119 135
110 120 135
110 120 135
111 120 135
111 120 136
111 120 136
111 121 136
111 121 136
112 121 137
112 121 137
112 122 137
112 122 137
113 122 138
113 122 138
113 122 138
113 123 138
113 123 139
114 123 139
114 123 139
114 124 139
114 124 140
114 124 140
114 124 140
115 124 140
115 125 140
115 125 141
115 125 141
115 125 141
116 125 141
116 126 142
116 126 142
116 126 142
116 126 142
117 126 143
117 127 143
117 127 143
117 127 143
117 127 143
117 127 144
112 121 137
113 121 137
114 122 138
115 122 139
115 122 139
116 123 140
116 123 140
117 123 140
117 124 141
118 124 141
118 124 141
119 124 142
119 125 142
119 125 142
119 125 143
120 125 143
118 124 142
119 124 142
119 124 142
119 124 142
120 126 143
120 126 143
119 126 143
121 131 148
121 131 148
115 127 144
116 128 144
116 128 144
116 128 145
116 128 145
116 128 145
116 128 145
116 128 145
116 128 145
116 129 145
117 129 146
117 129 146
117 129 146
117 129 146
117 129 146
117 129 146
117 129 146
117 129 146
117 129 146
117 130 147
117 130 147
117 130 147
118 130 147
118 130 147
118 130 147
124 134 151
124 134 151
124 134 151
124 134 151
124 134 151
124 134 151
124 134 151
124 134 151
124 134 151
120 129 145
120 130 145
119 128 143
119 129 143
119 129 143
119 129 143
119 129 143
120 129 143
121 130 145
121 130 145
120 129 143
120 129 144
120 129 144
120 130 144
120 130 144
120 130 144
120 130 144
120 130 144
120 130 144
120 129 144
120 129 144
120 129 144
120 129 144
120 129 143
119 129 143
119 128 143
118 128 142
120 129 144
120 129 144
119 129 144
119 129 144
119 128 144
118 128 144
123 134 151
123 134 151
123 133 150
123 133 150
123 133 150
123 133 150
123 133 150
123 133 150
123 133 150
123 133 150
122 133 150
122 133 150
122 133 149
122 132 149
122 132 149
122 132 149
122 132 149
122 132 149
122 132 149
121 132 148
121 132 148
121 131 148
121 131 148
121 131 148
121 131 148
121 131 148
121 131 147
120 131 147
120 130 147
120 130 147
120 130 147
120 130 147
120 130 146
120 130 146
119 129 146
119 129 146
119 129 146
119 129 145
119 129 145
119 129 145
118 128 145
118 128 145
118 128 144
118 128 144
118 128 144
118 128 144
117 127 144
117 127 143
117 127 143
106 115 130
107 116 130
107 116 131
107 116 131
107 116 131
107 117 131
108 117 132
108 117 132
108 117 132
108 117 132
108 118 133
109 118 133
109 118 133
109 118 133
109 119 134
109 119 134
110 119 134
110 119 134
110 119 135
110 120 135
111 120 135
111 120 135
111 120 136
111 121 136
111 121 136
112 121 136
112 121 137
112 121 137
112 122 137
112 122 137
113 122 138
113 122 138
113 123 138
113 123 138
113 123 139
114 123 139
114 123 139
114 124 139
114 124 140
114 124 140
115 124 140
115 124 140
115 125 141
115 125 141
115 125 141
115 125 141
116 125 141
116 126 142
116 126 142
116 126 142
116 126 142
117 126 143
117 127 143
117 127 143
117 127 143
117 127 143
117 127 144
118 128 144
118 128 144
113 121 137
113 122 138
114 122 138
115 122 139
116 123 139
116 123 140
117 123 140
117 124 141
118 124 141
118 124 142
119 124 142
119 125 142
119 125 142
119 125 143
120 125 143
120 126 143
120 126 143
120 126 144
119 125 142
119 125 142
120 126 144
120 126 144
119 126 143
121 132 148
121 132 148
116 128 145
116 128 145
116 128 145
116 128 145
116 128 145
116 128 145
116 129 145
117 129 146
117 129 146
117 129 146
117 129 146
117 129 146
117 129 146
117 129 146
117 129 146
117 130 146
117 130 147
117 130 147
118 130 147
118 130 147
118 130 147
118 130 147
118 130 147
118 130 147
118 130 147
124 134 151
124 134 151
124 134 151
124 134 152
124 134 152
124 134 152
124 135 152
124 135 152
124 135 152
120 130 145
121 130 145
120 129 144
120 129 144
120 129 144
120 130 144
120 130 144
120 130 144
122 131 145
122 131 145
122 131 145
122 131 145
122 131 145
122 131 145
122 131 145
122 131 145
120 129 143
120 129 143
120 129 143
120 129 143
120 129 143
121 131 145
121 131 145
121 130 145
121 130 145
121 130 145
121 130 145
120 130 145
120 130 145
120 130 144
120 129 144
120 129 144
119 129 144
124 134 151
124 134 151
123 134 151
123 134 151
123 134 151
123 134 151
123 134 151
123 133 150
123 133 150
123 133 150
123 133 150
123 133 150
123 133 150
123 133 150
122 133 150
122 133 149
122 132 149
122 132 149
122 132 149
122 132 149
122 132 149
122 132 149
122 132 149
121 132 148
121 131 148
121 131 148
121 131 148
121 131 148
121 131 148
121 131 147
120 131 147
120 130 147
120 130 147
120 130 147
120 130 147
120 130 146
120 130 146
119 129 146
119 129 146
119 129 146
119 129 145
119 129 145
119 129 145
118 128 145
118 128 145
118 128 144
118 128 144
118 128 144
118 128 144
107 116 131
107 116 131
107 116 131
107 117 132
108 117 132
108 117 132
108 117 132
108 117 133
108 118 133
109 118 133
109 118 133
109 118 134
109 119 134
110 119 134
110 119 134
110 119 135
110 119 135
110 120 135
111 120 135
111 120 136
111 120 136
111 121 136
111 121 136
112 121 136
112 121 137
112 121 137
112 122 137
112 122 137
113 122 138
113 122 138
113 123 138
113 123 138
113 123 139
114 123 139
114 123 139
114 124 139
114 124 140
114 124 140
115 124 140
115 124 140
115 125 141
115 125 141
115 125 141
115 125 141
116 125 141
116 126 142
116 126 142
116 126 142
116 126 142
117 126 143
117 127 143
117 127 143
117 127 143
117 127 143
117 127 144
118 128 144
118 128 144
118 128 144
118 128 144
113 122 138
113 122 138
114 122 139
115 123 139
116 123 140
116 123 140
117 124 141
118 124 141
118 124 142
118 125 142
119 125 142
119 125 143
119 125 143
120 125 143
120 126 143
120 126 144
120 126 144
120 126 144
121 126 144
120 126 144
120 126 144
120 126 144
120 126 144
122 132 149
122 132 149
116 128 145
116 128 145
116 128 145
116 128 145
116 129 145
117 129 146
117 129 146
117 129 146
117 129 146
117 129 146
117 129 146
117 129 146
117 129 146
117 130 147
117 130 147
118 130 147
118 130 147
118 130 147
118 130 147
118 130 147
118 130 147
118 130 147
118 130 147
118 130 148
118 130 148
124 134 152
124 135 152
124 135 152
124 135 152
124 135 152
124 135 152
124 135 152
124 135 152
124 135 152
121 130 145
122 131 145
122 131 145
122 131 146
121 130 144
121 130 144
121 130 144
121 130 144
122 132 146
122 132 146
122 132 146
122 132 146
122 132 146
122 132 146
122 132 146
122 132 146
122 132 146
122 132 146
122 132 146
122 131 145
122 131 145
122 131 145
122 131 145
122 131 145
122 131 145
121 131 145
121 131 145
121 131 145
121 130 145
121 130 145
121 130 145
120 130 145
120 129 145
124 134 151
124 134 151
124 134 151
124 134 151
124 134 151
124 134 151
123 134 151
123 134 151
123 134 151
123 134 151
123 133 150
123 133 150
123 133 150
123 133 150
123 133 150
123 133 150
123 133 150
122 133 150
122 133 150
122 133 149
122 132 149
122 132 149
122 132 149
122 132 149
122 132 149
122 132 149
121 132 148
121 131 148
121 131 148
121 131 148
121 131 148
121 131 148
121 131 147
120 131 147
120 130 147
120 130 147
120 130 147
120 130 147
120 130 146
120 130 146
119 129 146
119 129 146
119 129 146
119 129 145
119 129 145
119 129 145
118 128 145
118 128 145
118 128 144
107 116 131
108 117 132
108 117 132
108 117 132
108 117 132
108 118 133
109 118 133
109 118 133
109 118 133
109 118 134
109 119 134
110 119 134
110 119 134
110 119 135
110 120 135
110 120 135
111 120 135
111 120 136
111 120 136
111 121 136
111 121 136
112 121 136
112 121 137
112 121 137
112 122 137
112 122 137
113 122 138
113 122 138
113 123 138
113 123 138
113 123 139
114 123 139
114 123 139
114 124 139
114 124 140
114 124 140
114 124 140
115 124 140
115 125 140
115 125 141
115 125 141
115 125 141
116 125 141
116 126 142
116 126 142
116 126 142
116 126 142
117 126 142
117 127 143
117 127 143
117 127 143
117 127 143
117 127 144
118 127 144
118 128 144
118 128 144
118 128 144
118 128 145
118 128 145
113 122 138
114 122 138
115 123 139
115 123 140
116 123 140
117 124 141
117 124 141
118 124 141
118 125 142
119 125 142
119 125 143
119 125 143
120 126 143
120 126 143
120 126 144
120 126 144
121 126 144
121 126 144
121 126 144
121 127 144
121 127 144
120 127 144
120 127 144
122 132 149
122 132 149
116 128 145
116 128 145
116 129 145
117 129 146
117 129 146
117 129 146
117 129 146
117 129 146
117 129 146
117 129 146
117 130 147
117 130 147
117 130 147
118 130 147
118 130 147
118 130 147
118 130 147
118 130 147
118 130 147
118 130 147
118 130 148
118 131 148
118 131 148
118 131 148
118 131 148
124 135 152
124 135 152
124 135 152
124 135 152
124 135 152
125 135 152
125 135 152
125 135 152
125 135 152
125 135 152
122 131 146
122 132 146
123 132 146
123 132 146
123 132 146
123 132 146
123 132 146
123 132 146
123 132 146
123 132 146
123 132 146
123 132 146
123 132 146
123 132 146
123 132 146
123 132 146
123 132 146
123 132 146
123 132 146
123 132 146
123 132 146
123 132 146
122 132 146
122 132 146
122 132 146
122 131 146
122 131 145
122 131 145
121 131 145
121 131 145
121 130 145
120 130 145
124 135 152
124 135 152
124 134 152
124 134 152
124 134 151
124 134 151
124 134 151
124 134 151
124 134 151
124 134 151
123 134 151
123 134 151
123 134 151
123 134 151
123 133 150
123 133 150
123 133 150
123 133 150
123 133 150
123 133 150
122 133 150
122 133 150
122 133 149
122 132 149
122 132 149
122 132 149
122 132 149
122 132 149
122 132 149
121 132 148
121 131 148
121 131 148
121 131 148
121 131 148
121 131 148
121 131 147
120 131 147
120 130 147
120 130 147
120 130 147
120 130 147
120 130 146
120 130 146
119 129 146
119 129 146
119 129 146
119 129 145
119 129 145
119 129 145
108 117 132
108 117 132
108 117 132
108 118 133
109 118 133
109 118 133
109 118 133
109 118 134
109 119 134
110 119 134
110 119 134
110 119 135
110 120 135
110 120 135
111 120 135
111 120 136
111 120 136
111 121 136
111 121 136
112 121 136
112 121 137
112 121 137
112 122 137
112 122 137
113 122 138
113 122 138
113 122 138
113 123 138
113 123 139
114 123 139
114 123 139
114 124 139
114 124 140
114 124 140
114 124 140
115 124 140
115 125 140
115 125 141
115 125 141
115 125 141
116 125 141
116 126 142
116 126 142
116 126 142
116 126 142
116 126 142
117 126 143
117 127 143
117 127 143
117 127 143
117 127 143
118 127 144
118 128 144
118 128 144
118 128 144
118 128 144
118 128 145
119 128 145
119 129 145
114 122 138
114 122 139
115 123 139
116 123 140
116 124 140
117 124 141
118 124 141
118 125 142
119 125 142
119 125 143
119 125 143
120 126 143
120 126 143
120 126 144
121 126 144
121 126 144
121 126 144
121 127 144
121 127 145
121 127 145
121 127 145
121 127 145
120 127 144
122 132 149
122 132 149
116 129 145
117 129 146
117 129 146
117 129 146
117 129 146
117 129 146
117 129 146
117 129 146
117 130 147
117 130 147
117 130 147
118 130 147
118 130 147
118 130 147
118 130 147
118 130 147
118 130 147
118 130 147
118 130 148
118 131 148
118 131 148
118 131 148
118 131 148
118 131 148
119 131 148
124 135 152
125 135 152
125 135 152
125 135 152
125 135 152
125 135 152
125 135 152
125 135 152
125 135 153
125 135 153
123 132 146
123 132 146
123 132 146
123 133 146
123 133 146
124 133 146
124 133 146
124 133 146
124 133 146
124 133 146
124 133 146
124 133 146
124 133 146
124 133 146
124 133 146
124 133 146
124 133 146
123 133 146
123 133 146
123 133 146
123 133 146
123 132 146
123 132 146
123 132 146
123 132 146
123 132 146
122 132 146
122 132 146
122 131 146
122 131 146
121 131 145
121 130 145
124 135 152
124 135 152
124 135 152
124 135 152
124 135 152
124 134 152
124 134 152
124 134 151
124 134 151
124 134 151
124 134 151
124 134 151
124 134 151
123 134 151
123 134 151
123 134 151
123 134 151
123 133 150
123 133 150
123 133 150
123 133 150
123 133 150
123 133 150
122 133 150
122 133 150
122 132 149
122 132 149
122 132 149
122 132 149
122 132 149
122 132 149
121 132 148
121 132 148
121 131 148
121 131 148
121 131 148
121 131 148
121 131 148
121 131 147
120 131 147
120 130 147
120 130 147
120 130 147
120 130 146
120 130 146
119 130 146
119 129 146
119 129 146
119 129 146
108 117 132
108 118 133
109 118 133
109 118 133
109 118 133
109 118 134
109 119 134
110 119 134
110 119 134
110 119 135
110 120 135
110 120 135
111 120 135
111 120 136
111 120 136
111 121 136
111 121 136
112 121 136
112 121 137
112 121 137
112 122 137
112 122 137
113 122 138
113 122 138
113 122 138
113 123 138
113 123 139
113 123 139
114 123 139
114 123 139
114 124 139
114 124 140
114 124 140
115 124 140
115 124 140
115 125 141
115 125 141
115 125 141
116 125 141
116 125 141
116 126 142
116 126 142
116 126 142
116 126 142
117 126 143
117 127 143
117 127 143
117 127 143
117 127 143
117 127 144
118 128 144
118 128 144
118 128 144
118 128 144
118 128 145
118 128 145
119 129 145
119 129 145
119 129 145
114 122 139
114 123 139
115 123 140
116 124 140
117 124 141
117 124 141
118 125 142
118 125 142
119 125 142
119 125 143
120 126 143
120 126 143
120 126 144
120 126 144
121 126 144
121 127 144
121 127 145
121 127 145
121 127 145
121 127 145
121 127 145
121 127 145
120 127 145
122 133 149
122 133 150
117 129 146
117 129 146
117 129 146
117 129 146
117 129 146
117 129 146
117 129 146
117 130 147
117 130 147
118 130 147
118 130 147
118 130 147
118 130 147
118 130 147
118 130 147
118 130 147
118 130 148
118 131 148
118 131 148
118 131 148
118 131 148
118 131 148
119 131 148
119 131 148
119 131 148
125 135 152
125 135 152
125 135 152
125 135 152
125 135 152
125 135 153
125 135 153
125 135 153
125 135 153
125 135 153
123 132 146
123 133 146
124 133 146
124 133 146
124 133 147
124 133 147
124 133 147
124 133 147
124 133 147
124 133 147
124 134 147
124 134 147
124 134 147
124 133 147
124 133 147
124 133 147
124 133 147
124 133 147
124 133 147
124 133 146
124 133 146
124 133 146
124 133 146
124 133 146
123 133 146
123 133 146
123 132 146
123 132 146
123 132 146
122 132 146
122 131 146
125 135 152
125 135 152
125 135 152
124 135 152
124 135 152
124 135 152
124 135 152
124 135 152
124 135 152
124 135 152
124 134 152
124 134 151
124 134 151
124 134 151
124 134 151
124 134 151
124 134 151
123 134 151
123 134 151
123 134 151
123 133 150
123 133 150
123 133 150
123 133 150
123 133 150
123 133 150
122 133 150
122 133 150
122 133 149
122 132 149
122 132 149
122 132 149
122 132 149
122 132 149
122 132 149
121 132 148
121 131 148
121 131 148
121 131 148
121 131 148
121 131 148
121 131 147
120 131 147
120 130 147
120 130 147
120 130 147
120 130 147
120 130 146
120 130 146
119 129 146
109 118 133
109 118 133
109 118 133
109 118 134
109 119 134
110 119 134
110 119 134
110 119 135
110 119 135
110 120 135
111 120 135
111 120 135
111 120 136
111 121 136
111 121 136
112 121 136
112 121 137
112 121 137
112 122 137
112 122 137
112 122 138
113 122 138
113 122 138
113 123 138
113 123 138
113 123 139
114 123 139
114 123 139
114 124 139
114 124 140
114 124 140
115 124 140
115 124 140
115 125 141
115 125 141
115 125 141
115 125 141
116 125 141
116 126 142
116 126 142
116 126 142
116 126 142
117 126 142
117 127 143
117 127 143
117 127 143
117 127 143
117 127 143
118 127 144
118 128 144
118 128 144
118 128 144
118 128 144
118 128 145
119 128 145
119 129 145
119 129 145
119 129 145
119 129 146
114 123 139
114 123 139
115 123 140
116 124 140
117 124 141
117 124 141
118 125 142
118 125 142
119 125 143
119 126 143
120 126 143
120 126 144
120 126 144
121 126 144
121 127 144
121 127 145
121 127 145
121 127 145
121 127 145
121 127 145
121 127 145
121 127 145
121 127 145
122 133 150
123 133 150
117 129 146
117 129 146
117 129 146
117 129 146
117 129 146
117 130 147
117 130 147
117 130 147
118 130 147
118 130 147
118 130 147
118 130 147
118 130 147
118 130 147
118 130 148
118 131 148
118 131 148
118 131 148
118 131 148
118 131 148
119 131 148
119 131 148
119 131 148
119 131 148
119 131 148
125 135 152
125 135 152
125 135 153
125 135 153
125 135 153
125 135 153
125 135 153
125 136 153
125 136 153
125 136 153
125 136 153
124 133 147
124 133 147
124 134 147
125 134 147
125 134 147
125 134 147
125 134 147
125 134 147
125 134 147
125 134 147
125 134 147
125 134 147
125 134 147
125 134 147
125 134 147
125 134 147
125 134 147
125 134 147
125 134 147
124 134 147
124 134 147
124 133 147
124 133 147
124 133 147
124 133 146
124 133 146
123 133 146
123 132 146
123 132 146
122 132 146
125 135 153
125 135 152
125 135 152
125 135 152
125 135 152
125 135 152
124 135 152
124 135 152
124 135 152
124 135 152
124 135 152
124 135 152
124 134 152
124 134 152
124 134 151
124 134 151
124 134 151
124 134 151
124 134 151
123 134 151
123 134 151
123 134 151
123 134 151
123 133 150
123 133 150
123 133 150
123 133 150
123 133 150
123 133 150
122 133 150
122 133 149
122 132 149
122 132 149
122 132 149
122 132 149
122 132 149
122 132 149
121 132 148
121 132 148
121 131 148
121 131 148
121 131 148
121 131 148
121 131 147
120 131 147
120 130 147
120 130 147
120 130 147
120 130 147
120 130 146
109 118 133
109 118 134
109 119 134
110 119 134
110 119 134
110 119 135
110 119 135
110 120 135
111 120 135
111 120 135
111 120 136
111 120 136
111 121 136
111 121 136
112 121 137
112 121 137
112 122 137
112 122 137
112 122 138
113 122 138
113 122 138
113 123 138
113 123 138
113 123 139
114 123 139
114 123 139
114 124 139
114 124 140
114 124 140
114 124 140
115 124 140
115 125 140
115 125 141
115 125 141
115 125 141
116 125 141
116 125 141
116 126 142
116 126 142
116 126 142
116 126 142
117 126 143
117 127 143
117 127 143
117 127 143
117 127 143
117 127 144
118 127 144
118 128 144
118 128 144
118 128 144
118 128 145
118 128 145
119 129 145
119 129 145
119 129 145
119 129 145
119 129 146
119 129 146
114 123 139
114 123 139
115 124 140
116 124 141
117 124 141
118 125 142
118 125 142
119 125 142
119 125 143
120 126 143
120 126 144
120 126 144
121 126 144
121 127 144
121 127 145
121 127 145
121 127 145
122 127 145
122 127 145
122 127 145
121 127 145
121 127 145
121 127 145
123 133 150
123 133 150
117 129 146
117 129 146
117 129 146
117 129 146
117 130 147
117 130 147
117 130 147
118 130 147
118 130 147
118 130 147
118 130 147
118 130 147
118 130 148
118 131 148
118 131 148
118 131 148
118 131 148
118 131 148
119 131 148
119 131 148
119 131 148
119 131 148
119 131 148
119 131 149
119 131 149
125 135 153
125 135 153
125 135 153
125 135 153
125 136 153
125 136 153
125 136 153
125 136 153
125 136 153
125 136 153
125 136 153
125 136 153
125 134 147
125 134 147
125 134 147
125 134 147
125 134 147
125 134 147
125 134 147
125 135 147
125 135 147
125 135 147
125 135 147
125 135 147
125 135 147
125 135 147
125 134 147
125 134 147
125 134 147
125 134 147
125 134 147
125 134 147
125 134 147
125 134 147
125 134 147
124 134 147
124 133 147
124 133 147
124 133 146
123 133 146
125 136 153
125 135 153
125 135 153
125 135 153
125 135 153
125 135 152
125 135 152
125 135 152
125 135 152
125 135 152
124 135 152
124 135 152
124 135 152
124 135 152
124 135 152
124 135 152
124 134 152
124 134 151
124 134 151
124 134 151
124 134 151
124 134 151
123 134 151
123 134 151
123 134 151
123 134 151
123 133 150
123 133 150
123 133 150
123 133 150
123 133 150
123 133 150
122 133 150
122 133 150
122 132 149
122 132 149
122 132 149
122 132 149
122 132 149
122 132 149
121 132 148
121 132 148
121 131 148
121 131 148
121 131 148
121 131 148
121 131 148
121 131 147
120 131 147
120 130 147
120 130 147
109 119 134
110 119 134
110 119 134
110 119 134
110 119 135
110 120 135
110 120 135
111 120 135
111 120 136
111 120 136
111 121 136
111 121 136
112 121 137
112 121 137
112 121 137
112 122 137
112 122 137
113 122 138
113 122 138
113 122 138
113 123 138
113 123 139
113 123 139
114 123 139
114 123 139
114 124 139
114 124 140
114 124 140
115 124 140
115 124 140
115 125 141
115 125 141
115 125 141
115 125 141
116 125 141
116 126 142
116 126 142
116 126 142
116 126 142
116 126 142
117 126 143
117 127 143
117 127 143
117 127 143
117 127 143
117 127 144
118 128 144
118 128 144
118 128 144
118 128 144
118 128 145
118 128 145
119 129 145
119 129 145
119 129 145
119 129 146
119 129 146
119 129 146
120 130 146
114 123 139
115 123 139
116 124 140
116 124 141
117 124 141
118 125 142
118 125 142
119 125 143
119 126 143
120 126 143
120 126 144
120 126 144
121 127 144
121 127 145
121 127 145
121 127 145
122 127 145
122 127 145
122 127 145
122 128 145
122 128 145
121 128 145
121 127 145
123 133 150
123 133 150
117 129 146
117 129 146
117 129 146
117 130 147
117 130 147
118 130 147
118 130 147
118 130 147
118 130 147
118 130 147
118 130 147
118 130 148
118 131 148
118 131 148
118 131 148
118 131 148
118 131 148
119 131 148
119 131 148
119 131 148
119 131 148
119 131 148
119 131 149
119 131 149
119 131 149
125 135 153
125 135 153
125 135 153
125 136 153
125 136 153
125 136 153
125 136 153
125 136 153
125 136 153
125 136 153
125 136 153
125 136 153
125 134 147
125 134 147
125 135 147
126 135 147
126 135 147
126 135 147
126 135 147
126 135 147
126 135 147
126 135 147
126 135 148
127 136 148
128 137 149
128 137 149
127 136 148
126 135 147
126 135 147
126 135 147
126 135 147
125 135 147
125 134 147
125 134 147
125 134 147
125 134 147
125 134 147
124 134 147
124 133 147
124 133 146
125 136 153
125 136 153
125 136 153
125 136 153
125 135 153
125 135 153
125 135 153
125 135 152
125 135 152
125 135 152
125 135 152
125 135 152
124 135 152
124 135 152
124 135 152
124 135 152
124 135 152
124 135 152
124 134 152
124 134 151
124 134 151
124 134 151
124 134 151
124 134 151
124 134 151
123 134 151
123 134 151
123 134 151
123 133 150
123 133 150
123 133 150
123 133 150
123 133 150
123 133 150
122 133 150
122 133 150
122 132 149
122 132 149
122 132 149
122 132 149
122 132 149
122 132 149
121 132 148
121 132 148
121 131 148
121 131 148
121 131 148
121 131 148
121 131 148
121 131 147
120 131 147
110 119 134
110 119 134
110 119 135
110 120 135
110 120 135
111 120 135
111 120 136
111 120 136
111 121 136
111 121 136
112 121 136
112 121 137
112 121 137
112 122 137
112 122 137
112 122 138
113 122 138
113 122 138
113 123 138
113 123 138
113 123 139
114 123 139
114 123 139
114 124 139
114 124 140
114 124 140
114 124 140
115 124 140
115 124 140
115 125 141
115 125 141
115 125 141
115 125 141
116 125 141
116 126 142
116 126 142
116 126 142
116 126 142
117 126 142
117 127 143
117 127 143
117 127 143
117 127 143
117 127 143
118 127 144
118 128 144
118 128 144
118 128 144
118 128 144
118 128 145
118 128 145
119 129 145
119 129 145
119 129 145
119 129 146
119 129 146
119 129 146
120 130 146
120 130 146
115 123 139
115 123 140
116 124 140
117 124 141
117 125 142
118 125 142
118 125 142
119 126 143
119 126 143
120 126 144
120 126 144
121 126 144
121 127 144
121 127 145
121 127 145
122 127 145
122 127 145
122 127 145
122 128 146
122 128 146
122 128 146
121 128 145
121 128 145
123 133 150
123 133 150
117 129 146
117 129 146
117 130 147
117 130 147
117 130 147
118 130 147
118 130 147
118 130 147
118 130 147
118 130 147
118 130 148
118 131 148
118 131 148
118 131 148
118 131 148
118 131 148
119 131 148
119 131 148
119 131 148
119 131 148
119 131 148
119 131 149
119 131 149
119 131 149
119 132 149
125 135 153
125 136 153
125 136 153
125 136 153
125 136 153
125 136 153
125 136 153
125 136 153
125 136 153
125 136 153
125 136 153
125 136 153
125 136 153
125 135 147
126 135 147
126 135 147
126 135 147
126 135 147
126 135 147
126 135 147
126 135 148
126 135 148
127 136 148
129 138 150
133 141 153
132 141 153
129 138 150
127 136 148
126 135 147
126 135 147
126 135 147
126 135 147
126 135 147
126 135 147
125 135 147
125 134 147
125 134 147
125 134 147
124 134 147
125 136 153
125 136 153
125 136 153
125 136 153
125 136 153
125 136 153
125 136 153
125 135 153
125 135 153
125 135 153
125 135 153
125 135 152
125 135 152
125 135 152
125 135 152
124 135 152
124 135 152
124 135 152
124 135 152
124 135 152
124 135 152
124 134 152
124 134 151
124 134 151
124 134 151
124 134 151
124 134 151
123 134 151
123 134 151
123 134 151
123 134 151
123 133 150
123 133 150
123 133 150
123 133 150
123 133 150
123 133 150
122 133 150
122 133 150
122 132 149
122 132 149
122 132 149
122 132 149
122 132 149
122 132 149
121 132 148
121 132 148
121 131 148
121 131 148
121 131 148
121 131 148
121 131 148
110 119 135
110 120 135
110 120 135
111 120 135
111 120 135
111 120 136
111 121 136
111 121 136
111 121 136
112 121 137
112 121 137
112 121 137
112 122 137
112 122 137
113 122 138
113 122 138
113 122 138
113 123 138
113 123 139
113 123 139
114 123 139
114 123 139
114 124 139
114 124 140
114 124 140
115 124 140
115 124 140
115 125 140
115 125 141
115 125 141
115 125 141
116 125 141
116 125 141
116 126 142
116 126 142
116 126 142
116 126 142
117 126 142
117 127 143
117 127 143
117 127 143
117 127 143
117 127 143
118 127 144
118 128 144
118 128 144
118 128 144
118 128 144
118 128 145
118 128 145
119 129 145
119 129 145
119 129 145
119 129 146
119 129 146
119 129 146
120 130 146
120 130 146
120 130 146
120 130 147
115 124 140
116 124 140
117 124 141
117 125 142
118 125 142
119 125 143
119 126 143
120 126 143
120 126 144
120 126 144
121 127 144
121 127 145
121 127 145
122 127 145
122 127 145
122 127 145
122 128 146
122 128 146
122 128 146
122 128 146
122 128 146
121 128 145
123 133 150
123 133 150
117 129 146
117 130 147
117 130 147
117 130 147
118 130 147
118 130 147
118 130 147
118 130 147
118 130 147
118 130 148
118 131 148
118 131 148
118 131 148
118 131 148
118 131 148
119 131 148
119 131 148
119 131 148
119 131 148
119 131 148
119 131 149
119 131 149
119 131 149
119 132 149
119 132 149
125 136 153
125 136 153
125 136 153
125 136 153
125 136 153
125 136 153
125 136 153
125 136 153
125 136 153
125 136 153
125 136 153
125 136 153
126 136 153
126 136 153
126 135 147
126 135 147
127 136 148
127 136 148
127 136 148
127 136 148
127 136 148
127 136 148
127 136 148
128 136 148
129 138 150
129 138 150
128 137 149
127 136 148
127 136 148
127 136 148
126 135 148
126 135 147
126 135 147
126 135 147
126 135 147
126 135 147
125 135 147
125 134 147
125 136 153
125 136 153
125 136 153
125 136 153
125 136 153
125 136 153
125 136 153
125 136 153
125 136 153
125 136 153
125 135 153
125 135 153
125 135 153
125 135 152
125 135 152
125 135 152
125 135 152
125 135 152
124 135 152
124 135 152
124 135 152
124 135 152
124 135 152
124 134 152
124 134 152
124 134 151
124 134 151
124 134 151
124 134 151
124 134 151
123 134 151
123 134 151
123 134 151
123 134 151
123 133 150
123 133 150
123 133 150
123 133 150
123 133 150
123 133 150
122 133 150
122 133 149
122 132 149
122 132 149
122 132 149
122 132 149
122 132 149
122 132 149
121 132 148
121 132 148
121 131 148
121 131 148
121 131 148
110 120 135
110 120 135
111 120 135
111 120 136
111 120 136
111 121 136
111 121 136
112 121 136
112 121 137
112 121 137
112 122 137
112 122 137
112 122 138
113 122 138
113 122 138
113 123 138
113 123 138
113 123 139
114 123 139
114 123 139
114 123 139
114 124 139
114 124 140
114 124 140
115 124 140
115 124 140
115 125 140
115 125 141
115 125 141
115 125 141
116 125 141
116 126 142
116 126 142
116 126 142
116 126 142
116 126 142
117 126 143
117 127 143
117 127 143
117 127 143
117 127 143
117 127 143
118 127 144
118 128 144
118 128 144
118 128 144
118 128 144
118 128 145
118 128 145
119 129 145
119 129 145
119 129 145
119 129 146
119 129 146
119 129 146
120 130 146
120 130 146
120 130 146
120 130 147
120 130 147
115 124 140
116 124 141
117 124 141
117 125 142
118 125 142
119 125 143
119 126 143
120 126 143
120 126 144
120 126 144
121 127 144
121 127 145
121 127 145
122 127 145
122 127 145
122 128 146
122 128 146
122 128 146
122 128 146
122 128 146
122 128 146
123 133 150
123 133 150
123 133 150
117 130 147
117 130 147
117 130 147
118 130 147
118 130 147
118 130 147
118 130 147
118 130 147
118 130 147
118 130 148
118 131 148
118 131 148
118 131 148
118 131 148
118 131 148
119 131 148
119 131 148
119 131 148
119 131 148
119 131 149
119 131 149
119 131 149
119 132 149
119 132 149
119 132 149
125 136 153
125 136 153
125 136 153
125 136 153
125 136 153
125 136 153
125 136 153
125 136 153
125 136 153
125 136 153
125 136 153
126 136 153
126 136 153
126 136 153
126 136 153
127 136 147
127 136 148
127 136 148
127 136 148
127 136 148
127 136 148
127 136 148
127 136 148
127 136 148
127 136 148
127 136 148
127 136 148
127 136 148
127 136 148
127 136 148
127 136 148
127 136 148
127 136 148
126 135 148
126 135 147
126 135 147
126 135 147
126 136 153
125 136 153
125 136 153
125 136 153
125 136 153
125 136 153
125 136 153
125 136 153
125 136 153
125 136 153
125 136 153
125 136 153
125 135 153
125 135 153
125 135 153
125 135 153
125 135 152
125 135 152
125 135 152
125 135 152
125 135 152
124 135 152
124 135 152
124 135 152
124 135 152
124 135 152
124 134 152
124 134 151
124 134 151
124 134 151
124 134 151
124 134 151
124 134 151
123 134 151
123 134 151
123 134 151
123 133 150
123 133 150
123 133 150
123 133 150
123 133 150
123 133 150
122 133 150
122 133 150
122 133 149
122 132 149
122 132 149
122 132 149
122 132 149
122 132 149
122 132 149
121 132 148
121 131 148
121 131 148
111 120 135
111 120 135
111 120 136
111 121 136
111 121 136
111 121 136
112 121 137
112 121 137
112 121 137
112 122 137
112 122 137
113 122 138
113 122 138
113 122 138
113 123 138
113 123 138
113 123 139
114 123 139
114 123 139
114 124 139
114 124 140
114 124 140
114 124 140
115 124 140
115 124 140
115 125 141
115 125 141
115 125 141
115 125 141
116 125 141
116 126 142
116 126 142
116 126 142
116 126 142
116 126 142
117 126 143
117 127 143
117 127 143
117 127 143
117 127 143
117 127 143
118 127 144
118 128 144
118 128 144
118 128 144
118 128 144
118 128 145
118 128 145
119 129 145
119 129 145
119 129 145
119 129 146
119 129 146
119 129 146
119 130 146
120 130 146
120 130 146
120 130 147
120 130 147
120 130 147
120 130 147
116 124 141
117 125 141
118 125 142
118 125 142
119 126 143
119 126 143
120 126 144
120 126 144
121 127 144
121 127 145
121 127 145
122 127 145
122 127 145
122 127 145
122 128 146
122 128 146
122 128 146
122 128 146
123 133 150
123 133 150
123 133 150
123 133 150
123 133 150
123 134 150
123 134 151
123 134 151
123 134 151
124 134 151
124 134 151
124 134 151
124 134 151
124 134 151
124 134 151
124 134 152
124 135 152
124 135 152
124 135 152
124 135 152
124 135 152
125 135 152
119 131 148
119 131 149
119 131 149
119 131 149
119 132 149
119 132 149
119 132 149
119 132 149
125 136 153
125 136 153
125 136 153
125 136 153
125 136 153
125 136 153
125 136 153
125 136 153
125 136 153
125 136 153
126 136 153
126 136 153
126 136 153
126 136 153
126 136 153
126 136 153
127 136 148
127 136 148
127 136 148
128 136 148
128 136 148
128 137 148
128 137 148
128 137 148
128 137 148
128 137 148
128 136 148
128 136 148
127 136 148
127 136 148
127 136 148
127 136 148
127 136 148
127 136 148
127 136 148
126 135 147
126 136 153
126 136 153
126 136 153
126 136 153
125 136 153
125 136 153
125 136 153
125 136 153
125 136 153
125 136 153
125 136 153
125 136 153
125 136 153
125 136 153
125 136 153
125 135 153
125 135 153
125 135 153
125 135 152
125 135 152
125 135 152
125 135 152
125 135 152
124 135 152
124 135 152
124 135 152
124 135 152
124 135 152
124 134 152
124 134 152
124 134 151
124 134 151
124 134 151
124 134 151
124 134 151
123 134 151
123 134 151
123 134 151
123 134 151
123 133 150
123 133 150
123 133 150
123 133 150
123 133 150
123 133 150
122 133 150
122 133 149
122 132 149
122 132 149
122 132 149
122 132 149
122 132 149
122 132 149
122 132 149
121 132 148
111 120 136
111 120 136
111 121 136
111 121 136
112 121 136
112 121 137
112 121 137
112 122 137
112 122 137
112 122 137
113 122 138
113 122 138
113 122 138
113 123 138
113 123 139
113 123 139
114 123 139
114 123 139
114 124 139
114 124 140
114 124 140
114 124 140
115 124 140
115 124 140
115 125 141
115 125 141
115 125 141
115 125 141
116 125 141
116 126 142
116 126 142
116 126 142
116 126 142
116 126 142
117 126 143
117 127 143
117 127 143
117 127 143
117 127 143
117 127 143
118 127 144
118 128 144
118 128 144
118 128 144
118 128 144
118 128 145
118 128 145
119 129 145
119 129 145
119 129 145
119 129 145
119 129 146
119 129 146
119 130 146
120 130 146
120 130 146
120 130 146
120 130 147
120 130 147
120 130 147
120 131 147
121 131 147
121 131 147
118 125 142
118 125 142
119 126 143
119 126 143
120 126 144
120 126 144
121 127 144
121 127 145
121 127 145
122 127 145
122 127 145
122 128 146
122 133 149
122 133 150
122 133 150
123 133 150
123 133 150
123 133 150
123 133 150
123 133 150
123 133 150
123 134 151
123 134 151
123 134 151
123 134 151
124 134 151
124 134 151
124 134 151
124 134 151
124 134 151
124 134 152
124 134 152
124 135 152
124 135 152
124 135 152
124 135 152
124 135 152
125 135 152
125 135 152
125 135 152
125 135 152
125 135 152
125 135 153
125 135 153
125 135 153
125 136 153
125 136 153
125 136 153
125 136 153
125 136 153
125 136 153
125 136 153
125 136 153
125 136 153
125 136 153
125 136 153
126 136 153
126 136 153
126 136 153
126 136 153
126 136 153
126 136 153
126 136 153
126 136 154
128 136 148
128 137 148
128 137 148
128 137 148
128 137 148
128 137 148
128 137 148
128 137 148
128 137 148
128 137 148
128 137 148
128 137 148
128 136 148
127 136 148
127 136 148
127 136 148
126 136 154
126 136 153
126 136 153
126 136 153
126 136 153
126 136 153
126 136 153
125 136 153
125 136 153
125 136 153
125 136 153
125 136 153
125 136 153
125 136 153
125 136 153
125 136 153
125 136 153
125 136 153
125 135 153
125 135 153
125 135 153
125 135 152
125 135 152
125 135 152
125 135 152
125 135 152
124 135 152
124 135 152
124 135 152
124 135 152
124 135 152
124 135 152
124 134 152
124 134 151
124 134 151
124 134 151
124 134 151
124 134 151
124 134 151
123 134 151
123 134 151
123 134 151
123 133 150
123 133 150
123 133 150
123 133 150
123 133 150
123 133 150
122 133 150
122 133 150
122 133 149
122 132 149
122 132 149
122 132 149
122 132 149
122 132 149
122 132 149
111 121 136
111 121 136
111 121 136
112 121 137
112 121 137
112 121 137
112 122 137
112 122 137
112 122 138
113 122 138
113 122 138
113 123 138
113 123 138
113 123 139
114 123 139
114 123 139
114 123 139
114 124 139
114 124 140
114 124 140
115 124 140
115 124 140
115 125 140
115 125 141
115 125 141
115 125 141
115 125 141
116 125 141
116 126 142
116 126 142
116 126 142
116 126 142
116 126 142
117 126 143
117 127 143
117 127 143
117 127 143
117 127 143
117 127 143
118 127 144
118 128 144
118 128 144
118 128 144
118 128 144
118 128 145
118 128 145
119 129 145
119 129 145
119 129 145
119 129 145
119 129 146
119 129 146
119 129 146
120 130 146
120 130 146
120 130 146
120 130 147
120 130 147
120 130 147
120 130 147
121 131 147
121 131 147
121 131 148
121 131 148
121 131 148
121 131 148
121 131 148
121 132 148
122 132 148
122 132 149
122 132 149
122 132 149
122 132 149
122 132 149
122 132 149
122 133 149
122 133 150
123 133 150
123 133 150
123 133 150
123 133 150
123 133 150
123 133 150
123 133 150
123 134 151
123 134 151
123 134 151
124 134 151
124 134 151
124 134 151
124 134 151
124 134 151
124 134 151
124 134 152
124 135 152
124 135 152
124 135 152
124 135 152
124 135 152
124 135 152
125 135 152
125 135 152
125 135 152
125 135 152
125 135 152
125 135 153
125 135 153
125 135 153
125 136 153
125 136 153
125 136 153
125 136 153
125 136 153
125 136 153
125 136 153
125 136 153
125 136 153
125 136 153
125 136 153
126 136 153
126 136 153
126 136 153
126 136 153
126 136 153
126 136 153
126 136 153
126 136 154
126 136 154
126 136 154
128 137 148
128 137 148
128 137 148
128 137 148
128 137 148
128 137 148
128 137 148
128 137 148
128 137 148
128 137 148
128 137 148
127 136 148
126 136 154
126 136 154
126 136 154
126 136 153
126 136 153
126 136 153
126 136 153
126 136 153
126 136 153
126 136 153
125 136 153
125 136 153
125 136 153
125 136 153
125 136 153
125 136 153
125 136 153
125 136 153
125 136 153
125 136 153
125 136 153
125 135 153
125 135 153
125 135 153
125 135 152
125 135 152
125 135 152
125 135 152
125 135 152
124 135 152
124 135 152
124 135 152
124 135 152
124 135 152
124 135 152
124 134 152
124 134 151
124 134 151
124 134 151
124 134 151
124 134 151
124 134 151
123 134 151
123 134 151
123 134 151
123 133 150
123 133 150
123 133 150
123 133 150
123 133 150
123 133 150
123 133 150
122 133 150
122 133 149
122 132 149
122 132 149
122 132 149
122 132 149
122 132 149
111 121 136
112 121 136
112 121 137
112 121 137
112 121 137
112 122 137
112 122 137
113 122 138
113 122 138
113 122 138
113 123 138
113 123 138
113 123 139
114 123 139
114 123 139
114 123 139
114 124 139
114 124 140
114 124 140
115 124 140
115 124 140
115 125 140
115 125 141
115 125 141
115 125 141
115 125 141
116 125 141
116 126 142
116 126 142
116 126 142
116 126 142
116 126 142
117 126 143
117 127 143
117 127 143
117 127 143
117 127 143
117 127 143
117 127 144
118 128 144
118 128 144
118 128 144
118 128 144
118 128 145
118 128 145
119 128 145
119 129 145
119 129 145
119 129 145
119 129 146
119 129 146
119 129 146
120 130 146
120 130 146
120 130 146
120 130 147
120 130 147
120 130 147
120 130 147
120 131 147
121 131 147
121 131 147
121 131 148
121 131 148
121 131 148
121 131 148
121 131 148
121 132 148
122 132 149
122 132 149
122 132 149
122 132 149
122 132 149
122 132 149
122 132 149
122 133 149
122 133 150
123 133 150
123 133 150
123 133 150
123 133 150
123 133 150
123 133 150
123 133 150
123 134 151
123 134 151
123 134 151
124 134 151
124 134 151
124 134 151
124 134 151
124 134 151
124 134 151
124 134 152
124 135 152
124 135 152
124 135 152
124 135 152
124 135 152
124 135 152
125 135 152
125 135 152
125 135 152
125 135 152
125 135 152
125 135 153
125 135 153
125 135 153
125 135 153
125 136 153
125 136 153
125 136 153
125 136 153
125 136 153
125 136 153
125 136 153
125 136 153
125 136 153
125 136 153
125 136 153
126 136 153
126 136 153
126 136 153
126 136 153
126 136 153
126 136 153
126 136 153
126 136 154
126 136 154
126 136 154
126 136 154
126 136 154
126 136 154
128 137 148
128 137 148
128 137 148
128 137 148
128 137 148
126 136 154
126 136 154
126 136 154
126 136 154
126 136 154
126 136 154
126 136 153
126 136 153
126 136 153
126 136 153
126 136 153
126 136 153
126 136 153
125 136 153
125 136 153
125 136 153
125 136 153
125 136 153
125 136 153
125 136 153
125 136 153
125 136 153
125 136 153
125 136 153
125 135 153
125 135 153
125 135 153
125 135 153
125 135 152
125 135 152
125 135 152
125 135 152
125 135 152
124 135 152
124 135 152
124 135 152
124 135 152
124 135 152
124 135 152
124 134 152
124 134 151
124 134 151
124 134 151
124 134 151
124 134 151
124 134 151
123 134 151
123 134 151
123 134 151
123 133 150
123 133 150
123 133 150
123 133 150
123 133 150
123 133 150
123 133 150
122 133 150
122 133 149
122 132 149
122 132 149
122 132 149
122 132 149
112 121 136
112 121 137
112 121 137
112 122 137
112 122 137
112 122 137
113 122 138
113 122 138
113 122 138
113 123 138
113 123 138
113 123 139
114 123 139
114 123 139
114 123 139
114 124 139
114 124 140
114 124 140
115 124 140
115 124 140
115 125 140
115 125 141
115 125 141
115 125 141
115 125 141
116 125 141
116 126 142
116 126 142
116 126 142
116 126 142
116 126 142
117 126 142
117 127 143
117 127 143
117 127 143
117 127 143
117 127 143
117 127 144
118 128 144
118 128 144
118 128 144
118 128 144
118 128 144
118 128 145
118 128 145
119 129 145
119 129 145
119 129 145
119 129 145
119 129 146
119 129 146
119 129 146
120 130 146
120 130 146
120 130 146
120 130 147
120 130 147
120 130 147
120 130 147
120 131 147
121 131 147
121 131 148
121 131 148
121 131 148
121 131 148
121 131 148
121 132 148
121 132 148
122 132 149
122 132 149
122 132 149
122 132 149
122 132 149
122 132 149
122 132 149
122 133 149
122 133 150
123 133 150
123 133 150
123 133 150
123 133 150
123 133 150
123 133 150
123 133 150
123 134 151
123 134 151
123 134 151
124 134 151
124 134 151
124 134 151
124 134 151
124 134 151
124 134 151
124 134 151
124 134 152
124 135 152
124 135 152
124 135 152
124 135 152
124 135 152
125 135 152
125 135 152
125 135 152
125 135 152
125 135 152
125 135 152
125 135 153
125 135 153
125 135 153
125 136 153
125 136 153
125 136 153
125 136 153
125 136 153
125 136 153
125 136 153
125 136 153
125 136 153
125 136 153
125 136 153
125 136 153
126 136 153
126 136 153
126 136 153
126 136 153
126 136 153
126 136 153
126 136 153
126 136 153
126 136 153
126 136 154
126 136 154
126 136 154
126 136 154
126 136 154
126 136 154
126 136 154
126 136 154
126 136 154
126 136 154
126 136 154
126 136 154
126 136 154
126 136 153
126 136 153
126 136 153
126 136 153
126 136 153
126 136 153
126 136 153
126 136 153
125 136 153
125 136 153
125 136 153
125 136 153
125 136 153
125 136 153
125 136 153
125 136 153
125 136 153
125 136 153
125 136 153
125 136 153
125 135 153
125 135 153
125 135 153
125 135 152
125 135 152
125 135 152
125 135 152
125 135 152
125 135 152
124 135 152
124 135 152
124 135 152
124 135 152
124 135 152
124 134 152
124 134 152
124 134 151
124 134 151
124 134 151
124 134 151
124 134 151
124 134 151
123 134 151
123 134 151
123 134 151
123 133 150
123 133 150
123 133 150
123 133 150
123 133 150
123 133 150
123 133 150
122 133 150
122 133 150
122 133 149
122 132 149
122 132 149
112 121 137
112 121 137
112 122 137
112 122 137
112 122 137
113 122 138
113 122 138
113 122 138
113 123 138
113 123 138
113 123 139
114 123 139
114 123 139
114 124 139
114 124 139
114 124 140
114 124 140
115 124 140
115 124 140
115 125 140
115 125 141
115 125 141
115 125 141
115 125 141
116 125 141
116 126 142
116 126 142
116 126 142
116 126 142
116 126 142
117 126 142
117 127 143
117 127 143
117 127 143
117 127 143
117 127 143
117 127 144
118 127 144
118 128 144
118 128 144
118 128 144
118 128 144
118 128 145
118 128 145
119 129 145
119 129 145
119 129 145
119 129 145
119 129 146
119 129 146
119 129 146
120 130 146
120 130 146
120 130 146
120 130 147
120 130 147
120 130 147
120 130 147
120 131 147
121 131 147
121 131 147
121 131 148
121 131 148
121 131 148
121 131 148
121 131 148
121 132 148
121 132 148
122 132 149
122 132 149
122 132 149
122 132 149
122 132 149
122 132 149
122 133 149
122 133 149
122 133 150
123 133 150
123 133 150
123 133 150
123 133 150
123 133 150
123 133 150
123 133 150
123 134 151
123 134 151
123 134 151
124 134 151
124 134 151
124 134 151
124 134 151
124 134 151
124 134 151
124 134 151
124 134 152
124 135 152
124 135 152
124 135 152
124 135 152
124 135 152
124 135 152
125 135 152
125 135 152
125 135 152
125 135 152
125 135 152
125 135 152
125 135 153
125 135 153
125 135 153
125 136 153
125 136 153
125 136 153
125 136 153
125 136 153
125 136 153
125 136 153
125 136 153
125 136 153
125 136 153
125 136 153
125 136 153
126 136 153
126 136 153
126 136 153
126 136 153
126 136 153
126 136 153
126 136 153
126 136 153
126 136 153
126 136 153
126 136 153
126 136 153
126 136 154
126 136 154
126 136 154
126 136 154
126 136 154
126 136 154
126 136 153
126 136 153
126 136 153
126 136 153
126 136 153
126 136 153
126 136 153
126 136 153
126 136 153
126 136 153
126 136 153
125 136 153
125 136 153
125 136 153
125 136 153
125 136 153
125 136 153
125 136 153
125 136 153
125 136 153
125 136 153
125 136 153
125 136 153
125 135 153
125 135 153
125 135 153
125 135 153
125 135 152
125 135 152
125 135 152
125 135 152
125 135 152
124 135 152
124 135 152
124 135 152
124 135 152
124 135 152
124 135 152
124 134 152
124 134 151
124 134 151
124 134 151
124 134 151
124 134 151
124 134 151
124 134 151
123 134 151
123 134 151
123 134 151
123 133 150
123 133 150
123 133 150
123 133 150
123 133 150
123 133 150
123 133 150
122 133 150
122 133 150
122 133 149
122 132 149
112 121 137
112 122 137
112 122 137
112 122 138
113 122 138
113 122 138
113 122 138
113 123 138
113 123 138
113 123 139
114 123 139
114 123 139
114 124 139
114 124 139
114 124 140
114 124 140
115 124 140
115 124 140
115 125 140
115 125 141
115 125 141
115 125 141
115 125 141
116 125 141
116 126 141
116 126 142
116 126 142
116 126 142
116 126 142
117 126 142
117 126 143
117 127 143
117 127 143
117 127 143
117 127 143
117 127 143
118 127 144
118 128 144
118 128 144
118 128 144
118 128 144
118 128 144
118 128 145
119 128 145
119 129 145
119 129 145
119 129 145
119 129 145
119 129 146
119 129 146
119 129 146
120 130 146
120 130 146
120 130 146
120 130 147
120 130 147
120 130 147
120 130 147
120 131 147
121 131 147
121 131 147
121 131 148
121 131 148
121 131 148
121 131 148
121 131 148
121 132 148
122 132 148
122 132 149
122 132 149
122 132 149
122 132 149
122 132 149
122 132 149
122 133 149
122 133 149
122 133 150
123 133 150
123 133 150
123 133 150
123 133 150
123 133 150
123 133 150
123 133 150
123 134 151
123 134 151
123 134 151
123 134 151
124 134 151
124 134 151
124 134 151
124 134 151
124 134 151
124 134 151
124 134 152
124 135 152
124 135 152
124 135 152
124 135 152
124 135 152
124 135 152
125 135 152
125 135 152
125 135 152
125 135 152
125 135 152
125 135 152
125 135 153
125 135 153
125 135 153
125 135 153
125 136 153
125 136 153
125 136 153
125 136 153
125 136 153
125 136 153
125 136 153
125 136 153
125 136 153
125 136 153
125 136 153
125 136 153
125 136 153
126 136 153
126 136 153
126 136 153
126 136 153
126 136 153
126 136 153
126 136 153
126 136 153
126 136 153
126 136 153
126 136 153
126 136 153
126 136 153
126 136 153
126 136 153
126 136 153
126 136 153
126 136 153
126 136 153
126 136 153
126 136 153
126 136 153
126 136 153
126 136 153
126 136 153
126 136 153
125 136 153
125 136 153
125 136 153
125 136 153
125 136 153
125 136 153
125 136 153
125 136 153
125 136 153
125 136 153
125 136 153
125 136 153
125 136 153
125 135 153
125 135 153
125 135 153
125 135 153
125 135 152
125 135 152
125 135 152
125 135 152
125 135 152
125 135 152
124 135 152
124 135 152
124 135 152
124 135 152
124 135 152
124 135 152
124 134 152
124 134 151
124 134 151
124 134 151
124 134 151
124 134 151
124 134 151
123 134 151
123 134 151
123 134 151
123 134 151
123 133 150
123 133 150
123 133 150
123 133 150
123 133 150
123 133 150
123 133 150
122 133 150
122 133 150
122 133 149
112 122 137
112 122 137
112 122 138
113 122 138
113 122 138
113 122 138
113 123 138
113 123 138
113 123 139
114 123 139
114 123 139
114 124 139
114 124 139
114 124 140
114 124 140
115 124 140
115 124 140
115 124 140
115 125 141
115 125 141
115 125 141
115 125 141
116 125 141
116 125 141
116 126 142
116 126 142
116 126 142
116 126 142
116 126 142
117 126 143
117 127 143
117 127 143
117 127 143
117 127 143
117 127 143
117 127 144
118 127 144
118 128 144
118 128 144
118 128 144
118 128 144
118 128 145
118 128 145
119 129 145
119 129 145
119 129 145
119 129 145
119 129 146
119 129 146
119 129 146
119 130 146
120 130 146
120 130 146
120 130 146
120 130 147
120 130 147
120 130 147
120 130 147
120 131 147
121 131 147
121 131 147
121 131 148
121 131 148
121 131 148
121 131 148
121 131 148
121 132 148
122 132 148
122 132 149
122 132 149
122 132 149
122 132 149
122 132 149
122 132 149
122 133 149
122 133 149
122 133 150
123 133 150
123 133 150
123 133 150
123 133 150
123 133 150
123 133 150
123 133 150
123 134 150
123 134 151
123 134 151
123 134 151
124 134 151
124 134 151
124 134 151
124 134 151
124 134 151
124 134 151
124 134 151
124 134 152
124 135 152
124 135 152
124 135 152
124 135 152
124 135 152
124 135 152
125 135 152
125 135 152
125 135 152
125 135 152
125 135 152
125 135 152
125 135 152
125 135 153
125 135 153
125 135 153
125 136 153
125 136 153
125 136 153
125 136 153
125 136 153
125 136 153
125 136 153
125 136 153
125 136 153
125 136 153
125 136 153
125 136 153
125 136 153
125 136 153
125 136 153
126 136 153
126 136 153
126 136 153
126 136 153
126 136 153
126 136 153
126 136 153
126 136 153
126 136 153
126 136 153
126 136 153
126 136 153
126 136 153
126 136 153
126 136 153
126 136 153
126 136 153
126 136 153
126 136 153
126 136 153
126 136 153
125 136 153
125 136 153
125 136 153
125 136 153
125 136 153
125 136 153
125 136 153
125 136 153
125 136 153
125 136 153
125 136 153
125 136 153
125 136 153
125 136 153
125 136 153
125 135 153
125 135 153
125 135 153
125 135 153
125 135 152
125 135 152
125 135 152
125 135 152
125 135 152
125 135 152
124 135 152
124 135 152
124 135 152
124 135 152
124 135 152
124 135 152
124 134 152
124 134 151
124 134 151
124 134 151
124 134 151
124 134 151
124 134 151
124 134 151
123 134 151
123 134 151
123 134 151
123 134 151
123 133 150
123 133 150
123 133 150
123 133 150
123 133 150
123 133 150
123 133 150
122 133 150
122 133 150
112 122 137
112 122 138
113 122 138
113 122 138
113 122 138
113 123 138
113 123 138
113 123 139
114 123 139
114 123 139
114 123 139
114 124 139
114 124 140
114 124 140
114 124 140
115 124 140
115 124 140
115 125 141
115 125 141
115 125 141
115 125 141
116 125 141
116 125 141
116 126 142
116 126 142
116 126 142
116 126 142
116 126 142
117 126 142
117 127 143
117 127 143
117 127 143
117 127 143
117 127 143
117 127 143
118 127 144
118 128 144
118 128 144
118 128 144
118 128 144
118 128 144
118 128 145
118 128 145
119 129 145
119 129 145
119 129 145
119 129 145
119 129 146
119 129 146
119 129 146
120 130 146
120 130 146
120 130 146
120 130 146
120 130 147
120 130 147
120 130 147
120 130 147
121 131 147
121 131 147
121 131 148
121 131 148
121 131 148
121 131 148
121 131 148
121 131 148
121 132 148
122 132 148
122 132 149
122 132 149
122 132 149
122 132 149
122 132 149
122 132 149
122 132 149
122 133 149
122 133 150
123 133 150
123 133 150
123 133 150
123 133 150
123 133 150
123 133 150
123 133 150
123 133 150
123 134 151
123 134 151
123 134 151
124 134 151
124 134 151
124 134 151
124 134 151
124 134 151
124 134 151
124 134 151
124 134 151
124 134 152
124 135 152
124 135 152
124 135 152
124 135 152
124 135 152
124 135 152
125 135 152
125 135 152
125 135 152
125 135 152
125 135 152
125 135 152
125 135 152
125 135 153
125 135 153
125 135 153
125 135 153
125 136 153
125 136 153
125 136 153
125 136 153
125 136 153
125 136 153
125 136 153
125 136 153
125 136 153
125 136 153
125 136 153
125 136 153
125 136 153
125 136 153
125 136 153
125 136 153
126 136 153
126 136 153
126 136 153
126 136 153
126 136 153
126 136 153
126 136 153
126 136 153
126 136 153
126 136 153
126 136 153
126 136 153
126 136 153
126 136 153
126 136 153
125 136 153
125 136 153
125 136 153
125 136 153
125 136 153
125 136 153
125 136 153
125 136 153
125 136 153
125 136 153
125 136 153
125 136 153
125 136 153
125 136 153
125 136 153
125 136 153
125 136 153
125 135 153
125 135 153
125 135 153
125 135 153
125 135 153
125 135 152
125 135 152
125 135 152
125 135 152
125 135 152
125 135 152
124 135 152
124 135 152
124 135 152
124 135 152
124 135 152
124 135 152
124 134 152
124 134 152
124 134 151
124 134 151
124 134 151
124 134 151
124 134 151
124 134 151
123 134 151
123 134 151
123 134 151
123 134 151
123 133 150
123 133 150
123 133 150
123 133 150
123 133 150
123 133 150
123 133 150
123 133 150
122 133 150
113 122 138
113 122 138
113 122 138
113 122 138
113 123 138
113 123 138
113 123 139
114 123 139
114 123 139
114 123 139
114 124 139
114 124 140
114 124 140
114 124 140
115 124 140
115 124 140
115 125 140
115 125 141
115 125 141
115 125 141
116 125 141
116 125 141
116 126 142
116 126 142
116 126 142
116 126 142
116 126 142
117 126 142
117 126 143
117 127 143
117 127 143
117 127 143
117 127 143
117 127 143
117 127 144
118 128 144
118 128 144
118 128 144
118 128 144
118 128 144
118 128 145
118 128 145
119 129 145
119 129 145
119 129 145
119 129 145
119 129 145
119 129 146
119 129 146
119 129 146
120 130 146
120 130 146
120 130 146
120 130 147
120 130 147
120 130 147
120 130 147
120 131 147
121 131 147
121 131 147
121 131 148
121 131 148
121 131 148
121 131 148
121 131 148
121 131 148
121 132 148
122 132 148
122 132 149
122 132 149
122 132 149
122 132 149
122 132 149
122 132 149
122 132 149
122 133 149
122 133 150
123 133 150
123 133 150
123 133 150
123 133 150
123 133 150
123 133 150
123 133 150
123 133 150
123 134 150
123 134 151
123 134 151
123 134 151
124 134 151
124 134 151
124 134 151
124 134 151
124 134 151
124 134 151
124 134 151
124 134 151
124 134 152
124 135 152
124 135 152
124 135 152
124 135 152
124 135 152
124 135 152
125 135 152
125 135 152
125 135 152
125 135 152
125 135 152
125 135 152
125 135 152
125 135 153
125 135 153
125 135 153
125 135 153
125 136 153
125 136 153
125 136 153
125 136 153
125 136 153
125 136 153
125 136 153
125 136 153
125 136 153
125 136 153
125 136 153
125 136 153
125 136 153
125 136 153
125 136 153
125 136 153
125 136 153
125 136 153
125 136 153
125 136 153
125 136 153
125 136 153
125 136 153
125 136 153
125 136 153
125 136 153
125 136 153
125 136 153
125 136 153
125 136 153
125 136 153
125 136 153
125 136 153
125 136 153
125 136 153
125 136 153
125 136 153
125 136 153
125 136 153
125 136 153
125 136 153
125 136 153
125 136 153
125 136 153
125 136 153
125 136 153
125 136 153
125 135 153
125 135 153
125 135 153
125 135 153
125 135 152
125 135 152
125 135 152
125 135 152
125 135 152
125 135 152
125 135 152
124 135 152
124 135 152
124 135 152
124 135 152
124 135 152
124 135 152
124 134 152
124 134 152
124 134 151
124 134 151
124 134 151
124 134 151
124 134 151
124 134 151
124 134 151
123 134 151
123 134 151
123 134 151
123 134 151
123 133 150
123 133 150
123 133 150
123 133 150
123 133 150
123 133 150
123 133 150
123 133 150
113 122 138
113 122 138
113 122 138
113 123 138
113 123 138
113 123 139
114 123 139
114 123 139
114 123 139
114 124 139
114 124 140
114 124 140
114 124 140
115 124 140
115 124 140
115 125 140
115 125 141
115 125 141
115 125 141
115 125 141
116 125 141
116 125 141
116 126 142
116 126 142
116 126 142
116 126 142
116 126 142
117 126 142
117 127 143
117 127 143
117 127 143
117 127 143
117 127 143
117 127 143
118 127 144
118 128 144
118 128 144
118 128 144
118 128 144
118 128 144
118 128 145
118 128 145
119 129 145
119 129 145
119 129 145
119 129 145
119 129 146
119 129 146
119 129 146
119 129 146
120 130 146
120 130 146
120 130 146
120 130 147
120 130 147
120 130 147
120 130 147
120 131 147
121 131 147
121 131 147
121 131 148
121 131 148
121 131 148
121 131 148
121 131 148
121 131 148
121 132 148
121 132 148
122 132 149
122 132 149
122 132 149
122 132 149
122 132 149
122 132 149
122 132 149
122 133 149
122 133 149
122 133 150
123 133 150
123 133 150
123 133 150
123 133 150
123 133 150
123 133 150
123 133 150
123 133 150
123 134 151
123 134 151
123 134 151
123 134 151
124 134 151
124 134 151
124 134 151
124 134 151
124 134 151
124 134 151
124 134 151
124 134 151
124 134 152
124 135 152
124 135 152
124 135 152
124 135 152
124 135 152
124 135 152
125 135 152
125 135 152
125 135 152
125 135 152
125 135 152
125 135 152
125 135 152
125 135 152
125 135 153
125 135 153
125 135 153
125 135 153
125 136 153
125 136 153
125 136 153
125 136 153
125 136 153
125 136 153
125 136 153
125 136 153
125 136 153
125 136 153
125 136 153
125 136 153
125 136 153
125 136 153
125 136 153
125 136 153
125 136 153
125 136 153
125 136 153
125 136 153
125 136 153
125 136 153
125 136 153
125 136 153
125 136 153
125 136 153
125 136 153
125 136 153
125 136 153
125 136 153
125 136 153
125 136 153
125 136 153
125 136 153
125 136 153
125 136 153
125 136 153
125 136 153
125 136 153
125 136 153
125 136 153
125 136 153
125 136 153
125 136 153
125 135 153
125 135 153
125 135 153
125 135 153
125 135 152
125 135 152
125 135 152
125 135 152
125 135 152
125 135 152
125 135 152
125 135 152
124 135 152
124 135 152
124 135 152
124 135 152
124 135 152
124 135 152
124 134 152
124 134 152
124 134 151
124 134 151
124 134 151
124 134 151
124 134 151
124 134 151
124 134 151
123 134 151
123 134 151
123 134 151
123 134 151
123 133 150
123 133 150
123 133 150
123 133 150
123 133 150
123 133 150
123 133 150
123 133 150
113 122 138
113 122 138
113 123 138
113 123 138
113 123 139
114 123 139
114 123 139
114 123 139
114 124 139
114 124 140
114 124 140
114 124 140
115 124 140
115 124 140
115 125 140
115 125 141
115 125 141
115 125 141
115 125 141
116 125 141
116 125 141
116 126 142
116 126 142
116 126 142
116 126 142
116 126 142
117 126 142
117 126 143
117 127 143
117 127 143
117 127 143
117 127 143
117 127 143
117 127 144
118 127 144
118 128 144
118 128 144
118 128 144
118 128 144
118 128 144
118 128 145
118 128 145
119 129 145
119 129 145
119 129 145
119 129 145
119 129 146
119 129 146
119 129 146
119 130 146
120 130 146
120 130 146
120 130 146
120 130 147
120 130 147
120 130 147
120 130 147
120 131 147
121 131 147
121 131 147
121 131 147
121 131 148
121 131 148
121 131 148
121 131 148
121 131 148
121 132 148
121 132 148
122 132 149
122 132 149
122 132 149
122 132 149
122 132 149
122 132 149
122 132 149
122 132 149
122 133 149
122 133 150
123 133 150
123 133 150
123 133 150
123 133 150
123 133 150
123 133 150
123 133 150
123 133 150
123 134 150
123 134 151
123 134 151
123 134 151
124 134 151
124 134 151
124 134 151
124 134 151
124 134 151
124 134 151
124 134 151
124 134 151
124 134 151
124 134 152
124 135 152
124 135 152
124 135 152
124 135 152
124 135 152
124 135 152
125 135 152
125 135 152
125 135 152
125 135 152
125 135 152
125 135 152
125 135 152
125 135 152
125 135 152
125 135 153
125 135 153
125 135 153
125 135 153
125 135 153
125 136 153
125 136 153
125 136 153
125 136 153
125 136 153
125 136 153
125 136 153
125 136 153
125 136 153
125 136 153
125 136 153
125 136 153
125 136 153
125 136 153
125 136 153
125 136 153
125 136 153
125 136 153
125 136 153
125 136 153
125 136 153
125 136 153
125 136 153
125 136 153
125 136 153
125 136 153
125 136 153
125 136 153
125 136 153
125 136 153
125 136 153
125 136 153
125 136 153
125 136 153
125 136 153
125 136 153
125 136 153
125 136 153
125 136 153
125 135 153
125 135 153
125 135 153
125 135 153
125 135 153
125 135 152
125 135 152
125 135 152
125 135 152
125 135 152
125 135 152
125 135 152
125 135 152
124 135 152
124 135 152
124 135 152
124 135 152
124 135 152
124 135 152
124 135 152
124 134 152
124 134 152
124 134 151
124 134 151
124 134 151
124 134 151
124 134 151
124 134 151
124 134 151
123 134 151
123 134 151
123 134 151
123 134 151
123 134 150
123 133 150
123 133 150
123 133 150
123 133 150
123 133 150
123 133 150
123 133 150
113 122 138
113 123 138
113 123 138
113 123 139
114 123 139
114 123 139
114 123 139
114 124 139
114 124 139
114 124 140
114 124 140
115 124 140
115 124 140
115 124 140
115 125 140
115 125 141
115 125 141
115 125 141
116 125 141
116 125 141
116 126 142
116 126 142
116 126 142
116 126 142
116 126 142
116 126 142
117 126 142
117 127 143
117 127 143
117 127 143
117 127 143
117 127 143
117 127 143
118 127 144
118 128 144
118 128 144
118 128 144
118 128 144
118 128 144
118 128 145
118 128 145
119 128 145
119 129 145
119 129 145
119 129 145
119 129 145
119 129 146
119 129 146
119 129 146
119 130 146
120 130 146
120 130 146
120 130 146
120 130 147
120 130 147
120 130 147
120 130 147
120 131 147
121 131 147
121 131 147
121 131 147
121 131 148
121 131 148
121 131 148
121 131 148
121 131 148
121 132 148
121 132 148
122 132 148
122 132 149
122 132 149
122 132 149
122 132 149
122 132 149
122 132 149
122 132 149
122 133 149
122 133 149
122 133 150
123 133 150
123 133 150
123 133 150
123 133 150
123 133 150
123 133 150
123 133 150
123 133 150
123 134 150
123 134 151
123 134 151
123 134 151
124 134 151
124 134 151
124 134 151
124 134 151
124 134 151
124 134 151
124 134 151
124 134 151
124 134 151
124 134 152
124 135 152
124 135 152
124 135 152
124 135 152
124 135 152
124 135 152
124 135 152
125 135 152
125 135 152
125 135 152
125 135 152
125 135 152
125 135 152
125 135 152
125 135 152
125 135 152
125 135 153
125 135 153
125 135 153
125 135 153
125 135 153
125 135 153
125 136 153
125 136 153
125 136 153
125 136 153
125 136 153
125 136 153
125 136 153
125 136 153
125 136 153
125 136 153
125 136 153
125 136 153
125 136 153
125 136 153
125 136 153
125 136 153
125 136 153
125 136 153
125 136 153
125 136 153
125 136 153
125 136 153
125 136 153
125 136 153
125 136 153
125 136 153
125 136 153
125 136 153
125 136 153
125 136 153
125 136 153
125 136 153
125 136 153
125 136 153
125 135 153
125 135 153
125 135 153
125 135 153
125 135 153
125 135 153
125 135 152
125 135 152
125 135 152
125 135 152
125 135 152
125 135 152
125 135 152
125 135 152
125 135 152
124 135 152
124 135 152
124 135 152
124 135 152
124 135 152
124 135 152
124 135 152
124 134 152
124 134 151
124 134 151
124 134 151
124 134 151
124 134 151
124 134 151
124 134 151
124 134 151
123 134 151
123 134 151
123 134 151
123 134 151
123 134 151
123 133 150
123 133 150
123 133 150
123 133 150
123 133 150
123 133 150
123 133 150
113 123 138
113 123 138
113 123 139
113 123 139
114 123 139
114 123 139
114 124 139
114 124 139
114 124 140
114 124 140
114 124 140
115 124 140
115 124 140
115 125 140
115 125 141
115 125 141
115 125 141
115 125 141
116 125 141
116 125 141
116 126 142
116 126 142
116 126 142
116 126 142
116 126 142
117 126 142
117 126 143
117 127 143
117 127 143
117 127 143
117 127 143
117 127 143
117 127 143
118 127 144
118 128 144
118 128 144
118 128 144
118 128 144
118 128 144
118 128 145
118 128 145
119 129 145
119 129 145
119 129 145
119 129 145
119 129 145
119 129 146
119 129 146
119 129 146
120 130 146
120 130 146
120 130 146
120 130 146
120 130 147
120 130 147
120 130 147
120 130 147
120 130 147
121 131 147
121 131 147
121 131 147
121 131 148
121 131 148
121 131 148
121 131 148
121 131 148
121 131 148
121 132 148
122 132 148
122 132 149
122 132 149
122 132 149
122 132 149
122 132 149
122 132 149
122 132 149
122 132 149
122 133 149
122 133 150
123 133 150
123 133 150
123 133 150
123 133 150
123 133 150
123 133 150
123 133 150
123 133 150
123 133 150
123 134 150
123 134 151
123 134 151
123 134 151
124 134 151
124 134 151
124 134 151
124 134 151
124 134 151
124 134 151
124 134 151
124 134 151
124 134 151
124 134 152
124 135 152
124 135 152
124 135 152
124 135 152
124 135 152
124 135 152
124 135 152
124 135 152
125 135 152
125 135 152
125 135 152
125 135 152
125 135 152
125 135 152
125 135 152
125 135 152
125 135 152
125 135 152
125 135 153
125 135 153
125 135 153
125 135 153
125 135 153
125 135 153
125 136 153
125 136 153
125 136 153
125 136 153
125 136 153
125 136 153
125 136 153
125 136 153
125 136 153
125 136 153
125 136 153
125 136 153
125 136 153
125 136 153
125 136 153
125 136 153
125 136 153
125 136 153
125 136 153
125 136 153
125 136 153
125 136 153
125 136 153
125 136 153
125 136 153
125 136 153
125 136 153
125 136 153
125 136 153
125 135 153
125 135 153
125 135 153
125 135 153
125 135 153
125 135 153
125 135 152
125 135 152
125 135 152
125 135 152
125 135 152
125 135 152
125 135 152
125 135 152
125 135 152
125 135 152
124 135 152
124 135 152
124 135 152
124 135 152
124 135 152
124 135 152
124 135 152
124 135 152
124 134 152
124 134 151
124 134 151
124 134 151
124 134 151
124 134 151
124 134 151
124 134 151
124 134 151
123 134 151
123 134 151
123 134 151
123 134 151
123 134 151
123 133 150
123 133 150
123 133 150
123 133 150
123 133 150
123 133 150
123 133 150
113 123 138
113 123 139
113 123 139
114 123 139
114 123 139
114 123 139
114 124 139
114 124 140
114 124 140
114 124 140
115 124 140
115 124 140
115 125 140
115 125 141
115 125 141
115 125 141
115 125 141
116 125 141
116 125 141
116 126 142
116 126 142
116 126 142
116 126 142
116 126 142
116 126 142
117 126 142
117 127 143
117 127 143
117 127 143
117 127 143
117 127 143
117 127 143
117 127 144
118 127 144
118 128 144
118 128 144
118 128 144
118 128 144
118 128 144
118 128 145
118 128 145
119 129 145
119 129 145
119 129 145
119 129 145
119 129 145
119 129 146
119 129 146
119 129 146
120 130 146
120 130 146
120 130 146
120 130 146
120 130 147
120 130 147
120 130 147
120 130 147
120 130 147
120 131 147
121 131 147
121 131 147
121 131 148
121 131 148
121 131 148
121 131 148
121 131 148
121 131 148
121 132 148
121 132 148
122 132 148
122 132 149
122 132 149
122 132 149
122 132 149
122 132 149
122 132 149
122 132 149
122 133 149
122 133 149
122 133 150
123 133 150
123 133 150
123 133 150
123 133 150
123 133 150
123 133 150
123 133 150
123 133 150
123 133 150
123 134 150
123 134 151
123 134 151
123 134 151
124 134 151
124 134 151
124 134 151
124 134 151
124 134 151
124 134 151
124 134 151
124 134 151
124 134 151
124 134 151
124 134 152
124 135 152
124 135 152
124 135 152
124 135 152
124 135 152
124 135 152
124 135 152
124 135 152
125 135 152
125 135 152
125 135 152
125 135 152
125 135 152
125 135 152
125 135 152
125 135 152
125 135 152
125 135 152
125 135 152
125 135 153
125 135 153
125 135 153
125 135 153
125 135 153
125 135 153
125 135 153
125 135 153
125 135 153
125 136 153
125 136 153
125 136 153
125 136 153
125 136 153
125 136 153
125 136 153
125 136 153
125 136 153
125 136 153
125 136 153
125 136 153
125 136 153
125 136 153
125 136 153
125 136 153
125 136 153
125 136 153
125 135 153
125 135 153
125 135 153
125 135 153
125 135 153
125 135 153
125 135 153
125 135 153
125 135 153
125 135 152
125 135 152
125 135 152
125 135 152
125 135 152
125 135 152
125 135 152
125 135 152
125 135 152
125 135 152
125 135 152
124 135 152
124 135 152
124 135 152
124 135 152
124 135 152
124 135 152
124 135 152
124 135 152
124 134 152
124 134 151
124 134 151
124 134 151
124 134 151
124 134 151
124 134 151
124 134 151
124 134 151
124 134 151
123 134 151
123 134 151
123 134 151
123 134 151
123 134 151
123 133 150
123 133 150
123 133 150
123 133 150
123 133 150
123 133 150
123 133 150
113 123 138
113 123 139
114 123 139
114 123 139
114 123 139
114 124 139
114 124 139
114 124 140
114 124 140
115 124 140
115 124 140
115 124 140
115 125 140
115 125 141
115 125 141
115 125 141
115 125 141
116 125 141
116 125 141
116 126 142
116 126 142
116 126 142
116 126 142
116 126 142
117 126 142
117 126 143
117 127 143
117 127 143
117 127 143
117 127 143
117 127 143
117 127 143
118 127 144
118 128 144
118 128 144
118 128 144
118 128 144
118 128 144
118 128 144
118 128 145
118 128 145
119 129 145
119 129 145
119 129 145
119 129 145
119 129 145
119 129 146
119 129 146
119 129 146
119 130 146
120 130 146
120 130 146
120 130 146
120 130 147
120 130 147
120 130 147
120 130 147
120 130 147
120 131 147
121 131 147
121 131 147
121 131 148
121 131 148
121 131 148
121 131 148
121 131 148
121 131 148
121 132 148
121 132 148
122 132 148
122 132 149
122 132 149
122 132 149
122 132 149
122 132 149
122 132 149
122 132 149
122 132 149
122 133 149
122 133 149
122 133 150
123 133 150
123 133 150
123 133 150
123 133 150
123 133 150
123 133 150
123 133 150
123 133 150
123 133 150
123 134 150
123 134 151
123 134 151
123 134 151
123 134 151
124 134 151
124 134 151
124 134 151
124 134 151
124 134 151
124 134 151
124 134 151
124 134 151
124 134 151
124 134 151
124 134 152
124 135 152
124 135 152
124 135 152
124 135 152
124 135 152
124 135 152
124 135 152
124 135 152
125 135 152
125 135 152
125 135 152
125 135 152
125 135 152
125 135 152
125 135 152
125 135 152
125 135 152
125 135 152
125 135 152
125 135 152
125 135 152
125 135 152
125 135 153
125 135 153
125 135 153
125 135 153
125 135 153
125 135 153
125 135 153
125 135 153
125 135 153
125 135 153
125 135 153
125 135 153
125 135 153
125 135 153
125 135 153
125 135 153
125 135 153
125 135 153
125 135 153
125 135 153
125 135 153
125 135 153
125 135 153
125 135 153
125 135 153
125 135 153
125 135 153
125 135 152
125 135 152
125 135 152
125 135 152
125 135 152
125 135 152
125 135 152
125 135 152
125 135 152
125 135 152
125 135 152
125 135 152
125 135 152
124 135 152
124 135 152
124 135 152
124 135 152
124 135 152
124 135 152
124 135 152
124 135 152
124 135 152
124 134 152
124 134 152
124 134 151
124 134 151
124 134 151
124 134 151
124 134 151
124 134 151
124 134 151
124 134 151
124 134 151
123 134 151
123 134 151
123 134 151
123 134 151
123 134 151
123 133 150
123 133 150
123 133 150
123 133 150
123 133 150
123 133 150
123 133 150
113 123 139
114 123 139
114 123 139
114 123 139
114 124 139
114 124 139
114 124 140
114 124 140
114 124 140
115 124 140
115 124 140
115 125 140
115 125 141
115 125 141
115 125 141
115 125 141
116 125 141
116 125 141
116 126 141
116 126 142
116 126 142
116 126 142
116 126 142
116 126 142
117 126 142
117 126 143
117 127 143
117 127 143
117 127 143
117 127 143
117 127 143
117 127 143
118 127 144
118 128 144
118 128 144
118 128 144
118 128 144
118 128 144
118 128 144
118 128 145
118 128 145
119 129 145
119 129 145
119 129 145
119 129 145
119 129 145
119 129 146
119 129 146
119 129 146
119 130 146
120 130 146
120 130 146
120 130 146
120 130 146
120 130 147
120 130 147
120 130 147
120 130 147
120 131 147
121 131 147
121 131 147
121 131 147
121 131 148
121 131 148
121 131 148
121 131 148
121 131 148
121 131 148
121 132 148
121 132 148
122 132 148
122 132 149
122 132 149
122 132 149
122 132 149
122 132 149
122 132 149
122 132 149
122 132 149
122 133 149
122 133 149
122 133 150
123 133 150
123 133 150
123 133 150
123 133 150
123 133 150
123 133 150
123 133 150
123 133 150
123 133 150
123 134 150
123 134 151
123 134 151
123 134 151
123 134 151
124 134 151
124 134 151
124 134 151
124 134 151
124 134 151
124 134 151
124 134 151
124 134 151
124 134 151
124 134 151
124 134 152
124 134 152
124 135 152
124 135 152
124 135 152
124 135 152
124 135 152
124 135 152
124 135 152
124 135 152
124 135 152
125 135 152
125 135 152
125 135 152
125 135 152
125 135 152
125 135 152
125 135 152
125 135 152
125 135 152
125 135 152
125 135 152
125 135 152
125 135 152
125 135 152
125 135 152
125 135 152
125 135 152
125 135 152
125 135 153
125 135 153
125 135 153
125 135 153
125 135 153
125 135 153
125 135 153
125 135 153
125 135 153
125 135 153
125 135 153
125 135 153
125 135 153
125 135 153
125 135 153
125 135 152
125 135 152
125 135 152
125 135 152
125 135 152
125 135 152
125 135 152
125 135 152
125 135 152
125 135 152
125 135 152
125 135 152
125 135 152
125 135 152
125 135 152
125 135 152
125 135 152
124 135 152
124 135 152
124 135 152
124 135 152
124 135 152
124 135 152
124 135 152
124 135 152
124 135 152
124 134 152
124 134 152
124 134 151
124 134 151
124 134 151
124 134 151
124 134 151
124 134 151
124 134 151
124 134 151
124 134 151
124 134 151
123 134 151
123 134 151
123 134 151
123 134 151
123 134 150
123 133 150
123 133 150
123 133 150
123 133 150
123 133 150
123 133 150
123 133 150
113 123 139
114 123 139
114 123 139
114 123 139
114 124 139
114 124 140
114 124 140
114 124 140
115 124 140
115 124 140
115 124 140
115 125 140
115 125 141
115 125 141
115 125 141
115 125 141
116 125 141
116 125 141
116 126 142
116 126 142
116 126 142
116 126 142
116 126 142
116 126 142
117 126 142
117 127 143
117 127 143
117 127 143
117 127 143
117 127 143
117 127 143
117 127 143
118 127 144
118 128 144
118 128 144
118 128 144
118 128 144
118 128 144
118 128 144
118 128 145
118 128 145
119 129 145
119 129 145
119 129 145
119 129 145
119 129 145
119 129 146
119 129 146
119 129 146
119 129 146
120 130 146
120 130 146
120 130 146
120 130 146
120 130 147
120 130 147
120 130 147
120 130 147
120 130 147
120 131 147
121 131 147
121 131 147
121 131 148
121 131 148
121 131 148
121 131 148
121 131 148
121 131 148
121 132 148
121 132 148
122 132 148
122 132 149
122 132 149
122 132 149
122 132 149
122 132 149
122 132 149
122 132 149
122 132 149
122 133 149
122 133 149
122 133 150
123 133 150
123 133 150
123 133 150
123 133 150
123 133 150
123 133 150
123 133 150
123 133 150
123 133 150
123 133 150
123 134 150
123 134 151
123 134 151
123 134 151
123 134 151
124 134 151
124 134 151
124 134 151
124 134 151
124 134 151
124 134 151
124 134 151
124 134 151
124 134 151
124 134 151
124 134 151
124 134 151
124 134 152
124 135 152
124 135 152
124 135 152
124 135 152
124 135 152
124 135 152
124 135 152
124 135 152
124 135 152
124 135 152
125 135 152
125 135 152
125 135 152
125 135 152
125 135 152
125 135 152
125 135 152
125 135 152
125 135 152
125 135 152
125 135 152
125 135 152
125 135 152
125 135 152
125 135 152
125 135 152
125 135 152
125 135 152
125 135 152
125 135 152
125 135 152
125 135 152
125 135 152
125 135 152
125 135 152
125 135 152
125 135 152
125 135 152
125 135 152
125 135 152
125 135 152
125 135 152
125 135 152
125 135 152
125 135 152
125 135 152
125 135 152
125 135 152
125 135 152
125 135 152
125 135 152
125 135 152
125 135 152
125 135 152
125 135 152
124 135 152
124 135 152
124 135 152
124 135 152
124 135 152
124 135 152
124 135 152
124 135 152
124 135 152
124 135 152
124 134 152
124 134 152
124 134 151
124 134 151
124 134 151
124 134 151
124 134 151
124 134 151
124 134 151
124 134 151
124 134 151
124 134 151
123 134 151
123 134 151
123 134 151
123 134 151
123 134 151
123 133 150
123 133 150
123 133 150
123 133 150
123 133 150
123 133 150
123 133 150
123 133 150
114 123 139
114 123 139
114 123 139
114 124 139
114 124 139
114 124 140
114 124 140
114 124 140
115 124 140
115 124 140
115 125 140
115 125 141
115 125 141
115 125 141
115 125 141
116 125 141
116 125 141
116 125 141
116 126 142
116 126 142
116 126 142
116 126 142
116 126 142
116 126 142
117 126 142
117 127 143
117 127 143
117 127 143
117 127 143
117 127 143
117 127 143
117 127 144
118 127 144
118 128 144
118 128 144
118 128 144
118 128 144
118 128 144
118 128 144
118 128 145
118 128 145
119 129 145
119 129 145
119 129 145
119 129 145
119 129 145
119 129 146
119 129 146
119 129 146
119 129 146
120 130 146
120 130 146
120 130 146
120 130 146
120 130 147
120 130 147
120 130 147
120 130 147
120 130 147
120 131 147
121 131 147
121 131 147
121 131 147
121 131 148
121 131 148
121 131 148
121 131 148
121 131 148
121 131 148
121 132 148
121 132 148
122 132 148
122 132 149
122 132 149
122 132 149
122 132 149
122 132 149
122 132 149
122 132 149
122 132 149
122 133 149
122 133 149
122 133 150
123 133 150
123 133 150
123 133 150
123 133 150
123 133 150
123 133 150
123 133 150
123 133 150
123 133 150
123 133 150
123 133 150
123 134 150
123 134 151
123 134 151
123 134 151
123 134 151
124 134 151
124 134 151
124 134 151
124 134 151
124 134 151
124 134 151
124 134 151
124 134 151
124 134 151
124 134 151
124 134 151
124 134 151
124 134 152
124 135 152
124 135 152
124 135 152
124 135 152
124 135 152
124 135 152
124 135 152
124 135 152
124 135 152
124 135 152
124 135 152
124 135 152
125 135 152
125 135 152
125 135 152
125 135 152
125 135 152
125 135 152
125 135 152
125 135 152
125 135 152
125 135 152
125 135 152
125 135 152
125 135 152
125 135 152
125 135 152
125 135 152
125 135 152
125 135 152
125 135 152
125 135 152
125 135 152
125 135 152
125 135 152
125 135 152
125 135 152
125 135 152
125 135 152
125 135 152
125 135 152
125 135 152
125 135 152
125 135 152
125 135 152
125 135 152
125 135 152
125 135 152
125 135 152
125 135 152
124 135 152
124 135 152
124 135 152
124 135 152
124 135 152
124 135 152
124 135 152
124 135 152
124 135 152
124 135 152
124 135 152
124 135 152
124 134 152
124 134 151
124 134 151
124 134 151
124 134 151
124 134 151
124 134 151
124 134 151
124 134 151
124 134 151
124 134 151
124 134 151
124 134 151
123 134 151
123 134 151
123 134 151
123 134 151
123 134 150
123 133 150
123 133 150
123 133 150
123 133 150
123 133 150
123 133 150
123 133 150
123 133 150
114 123 139
114 123 139
114 124 139
114 124 139
114 124 140
114 124 140
114 124 140
115 124 140
115 124 140
115 124 140
115 125 140
115 125 141
115 125 141
115 125 141
115 125 141
116 125 141
116 125 141
116 126 142
116 126 142
116 126 142
116 126 142
116 126 142
116 126 142
117 126 142
117 126 143
117 127 143
117 127 143
117 127 143
117 127 143
117 127 143
117 127 143
117 127 144
118 127 144
118 128 144
118 128 144
118 128 144
118 128 144
118 128 144
118 128 144
118 128 145
118 128 145
119 129 145
119 129 145
119 129 145
119 129 145
119 129 145
119 129 146
119 129 146
119 129 146
119 129 146
120 130 146
120 130 146
120 130 146
120 130 146
120 130 146
120 130 147
120 130 147
120 130 147
120 130 147
120 131 147
121 131 147
121 131 147
121 131 147
121 131 148
121 131 148
121 131 148
121 131 148
121 131 148
121 131 148
121 131 148
121 132 148
121 132 148
122 132 148
122 132 149
122 132 149
122 132 149
122 132 149
122 132 149
122 132 149
122 132 149
122 132 149
122 133 149
122 133 149
122 133 149
122 133 150
123 133 150
123 133 150
123 133 150
123 133 150
123 133 150
123 133 150
123 133 150
123 133 150
123 133 150
123 133 150
123 134 150
123 134 151
123 134 151
123 134 151
123 134 151
123 134 151
124 134 151
124 134 151
124 134 151
124 134 151
124 134 151
124 134 151
124 134 151
124 134 151
124 134 151
124 134 151
124 134 151
124 134 151
124 134 151
124 134 152
124 135 152
124 135 152
124 135 152
124 135 152
124 135 152
124 135 152
124 135 152
124 135 152
124 135 152
124 135 152
124 135 152
124 135 152
124 135 152
124 135 152
125 135 152
125 135 152
125 135 152
125 135 152
125 135 152
125 135 152
125 135 152
125 135 152
125 135 152
125 135 152
125 135 152
125 135 152
125 135 152
125 135 152
125 135 152
125 135 152
125 135 152
125 135 152
125 135 152
125 135 152
125 135 152
125 135 152
125 135 152
125 135 152
125 135 152
125 135 152
125 135 152
125 135 152
125 135 152
124 135 152
124 135 152
124 135 152
124 135 152
124 135 152
124 135 152
124 135 152
124 135 152
124 135 152
124 135 152
124 135 152
124 135 152
124 135 152
124 135 152
124 134 152
124 134 152
124 134 151
124 134 151
124 134 151
124 134 151
124 134 151
124 134 151
124 134 151
124 134 151
124 134 151
124 134 151
124 134 151
124 134 151
123 134 151
123 134 151
123 134 151
123 134 151
123 134 151
123 133 150
123 133 150
123 133 150
123 133 150
123 133 150
123 133 150
123 133 150
123 133 150
123 133 150
114 123 139
114 123 139
114 124 139
114 124 139
114 124 140
114 124 140
114 124 140
115 124 140
115 124 140
115 125 140
115 125 141
115 125 141
115 125 141
115 125 141
115 125 141
116 125 141
116 125 141
116 126 142
116 126 142
116 126 142
116 126 142
116 126 142
116 126 142
117 126 142
117 126 143
117 127 143
117 127 143
117 127 143
117 127 143
117 127 143
117 127 143
117 127 144
118 127 144
118 128 144
118 128 144
118 128 144
118 128 144
118 128 144
118 128 144
118 128 145
118 128 145
119 129 145
119 129 145
119 129 145
119 129 145
119 129 145
119 129 145
119 129 146
119 129 146
119 129 146
120 130 146
120 130 146
120 130 146
120 130 146
120 130 146
120 130 147
120 130 147
120 130 147
120 130 147
120 130 147
120 131 147
121 131 147
121 131 147
121 131 147
121 131 148
121 131 148
121 131 148
121 131 148
121 131 148
121 131 148
121 132 148
121 132 148
122 132 148
122 132 148
122 132 149
122 132 149
122 132 149
122 132 149
122 132 149
122 132 149
122 132 149
122 132 149
122 133 149
122 133 149
122 133 149
122 133 150
123 133 150
123 133 150
123 133 150
123 133 150
123 133 150
123 133 150
123 133 150
123 133 150
123 133 150
123 133 150
123 133 150
123 134 150
123 134 151
123 134 151
123 134 151
123 134 151
123 134 151
124 134 151
124 134 151
124 134 151
124 134 151
124 134 151
124 134 151
124 134 151
124 134 151
124 134 151
124 134 151
124 134 151
124 134 151
124 134 151
124 134 151
124 134 152
124 135 152
124 135 152
124 135 152
124 135 152
124 135 152
124 135 152
124 135 152
124 135 152
124 135 152
124 135 152
124 135 152
124 135 152
124 135 152
124 135 152
124 135 152
124 135 152
124 135 152
124 135 152
125 135 152
125 135 152
125 135 152
125 135 152
125 135 152
125 135 152
125 135 152
125 135 152
125 135 152
125 135 152
125 135 152
125 135 152
125 135 152
125 135 152
125 135 152
124 135 152
124 135 152
124 135 152
124 135 152
124 135 152
124 135 152
124 135 152
124 135 152
124 135 152
124 135 152
124 135 152
124 135 152
124 135 152
124 135 152
124 135 152
124 135 152
124 135 152
124 135 152
124 135 152
124 134 152
124 134 151
124 134 151
124 134 151
124 134 151
124 134 151
124 134 151
124 134 151
124 134 151
124 134 151
124 134 151
124 134 151
124 134 151
124 134 151
124 134 151
123 134 151
123 134 151
123 134 151
123 134 151
123 134 151
123 134 150
123 133 150
123 133 150
123 133 150
123 133 150
123 133 150
123 133 150
123 133 150
123 133 150
123 133 150
114 123 139
114 124 139
114 124 139
114 124 140
114 124 140
114 124 140
115 124 140
115 124 140
115 124 140
115 125 140
115 125 141
115 125 141
115 125 141
115 125 141
116 125 141
116 125 141
116 125 141
116 126 142
116 126 142
116 126 142
116 126 142
116 126 142
116 126 142
117 126 142
117 126 143
117 127 143
117 127 143
117 127 143
117 127 143
117 127 143
117 127 143
117 127 144
118 127 144
118 128 144
118 128 144
118 128 144
118 128 144
118 128 144
118 128 144
118 128 145
118 128 145
119 129 145
119 129 145
119 129 145
119 129 145
119 129 145
119 129 145
119 129 146
119 129 146
119 129 146
119 129 146
120 130 146
120 130 146
120 130 146
120 130 146
120 130 147
120 130 147
120 130 147
120 130 147
120 130 147
120 131 147
121 131 147
121 131 147
121 131 147
121 131 147
121 131 148
121 131 148
121 131 148
121 131 148
121 131 148
121 131 148
121 132 148
121 132 148
122 132 148
122 132 148
122 132 149
122 132 149
122 132 149
122 132 149
122 132 149
122 132 149
122 132 149
122 132 149
122 132 149
122 133 149
122 133 149
122 133 150
123 133 150
123 133 150
123 133 150
123 133 150
123 133 150
123 133 150
123 133 150
123 133 150
123 133 150
123 133 150
123 133 150
123 133 150
123 134 150
123 134 151
123 134 151
123 134 151
123 134 151
123 134 151
124 134 151
124 134 151
124 134 151
124 134 151
124 134 151
124 134 151
124 134 151
124 134 151
124 134 151
124 134 151
124 134 151
124 134 151
124 134 151
124 134 151
124 134 151
124 134 152
124 134 152
124 135 152
124 135 152
124 135 152
124 135 152
124 135 152
124 135 152
124 135 152
124 135 152
124 135 152
124 135 152
124 135 152
124 135 152
124 135 152
124 135 152
124 135 152
124 135 152
124 135 152
124 135 152
124 135 152
124 135 152
124 135 152
124 135 152
124 135 152
124 135 152
124 135 152
124 135 152
124 135 152
124 135 152
124 135 152
124 135 152
124 135 152
124 135 152
124 135 152
124 135 152
124 135 152
124 135 152
124 135 152
124 135 152
124 135 152
124 135 152
124 135 152
124 135 152
124 135 152
124 135 152
124 135 152
124 134 152
124 134 152
124 134 151
124 134 151
124 134 151
124 134 151
124 134 151
124 134 151
124 134 151
124 134 151
124 134 151
124 134 151
124 134 151
124 134 151
124 134 151
124 134 151
124 134 151
123 134 151
123 134 151
123 134 151
123 134 151
123 134 151
123 134 150
123 133 150
123 133 150
123 133 150
123 133 150
123 133 150
123 133 150
123 133 150
123 133 150
123 133 150
123 133 150
114 123 139
114 124 139
114 124 139
114 124 140
114 124 140
114 124 140
115 124 140
115 124 140
115 125 140
115 125 140
115 125 141
115 125 141
115 125 141
115 125 141
116 125 141
116 125 141
116 126 141
116 126 142
116 126 142
116 126 142
116 126 142
116 126 142
116 126 142
117 126 142
117 127 143
117 127 143
117 127 143
117 127 143
117 127 143
117 127 143
117 127 143
117 127 144
118 127 144
118 128 144
118 128 144
118 128 144
118 128 144
118 128 144
118 128 144
118 128 145
118 128 145
119 128 145
119 129 145
119 129 145
119 129 145
119 129 145
119 129 145
119 129 146
119 129 146
119 129 146
119 129 146
120 130 146
120 130 146
120 130 146
120 130 146
120 130 146
120 130 147
120 130 147
120 130 147
120 130 147
120 130 147
120 131 147
121 131 147
121 131 147
121 131 147
121 131 148
121 131 148
121 131 148
121 131 148
121 131 148
121 131 148
121 131 148
121 132 148
121 132 148
122 132 148
122 132 148
122 132 149
122 132 149
122 132 149
122 132 149
122 132 149
122 132 149
122 132 149
122 132 149
122 132 149
122 133 149
122 133 149
122 133 150
123 133 150
123 133 150
123 133 150
123 133 150
123 133 150
123 133 150
123 133 150
123 133 150
123 133 150
123 133 150
123 133 150
123 133 150
123 133 150
123 134 150
123 134 151
123 134 151
123 134 151
123 134 151
123 134 151
124 134 151
124 134 151
124 134 151
124 134 151
124 134 151
124 134 151
124 134 151
124 134 151
124 134 151
124 134 151
124 134 151
124 134 151
124 134 151
124 134 151
124 134 151
124 134 151
124 134 151
124 134 152
124 134 152
124 135 152
124 135 152
124 135 152
124 135 152
124 135 152
124 135 152
124 135 152
124 135 152
124 135 152
124 135 152
124 135 152
124 135 152
124 135 152
124 135 152
124 135 152
124 135 152
124 135 152
124 135 152
124 135 152
124 135 152
124 135 152
124 135 152
124 135 152
124 135 152
124 135 152
124 135 152
124 135 152
124 135 152
124 135 152
124 135 152
124 135 152
124 135 152
124 135 152
124 135 152
124 135 152
124 135 152
124 135 152
124 134 152
124 134 152
124 134 152
124 134 151
124 134 151
124 134 151
124 134 151
124 134 151
124 134 151
124 134 151
124 134 151
124 134 151
124 134 151
124 134 151
124 134 151
124 134 151
124 134 151
124 134 151
124 134 151
123 134 151
123 134 151
123 134 151
123 134 151
123 134 151
123 134 151
123 134 150
123 133 150
123 133 150
123 133 150
123 133 150
123 133 150
123 133 150
123 133 150
123 133 150
123 133 150
123 133 150
123 133 150
114 124 139
114 124 139
114 124 140
114 124 140
114 124 140
115 124 140
115 124 140
115 124 140
115 125 140
115 125 141
115 125 141
115 125 141
115 125 141
115 125 141
116 125 141
116 125 141
116 126 142
116 126 142
116 126 142
116 126 142
116 126 142
116 126 142
116 126 142
117 126 142
117 127 143
117 127 143
117 127 143
117 127 143
117 127 143
117 127 143
117 127 143
117 127 144
118 127 144
118 128 144
118 128 144
118 128 144
118 128 144
118 128 144
118 128 144
118 128 145
118 128 145
119 128 145
119 129 145
119 129 145
119 129 145
119 129 145
119 129 145
119 129 145
119 129 146
119 129 146
119 129 146
119 130 146
120 130 146
120 130 146
120 130 146
120 130 146
120 130 147
120 130 147
120 130 147
120 130 147
120 130 147
120 130 147
120 131 147
121 131 147
121 131 147
121 131 147
121 131 148
121 131 148
121 131 148
121 131 148
121 131 148
121 131 148
121 131 148
121 132 148
121 132 148
122 132 148
122 132 148
122 132 149
122 132 149
122 132 149
122 132 149
122 132 149
122 132 149
122 132 149
122 132 149
122 132 149
122 133 149
122 133 149
122 133 149
122 133 150
123 133 150
123 133 150
123 133 150
123 133 150
123 133 150
123 133 150
123 133 150
123 133 150
123 133 150
123 133 150
123 133 150
123 133 150
123 133 150
123 134 150
123 134 151
123 134 151
123 134 151
123 134 151
123 134 151
123 134 151
124 134 151
124 134 151
124 134 151
124 134 151
124 134 151
124 134 151
124 134 151
124 134 151
124 134 151
124 134 151
124 134 151
124 134 151
124 134 151
124 134 151
124 134 151
124 134 151
124 134 151
124 134 151
124 134 151
124 134 151
124 134 152
124 134 152
124 135 152
124 135 152
124 135 152
124 135 152
124 135 152
124 135 152
124 135 152
124 135 152
124 135 152
124 135 152
124 135 152
124 135 152
124 135 152
124 135 152
124 135 152
124 135 152
124 135 152
124 135 152
124 135 152
124 135 152
124 135 152
124 135 152
124 135 152
124 135 152
124 135 152
124 135 152
124 134 152
124 134 152
124 134 152
124 134 151
124 134 151
124 134 151
124 134 151
124 134 151
124 134 151
124 134 151
124 134 151
124 134 151
124 134 151
124 134 151
124 134 151
124 134 151
124 134 151
124 134 151
124 134 151
124 134 151
124 134 151
124 134 151
124 134 151
123 134 151
123 134 151
123 134 151
123 134 151
123 134 151
123 134 151
123 134 150
123 133 150
123 133 150
123 133 150
123 133 150
123 133 150
123 133 150
123 133 150
123 133 150
123 133 150
123 133 150
123 133 150
123 133 150
114 124 139
114 124 139
114 124 140
114 124 140
114 124 140
115 124 140
115 124 140
115 124 140
115 125 140
115 125 141
115 125 141
115 125 141
115 125 141
115 125 141
116 125 141
116 125 141
116 126 142
116 126 142
116 126 142
116 126 142
116 126 142
116 126 142
117 126 142
117 126 142
117 127 143
117 127 143
117 127 143
117 127 143
117 127 143
117 127 143
117 127 143
117 127 144
118 127 144
118 128 144
118 128 144
118 128 144
118 128 144
118 128 144
118 128 144
118 128 144
118 128 145
119 128 145
119 129 145
119 129 145
119 129 145
119 129 145
119 129 145
119 129 145
119 129 146
119 129 146
119 129 146
119 129 146
120 130 146
120 130 146
120 130 146
120 130 146
120 130 146
120 130 147
120 130 147
120 130 147
120 130 147
120 130 147
120 131 147
121 131 147
121 131 147
121 131 147
121 131 147
121 131 148
121 131 148
121 131 148
121 131 148
121 131 148
121 131 148
121 131 148
121 132 148
121 132 148
122 132 148
122 132 148
122 132 149
122 132 149
122 132 149
122 132 149
122 132 149
122 132 149
122 132 149
122 132 149
122 132 149
122 132 149
122 133 149
122 133 149
122 133 149
123 133 150
123 133 150
123 133 150
123 133 150
123 133 150
123 133 150
123 133 150
123 133 150
123 133 150
123 133 150
123 133 150
123 133 150
123 133 150
123 133 150
123 134 150
123 134 150
123 134 151
123 134 151
123 134 151
123 134 151
123 134 151
124 134 151
124 134 151
124 134 151
124 134 151
124 134 151
124 134 151
124 134 151
124 134 151
124 134 151
124 134 151
124 134 151
124 134 151
124 134 151
124 134 151
124 134 151
124 134 151
124 134 151
124 134 151
124 134 151
124 134 151
124 134 151
124 134 151
124 134 151
124 134 151
124 134 151
124 134 151
124 134 152
124 134 152
124 134 152
124 134 152
124 134 152
124 134 152
124 134 152
124 134 152
124 134 152
124 134 152
124 134 152
124 134 152
124 134 152
124 134 152
124 134 152
124 134 152
124 134 151
124 134 151
124 134 151
124 134 151
124 134 151
124 134 151
124 134 151
124 134 151
124 134 151
124 134 151
124 134 151
124 134 151
124 134 151
124 134 151
124 134 151
124 134 151
124 134 151
124 134 151
124 134 151
124 134 151
124 134 151
124 134 151
124 134 151
124 134 151
124 134 151
123 134 151
123 134 151
123 134 151
123 134 151
123 134 151
123 134 151
123 134 150
123 133 150
123 133 150
123 133 150
123 133 150
123 133 150
123 133 150
123 133 150
123 133 150
123 133 150
123 133 150
123 133 150
123 133 150
123 133 150
123 133 150
114 124 139
114 124 139
114 124 140
114 124 140
114 124 140
115 124 140
115 124 140
115 125 140
115 125 140
115 125 141
115 125 141
115 125 141
115 125 141
116 125 141
116 125 141
116 125 141
116 126 142
116 126 142
116 126 142
116 126 142
116 126 142
116 126 142
117 126 142
117 126 142
117 127 143
117 127 143
117 127 143
117 127 143
117 127 143
117 127 143
117 127 143
117 127 143
118 127 144
118 128 144
118 128 144
118 128 144
118 128 144
118 128 144
118 128 144
118 128 144
118 128 145
118 128 145
119 129 145
119 129 145
119 129 145
119 129 145
119 129 145
119 129 145
119 129 146
119 129 146
119 129 146
119 129 146
120 130 146
120 130 146
120 130 146
120 130 146
120 130 146
120 130 146
120 130 147
120 130 147
120 130 147
120 130 147
120 130 147
120 131 147
121 131 147
121 131 147
121 131 147
121 131 147
121 131 148
121 131 148
121 131 148
121 131 148
121 131 148
121 131 148
121 131 148
121 132 148
121 132 148
122 132 148
122 132 148
122 132 149
122 132 149
122 132 149
122 132 149
122 132 149
122 132 149
122 132 149
122 132 149
122 132 149
122 132 149
122 133 149
122 133 149
122 133 149
122 133 150
123 133 150
123 133 150
123 133 150
123 133 150
123 133 150
123 133 150
123 133 150
123 133 150
123 133 150
123 133 150
123 133 150
123 133 150
123 133 150
123 133 150
123 133 150
123 134 150
123 134 151
123 134 151
123 134 151
123 134 151
123 134 151
123 134 151
124 134 151
124 134 151
124 134 151
124 134 151
124 134 151
124 134 151
124 134 151
124 134 151
124 134 151
124 134 151
124 134 151
124 134 151
124 134 151
124 134 151
124 134 151
124 134 151
124 134 151
124 134 151
124 134 151
124 134 151
124 134 151
124 134 151
124 134 151
124 134 151
124 134 151
124 134 151
124 134 151
124 134 151
124 134 151
124 134 151
124 134 151
124 134 151
124 134 151
124 134 151
124 134 151
124 134 151
124 134 151
124 134 151
124 134 151
124 134 151
124 134 151
124 134 151
124 134 151
124 134 151
124 134 151
124 134 151
124 134 151
124 134 151
124 134 151
124 134 151
124 134 151
124 134 151
124 134 151
124 134 151
124 134 151
124 134 151
124 134 151
124 134 151
124 134 151
124 134 151
124 134 151
124 134 151
123 134 151
123 134 151
123 134 151
123 134 151
123 134 151
123 134 151
123 134 151
123 134 150
123 133 150
123 133 150
123 133 150
123 133 150
123 133 150
123 133 150
123 133 150
123 133 150
123 133 150
123 133 150
123 133 150
123 133 150
123 133 150
123 133 150
122 133 150
114 124 139
114 124 140
114 124 140
114 124 140
115 124 140
115 124 140
115 124 140
115 125 140
115 125 141
115 125 141
115 125 141
115 125 141
115 125 141
116 125 141
116 125 141
116 125 141
116 126 142
116 126 142
116 126 142
116 126 142
116 126 142
116 126 142
117 126 142
117 126 142
117 127 143
117 127 143
117 127 143
117 127 143
117 127 143
117 127 143
117 127 143
117 127 143
118 127 144
118 128 144
118 128 144
118 128 144
118 128 144
118 128 144
118 128 144
118 128 144
118 128 145
118 128 145
119 128 145
119 129 145
119 129 145
119 129 145
119 129 145
119 129 145
119 129 145
119 129 146
119 129 146
119 129 146
119 129 146
120 130 146
120 130 146
120 130 146
120 130 146
120 130 146
120 130 147
120 130 147
120 130 147
120 130 147
120 130 147
120 130 147
120 131 147
121 131 147
121 131 147
121 131 147
121 131 147
121 131 148
121 131 148
121 131 148
121 131 148
121 131 148
121 131 148
121 131 148
121 132 148
121 132 148
122 132 148
122 132 148
122 132 149
122 132 149
122 132 149
122 132 149
122 132 149
122 132 149
122 132 149
122 132 149
122 132 149
122 132 149
122 132 149
122 133 149
122 133 149
122 133 149
122 133 150
123 133 150
123 133 150
123 133 150
123 133 150
123 133 150
123 133 150
123 133 150
123 133 150
123 133 150
123 133 150
123 133 150
123 133 150
123 133 150
123 133 150
123 133 150
123 134 150
123 134 150
123 134 151
123 134 151
123 134 151
123 134 151
123 134 151
123 134 151
123 134 151
124 134 151
124 134 151
124 134 151
124 134 151
124 134 151
124 134 151
124 134 151
124 134 151
124 134 151
124 134 151
124 134 151
124 134 151
124 134 151
124 134 151
124 134 151
124 134 151
124 134 151
124 134 151
124 134 151
124 134 151
124 134 151
124 134 151
124 134 151
124 134 151
124 134 151
124 134 151
124 134 151
124 134 151
124 134 151
124 134 151
124 134 151
124 134 151
124 134 151
124 134 151
124 134 151
124 134 151
124 134 151
124 134 151
124 134 151
124 134 151
124 134 151
124 134 151
124 134 151
124 134 151
124 134 151
124 134 151
124 134 151
124 134 151
124 134 151
124 134 151
124 134 151
124 134 151
124 134 151
124 134 151
124 134 151
123 134 151
123 134 151
123 134 151
123 134 151
123 134 151
123 134 151
123 134 151
123 134 151
123 134 150
123 133 150
123 133 150
123 133 150
123 133 150
123 133 150
123 133 150
123 133 150
123 133 150
123 133 150
123 133 150
123 133 150
123 133 150
123 133 150
123 133 150
123 133 150
122 133 150
122 133 150
114 124 139
114 124 140
114 124 140
114 124 140
115 124 140
115 124 140
115 124 140
115 125 140
115 125 141
115 125 141
115 125 141
115 125 141
115 125 141
116 125 141
116 125 141
116 126 141
116 126 142
116 126 142
116 126 142
116 126 142
116 126 142
116 126 142
117 126 142
117 126 142
117 127 143
117 127 143
117 127 143
117 127 143
117 127 143
117 127 143
117 127 143
117 127 143
118 127 144
118 128 144
118 128 144
118 128 144
118 128 144
118 128 144
118 128 144
118 128 144
118 128 145
118 128 145
119 128 145
119 129 145
119 129 145
119 129 145
119 129 145
119 129 145
119 129 145
119 129 146
119 129 146
119 129 146
119 129 146
119 130 146
120 130 146
120 130 146
120 130 146
120 130 146
120 130 146
120 130 147
120 130 147
120 130 147
120 130 147
120 130 147
120 130 147
120 131 147
121 131 147
121 131 147
121 131 147
121 131 147
121 131 148
121 131 148
121 131 148
121 131 148
121 131 148
121 131 148
121 131 148
121 131 148
121 132 148
121 132 148
122 132 148
122 132 148
122 132 149
122 132 149
122 132 149
122 132 149
122 132 149
122 132 149
122 132 149
122 132 149
122 132 149
122 132 149
122 132 149
122 133 149
122 133 149
122 133 149
122 133 150
123 133 150
123 133 150
123 133 150
123 133 150
123 133 150
123 133 150
123 133 150
123 133 150
123 133 150
123 133 150
123 133 150
123 133 150
123 133 150
123 133 150
123 133 150
123 133 150
123 134 150
123 134 150
123 134 150
123 134 151
123 134 151
123 134 151
123 134 151
123 134 151
123 134 151
123 134 151
124 134 151
124 134 151
124 134 151
124 134 151
124 134 151
124 134 151
124 134 151
124 134 151
124 134 151
124 134 151
124 134 151
124 134 151
124 134 151
124 134 151
124 134 151
124 134 151
124 134 151
124 134 151
124 134 151
124 134 151
124 134 151
124 134 151
124 134 151
124 134 151
124 134 151
124 134 151
124 134 151
124 134 151
124 134 151
124 134 151
124 134 151
124 134 151
124 134 151
124 134 151
124 134 151
124 134 151
124 134 151
124 134 151
124 134 151
124 134 151
124 134 151
124 134 151
124 134 151
124 134 151
124 134 151
124 134 151
124 134 151
124 134 151
123 134 151
123 134 151
123 134 151
123 134 151
123 134 151
123 134 151
123 134 151
123 134 151
123 134 150
123 134 150
123 133 150
123 133 150
123 133 150
123 133 150
123 133 150
123 133 150
123 133 150
123 133 150
123 133 150
123 133 150
123 133 150
123 133 150
123 133 150
123 133 150
123 133 150
123 133 150
122 133 150
122 133 150
122 133 149
114 124 139
114 124 140
114 124 140
114 124 140
115 124 140
115 124 140
115 124 140
115 125 140
115 125 141
115 125 141
115 125 141
115 125 141
115 125 141
116 125 141
116 125 141
116 126 141
116 126 142
116 126 142
116 126 142
116 126 142
116 126 142
116 126 142
117 126 142
117 126 142
117 127 143
117 127 143
117 127 143
117 127 143
117 127 143
117 127 143
117 127 143
117 127 143
118 127 144
118 127 144
118 128 144
118 128 144
118 128 144
118 128 144
118 128 144
118 128 144
118 128 144
118 128 145
118 128 145
119 128 145
119 129 145
119 129 145
119 129 145
119 129 145
119 129 145
119 129 145
119 129 146
119 129 146
119 129 146
119 129 146
120 130 146
120 130 146
120 130 146
120 130 146
120 130 146
120 130 146
120 130 147
120 130 147
120 130 147
120 130 147
120 130 147
120 130 147
120 131 147
121 131 147
121 131 147
121 131 147
121 131 147
121 131 148
121 131 148
121 131 148
121 131 148
121 131 148
121 131 148
121 131 148
121 131 148
121 132 148
121 132 148
122 132 148
122 132 148
122 132 149
122 132 149
122 132 149
122 132 149
122 132 149
122 132 149
122 132 149
122 132 149
122 132 149
122 132 149
122 132 149
122 132 149
122 133 149
122 133 149
122 133 149
122 133 150
123 133 150
123 133 150
123 133 150
123 133 150
123 133 150
123 133 150
123 133 150
123 133 150
123 133 150
123 133 150
123 133 150
123 133 150
123 133 150
123 133 150
123 133 150
123 133 150
123 133 150
123 133 150
123 134 150
123 134 150
123 134 151
123 134 151
123 134 151
123 134 151
123 134 151
123 134 151
123 134 151
123 134 151
123 134 151
124 134 151
124 134 151
124 134 151
124 134 151
124 134 151
124 134 151
124 134 151
124 134 151
124 134 151
124 134 151
124 134 151
124 134 151
124 134 151
124 134 151
124 134 151
124 134 151
124 134 151
124 134 151
124 134 151
124 134 151
124 134 151
124 134 151
124 134 151
124 134 151
124 134 151
124 134 151
124 134 151
124 134 151
124 134 151
124 134 151
124 134 151
124 134 151
124 134 151
124 134 151
124 134 151
124 134 151
124 134 151
124 134 151
124 134 151
123 134 151
123 134 151
123 134 151
123 134 151
123 134 151
123 134 151
123 134 151
123 134 151
123 134 151
123 134 151
123 134 150
123 134 150
123 133 150
123 133 150
123 133 150
123 133 150
123 133 150
123 133 150
123 133 150
123 133 150
123 133 150
123 133 150
123 133 150
123 133 150
123 133 150
123 133 150
123 133 150
123 133 150
123 133 150
122 133 150
122 133 150
122 133 149
122 133 149
114 124 140
114 124 140
114 124 140
115 124 140
115 124 140
115 124 140
115 124 140
115 125 140
115 125 141
115 125 141
115 125 141
115 125 141
115 125 141
116 125 141
116 125 141
116 126 141
116 126 142
116 126 142
116 126 142
116 126 142
116 126 142
116 126 142
117 126 142
117 126 142
117 127 143
117 127 143
117 127 143
117 127 143
117 127 143
117 127 143
117 127 143
117 127 143
118 127 144
118 127 144
118 128 144
118 128 144
118 128 144
118 128 144
118 128 144
118 128 144
118 128 144
118 128 145
118 128 145
119 128 145
119 129 145
119 129 145
119 129 145
119 129 145
119 129 145
119 129 145
119 129 145
119 129 146
119 129 146
119 129 146
119 129 146
120 130 146
120 130 146
120 130 146
120 130 146
120 130 146
120 130 146
120 130 147
120 130 147
120 130 147
120 130 147
120 130 147
120 130 147
120 131 147
121 131 147
121 131 147
121 131 147
121 131 147
121 131 148
121 131 148
121 131 148
121 131 148
121 131 148
121 131 148
121 131 148
121 131 148
121 132 148
121 132 148
122 132 148
122 132 148
122 132 148
122 132 149
122 132 149
122 132 149
122 132 149
122 132 149
122 132 149
122 132 149
122 132 149
122 132 149
122 132 149
122 132 149
122 132 149
122 133 149
122 133 149
122 133 149
122 133 150
123 133 150
123 133 150
123 133 150
123 133 150
123 133 150
123 133 150
123 133 150
123 133 150
123 133 150
123 133 150
123 133 150
123 133 150
123 133 150
123 133 150
123 133 150
123 133 150
123 133 150
123 133 150
123 133 150
123 133 150
123 134 150
123 134 150
123 134 150
123 134 151
123 134 151
123 134 151
123 134 151
123 134 151
123 134 151
123 134 151
123 134 151
123 134 151
123 134 151
123 134 151
124 134 151
124 134 151
124 134 151
124 134 151
124 134 151
124 134 151
124 134 151
124 134 151
124 134 151
124 134 151
124 134 151
124 134 151
124 134 151
124 134 151
124 134 151
124 134 151
124 134 151
124 134 151
124 134 151
124 134 151
124 134 151
124 134 151
124 134 151
124 134 151
124 134 151
124 134 151
123 134 151
123 134 151
123 134 151
123 134 151
123 134 151
123 134 151
123 134 151
123 134 151
123 134 151
123 134 151
123 134 151
123 134 151
123 134 150
123 134 150
123 134 150
123 133 150
123 133 150
123 133 150
123 133 150
123 133 150
123 133 150
123 133 150
123 133 150
123 133 150
123 133 150
123 133 150
123 133 150
123 133 150
123 133 150
123 133 150
123 133 150
123 133 150
123 133 150
123 133 150
122 133 150
122 133 150
122 133 149
122 133 149
122 133 149
114 124 140
114 124 140
114 124 140
115 124 140
115 124 140
115 124 140
115 125 140
115 125 140
115 125 141
115 125 141
115 125 141
115 125 141
115 125 141
116 125 141
116 125 141
116 126 141
116 126 142
116 126 142
116 126 142
116 126 142
116 126 142
116 126 142
117 126 142
117 126 142
117 127 143
117 127 143
117 127 143
117 127 143
117 127 143
117 127 143
117 127 143
117 127 143
117 127 143
118 127 144
118 128 144
118 128 144
118 128 144
118 128 144
118 128 144
118 128 144
118 128 144
118 128 144
118 128 145
118 128 145
119 129 145
119 129 145
119 129 145
119 129 145
119 129 145
119 129 145
119 129 145
119 129 146
119 129 146
119 129 146
119 129 146
119 129 146
120 130 146
120 130 146
120 130 146
120 130 146
120 130 146
120 130 146
120 130 147
120 130 147
120 130 147
120 130 147
120 130 147
120 130 147
120 131 147
121 131 147
121 131 147
121 131 147
121 131 147
121 131 148
121 131 148
121 131 148
121 131 148
121 131 148
121 131 148
121 131 148
121 131 148
121 131 148
121 132 148
121 132 148
122 132 148
122 132 148
122 132 149
122 132 149
122 132 149
122 132 149
122 132 149
122 132 149
122 132 149
122 132 149
122 132 149
122 132 149
122 132 149
122 132 149
122 132 149
122 133 149
122 133 149
122 133 149
122 133 149
122 133 150
123 133 150
123 133 150
123 133 150
123 133 150
123 133 150
123 133 150
123 133 150
123 133 150
123 133 150
123 133 150
123 133 150
123 133 150
123 133 150
123 133 150
123 133 150
123 133 150
123 133 150
123 133 150
123 133 150
123 133 150
123 133 150
123 134 150
123 134 150
123 134 150
123 134 150
123 134 151
123 134 151
123 134 151
123 134 151
123 134 151
123 134 151
123 134 151
123 134 151
123 134 151
123 134 151
123 134 151
123 134 151
123 134 151
123 134 151
123 134 151
123 134 151
123 134 151
123 134 151
123 134 151
123 134 151
123 134 151
123 134 151
123 134 151
123 134 151
123 134 151
123 134 151
123 134 151
123 134 151
123 134 151
123 134 151
123 134 151
123 134 151
123 134 151
123 134 151
123 134 151
123 134 151
123 134 151
123 134 151
123 134 151
123 134 151
123 134 150
123 134 150
123 134 150
123 133 150
123 133 150
123 133 150
123 133 150
123 133 150
123 133 150
123 133 150
123 133 150
123 133 150
123 133 150
123 133 150
123 133 150
123 133 150
123 133 150
123 133 150
123 133 150
123 133 150
123 133 150
123 133 150
123 133 150
123 133 150
122 133 150
122 133 150
122 133 149
122 133 149
122 133 149
122 133 149
122 132 149
114 124 140
114 124 140
114 124 140
115 124 140
115 124 140
115 124 140
115 125 140
115 125 140
115 125 141
115 125 141
115 125 141
115 125 141
116 125 141
116 125 141
116 125 141
116 126 141
116 126 142
116 126 142
116 126 142
116 126 142
116 126 142
116 126 142
116 126 142
117 126 142
117 126 143
117 127 143
117 127 143
117 127 143
117 127 143
117 127 143
117 127 143
117 127 143
117 127 143
118 127 144
118 127 144
118 128 144
118 128 144
118 128 144
118 128 144
118 128 144
118 128 144
118 128 144
118 128 145
118 128 145
119 128 145
119 129 145
119 129 145
119 129 145
119 129 145
119 129 145
119 129 145
119 129 145
119 129 146
119 129 146
119 129 146
119 129 146
120 130 146
120 130 146
120 130 146
120 130 146
120 130 146
120 130 146
120 130 146
120 130 147
120 130 147
120 130 147
120 130 147
120 130 147
120 130 147
120 131 147
121 131 147
121 131 147
121 131 147
121 131 147
121 131 148
121 131 148
121 131 148
121 131 148
121 131 148
121 131 148
121 131 148
121 131 148
121 131 148
121 132 148
121 132 148
121 132 148
122 132 148
122 132 148
122 132 149
122 132 149
122 132 149
122 132 149
122 132 149
122 132 149
122 132 149
122 132 149
122 132 149
122 132 149
122 132 149
122 132 149
122 132 149
122 133 149
122 133 149
122 133 149
122 133 149
122 133 150
123 133 150
123 133 150
123 133 150
123 133 150
123 133 150
123 133 150
123 133 150
123 133 150
123 133 150
123 133 150
123 133 150
123 133 150
123 133 150
123 133 150
123 133 150
123 133 150
123 133 150
123 133 150
123 133 150
123 133 150
123 133 150
123 133 150
123 133 150
123 133 150
123 133 150
123 134 150
123 134 150
123 134 150
123 134 150
123 134 150
123 134 150
123 134 151
123 134 151
123 134 151
123 134 151
123 134 151
123 134 151
123 134 151
123 134 151
123 134 151
123 134 151
123 134 151
123 134 151
123 134 151
123 134 151
123 134 151
123 134 151
123 134 151
123 134 151
123 134 151
123 134 151
123 134 151
123 134 151
123 134 151
123 134 151
123 134 151
123 134 150
123 134 150
123 134 150
123 134 150
123 134 150
123 133 150
123 133 150
123 133 150
123 133 150
123 133 150
123 133 150
123 133 150
123 133 150
123 133 150
123 133 150
123 133 150
123 133 150
123 133 150
123 133 150
123 133 150
123 133 150
123 133 150
123 133 150
123 133 150
123 133 150
123 133 150
123 133 150
123 133 150
123 133 150
123 133 150
122 133 150
122 133 150
122 133 149
122 133 149
122 133 149
122 132 149
122 132 149
122 132 149
