P3
200 150
255
57 67 89
57 67 89
58 67 89
58 67 89
58 67 89
58 67 89
58 67 89
58 67 89
58 68 89
58 68 89
58 68 89
58 68 89
58 68 89
58 68 89
58 68 89
58 68 89
58 68 89
58 68 89
58 68 89
58 68 89
58 68 89
58 68 89
58 68 90
58 68 90
58 68 90
58 68 90
58 68 90
58 68 90
58 68 90
58 68 90
58 68 90
58 68 90
58 68 90
58 68 90
58 68 90
58 68 90
58 68 90
58 68 90
58 68 90
58 68 90
58 68 90
58 68 90
58 68 90
58 68 90
58 68 90
58 68 90
58 68 90
58 68 90
58 68 90
58 68 90
58 68 90
58 68 90
58 68 90
58 68 90
58 68 90
58 68 90
58 68 90
58 68 90
58 68 90
58 68 90
58 68 90
58 68 90
58 68 90
58 68 90
58 68 90
58 68 90
58 68 90
58 68 90
58 68 90
58 68 90
58 68 90
58 68 90
58 68 90
58 68 90
58 68 90
58 68 90
58 68 90
58 68 90
58 68 90
58 68 90
58 68 90
58 68 90
58 68 90
58 68 90
58 68 90
58 68 90
58 68 90
58 68 90
58 68 90
58 68 90
58 68 90
58 68 90
58 68 90
58 68 90
58 68 90
58 68 90
58 68 90
58 68 90
58 68 90
58 68 90
58 68 90
58 68 90
58 68 90
58 68 90
58 68 90
58 68 90
58 68 90
58 68 90
58 68 90
58 68 90
58 68 90
58 68 90
58 68 90
58 68 90
58 68 90
58 68 90
58 68 90
58 68 90
58 68 90
58 68 90
58 68 90
58 68 90
58 68 90
58 68 90
58 68 90
58 68 90
58 68 90
58 68 90
58 68 90
58 68 90
58 68 90
58 68 90
58 68 90
58 68 90
58 68 90
58 68 90
58 68 90
58 68 90
58 68 90
58 68 90
58 68 90
58 68 90
58 68 90
58 68 90
58 68 90
58 68 90
58 68 90
58 68 90
58 68 90
58 68 90
58 68 90
58 68 90
58 68 90
58 68 90
58 68 90
58 68 90
58 68 90
58 68 90
58 68 90
58 68 90
58 68 90
58 68 90
58 68 90
58 68 90
58 68 90
58 68 90
58 68 90
58 68 90
58 68 90
58 68 90
58 68 90
58 68 90
58 68 90
58 68 90
58 68 90
58 68 90
58 68 90
58 68 90
58 68 89
58 68 89
58 68 89
58 68 89
58 68 89
58 68 89
58 68 89
58 68 89
58 68 89
58 68 89
58 68 89
58 68 89
58 68 89
58 68 89
58 67 89
58 67 89
58 67 89
58 67 89
58 67 89
58 67 89
57 67 89
57 67 89
57 67 89
57 67 89
57 67 89
57 67 89
57 67 89
57 67 89
57 67 89
57 67 89
57 67 89
58 67 89
58 67 89
58 67 89
58 67 89
58 67 89
58 67 89
58 68 89
58 68 89
58 68 89
58 68 89
58 68 89
58 68 89
58 68 89
58 68 89
58 68 89
58 68 89
58 68 89
58 68 89
58 68 89
58 68 89
58 68 89
58 68 90
58 68 90
58 68 90
58 68 90
58 68 90
58 68 90
58 68 90
58 68 90
58 68 90
58 68 90
58 68 90
58 68 90
58 68 90
58 68 90
58 68 90
58 68 90
58 68 90
58 68 90
58 68 90
58 68 90
58 68 90
58 68 90
58 68 90
58 68 90
58 68 90
58 68 90
58 68 90
58 68 90
58 68 90
58 68 90
58 68 90
58 68 90
58 68 90
58 68 90
58 68 90
58 68 90
58 68 90
58 68 90
58 68 90
58 68 90
58 68 90
58 68 90
58 68 90
58 68 90
58 68 90
58 68 90
58 68 90
58 68 90
58 68 90
58 68 90
58 68 90
58 68 90
58 68 90
58 68 90
58 68 90
58 68 90
58 68 90
58 68 90
58 68 90
58 68 90
58 68 90
58 68 90
58 68 90
58 68 90
58 68 90
58 68 90
58 68 90
58 68 90
58 68 90
58 68 90
58 68 90
58 68 90
58 68 90
58 68 90
58 68 90
58 68 90
58 68 90
58 68 90
58 68 90
58 68 90
58 68 90
58 68 90
58 68 90
58 68 90
58 68 90
58 68 90
58 68 90
58 68 90
58 68 90
58 68 90
58 68 90
58 68 90
58 68 90
58 68 90
58 68 90
58 68 90
58 68 90
58 68 90
58 68 90
58 68 90
58 68 90
58 68 90
58 68 90
58 68 90
58 68 90
58 68 90
58 68 90
58 68 90
58 68 90
58 68 90
58 68 90
58 68 90
58 68 90
58 68 90
58 68 90
58 68 90
58 68 90
58 68 90
58 68 90
58 68 90
58 68 90
58 68 90
58 68 90
58 68 90
58 68 90
58 68 90
58 68 90
58 68 90
58 68 90
58 68 90
58 68 90
58 68 90
58 68 90
58 68 90
58 68 90
58 68 90
58 68 90
58 68 90
58 68 90
58 68 90
58 68 89
58 68 89
58 68 89
58 68 89
58 68 89
58 68 89
58 68 89
58 68 89
58 68 89
58 68 89
58 68 89
58 68 89
58 68 89
58 68 89
58 68 89
58 67 89
58 67 89
58 67 89
58 67 89
58 67 89
58 67 89
57 67 89
57 67 89
57 67 89
57 67 89
57 67 89
57 67 89
57 67 89
57 67 89
57 67 89
57 67 89
57 67 89
57 67 89
57 67 89
57 67 89
57 67 89
57 67 89
57 67 89
57 67 89
57 67 89
57 67 89
57 67 89
57 67 89
57 67 89
57 67 89
57 67 89
57 67 89
58 67 89
58 67 89
58 67 89
58 67 89
58 67 89
58 67 89
58 67 89
58 68 89
58 68 89
58 68 89
58 68 89
58 68 89
58 68 89
58 68 89
58 68 89
58 68 89
58 68 89
58 68 89
58 68 89
58 68 89
58 68 89
58 68 89
58 68 89
58 68 90
58 68 90
58 68 90
58 68 90
58 68 90
58 68 90
58 68 90
58 68 90
58 68 90
58 68 90
58 68 90
58 68 90
58 68 90
58 68 90
58 68 90
58 68 90
58 68 90
58 68 90
58 68 90
58 68 90
58 68 90
58 68 90
58 68 90
58 68 90
58 68 90
58 68 90
58 68 90
58 68 90
58 68 90
58 68 90
58 68 90
58 68 90
58 68 90
58 68 90
58 68 90
58 68 90
58 68 90
58 68 90
58 68 90
58 68 90
58 68 90
58 68 90
58 68 90
58 68 90
58 68 90
58 68 90
58 68 90
58 68 90
58 68 90
58 68 90
58 68 90
58 68 90
58 68 90
58 68 90
58 68 90
58 68 90
58 68 90
58 68 90
58 68 90
58 68 90
58 68 90
58 68 90
58 68 90
58 68 90
58 68 90
58 68 90
58 68 90
58 68 90
58 68 90
58 68 90
58 68 90
58 68 90
58 68 90
58 68 90
58 68 90
58 68 90
58 68 90
58 68 90
58 68 90
58 68 90
58 68 90
58 68 90
58 68 90
58 68 90
58 68 90
58 68 90
58 68 90
58 68 90
58 68 90
58 68 90
58 68 90
58 68 90
58 68 90
58 68 90
58 68 90
58 68 90
58 68 90
58 68 90
58 68 90
58 68 90
58 68 90
58 68 90
58 68 90
58 68 90
58 68 90
58 68 90
58 68 90
58 68 90
58 68 90
58 68 90
58 68 90
58 68 90
58 68 90
58 68 90
58 68 90
58 68 90
58 68 90
58 68 90
58 68 90
58 68 90
58 68 89
58 68 89
58 68 89
58 68 89
58 68 89
58 68 89
58 68 89
58 68 89
58 68 89
58 68 89
58 68 89
58 68 89
58 68 89
58 68 89
58 68 89
58 68 89
58 67 89
58 67 89
58 67 89
58 67 89
58 67 89
58 67 89
58 67 89
57 67 89
57 67 89
57 67 89
57 67 89
57 67 89
57 67 89
57 67 89
57 67 89
57 67 89
57 67 89
57 67 89
57 67 89
57 67 89
57 67 89
57 67 89
57 67 89
57 67 89
57 67 89
57 67 89
57 67 89
57 67 89
57 67 89
57 67 89
57 67 89
57 67 89
57 67 89
57 67 89
57 67 89
57 67 89
57 67 89
57 67 89
57 67 89
57 67 89
57 67 89
57 67 89
57 67 89
57 67 89
57 67 89
57 67 89
57 67 89
57 67 89
57 67 89
57 67 89
58 67 89
58 67 89
58 67 89
58 67 89
58 67 89
58 67 89
58 67 89
58 68 89
58 68 89
58 68 89
58 68 89
58 68 89
58 68 89
58 68 89
58 68 89
58 68 89
58 68 89
58 68 89
58 68 89
58 68 89
58 68 89
58 68 89
58 68 89
58 68 89
58 68 89
58 68 90
58 68 90
58 68 90
58 68 90
58 68 90
58 68 90
58 68 90
58 68 90
58 68 90
58 68 90
58 68 90
58 68 90
58 68 90
58 68 90
58 68 90
58 68 90
58 68 90
58 68 90
58 68 90
58 68 90
58 68 90
58 68 90
58 68 90
58 68 90
58 68 90
58 68 90
58 68 90
58 68 90
58 68 90
58 68 90
58 68 90
58 68 90
58 68 90
58 68 90
58 68 90
58 68 90
58 68 90
58 68 90
58 68 90
58 68 90
58 68 90
58 68 90
58 68 90
58 68 90
58 68 90
58 68 90
58 68 90
58 68 90
58 68 90
58 68 90
58 68 90
58 68 90
58 68 90
58 68 90
58 68 90
58 68 90
58 68 90
58 68 90
58 68 90
58 68 90
58 68 90
58 68 90
58 68 90
58 68 90
58 68 90
58 68 90
58 68 90
58 68 90
58 68 90
58 68 90
58 68 90
58 68 90
58 68 90
58 68 90
58 68 90
58 68 90
58 68 90
58 68 90
58 68 90
58 68 90
58 68 90
58 68 90
58 68 90
58 68 90
58 68 90
58 68 90
58 68 90
58 68 90
58 68 90
58 68 90
58 68 90
58 68 90
58 68 90
58 68 90
58 68 90
58 68 90
58 68 90
58 68 90
58 68 89
58 68 89
58 68 89
58 68 89
58 68 89
58 68 89
58 68 89
58 68 89
58 68 89
58 68 89
58 68 89
58 68 89
58 68 89
58 68 89
58 68 89
58 68 89
58 68 89
58 68 89
58 67 89
58 67 89
58 67 89
58 67 89
58 67 89
58 67 89
58 67 89
57 67 89
57 67 89
57 67 89
57 67 89
57 67 89
57 67 89
57 67 89
57 67 89
57 67 89
57 67 89
57 67 89
57 67 89
57 67 89
57 67 89
57 67 89
57 67 89
57 67 89
57 67 89
57 67 89
57 67 89
57 67 89
57 67 89
57 67 89
57 67 89
57 67 89
57 67 89
57 67 88
57 67 88
57 67 88
57 67 89
57 67 89
57 67 89
57 67 89
57 67 89
57 67 89
57 67 89
57 67 89
57 67 89
57 67 89
57 67 89
57 67 89
57 67 89
57 67 89
57 67 89
57 67 89
57 67 89
57 67 89
57 67 89
57 67 89
57 67 89
57 67 89
57 67 89
57 67 89
57 67 89
57 67 89
57 67 89
57 67 89
57 67 89
57 67 89
57 67 89
57 67 89
57 67 89
58 67 89
58 67 89
58 67 89
58 67 89
58 67 89
58 67 89
58 67 89
58 68 89
58 68 89
58 68 89
58 68 89
58 68 89
58 68 89
58 68 89
58 68 89
58 68 89
58 68 89
58 68 89
58 68 89
58 68 89
58 68 89
58 68 89
58 68 89
58 68 89
58 68 89
58 68 89
58 68 89
58 68 89
58 68 89
58 68 89
58 68 90
58 68 90
58 68 90
58 68 90
58 68 90
58 68 90
58 68 90
58 68 90
58 68 90
58 68 90
58 68 90
58 68 90
58 68 90
58 68 90
58 68 90
58 68 90
58 68 90
58 68 90
58 68 90
58 68 90
58 68 90
58 68 90
58 68 90
58 68 90
58 68 90
58 68 90
58 68 90
58 68 90
58 68 90
58 68 90
58 68 90
58 68 90
58 68 90
58 68 90
58 68 90
58 68 90
58 68 90
58 68 90
58 68 90
58 68 90
58 68 90
58 68 90
58 68 90
58 68 90
58 68 90
58 68 90
58 68 90
58 68 90
58 68 90
58 68 90
58 68 90
58 68 90
58 68 90
58 68 90
58 68 90
58 68 90
58 68 90
58 68 90
58 68 90
58 68 90
58 68 90
58 68 90
58 68 90
58 68 90
58 68 90
58 68 90
58 68 90
58 68 90
58 68 89
58 68 89
58 68 89
58 68 89
58 68 89
58 68 89
58 68 89
58 68 89
58 68 89
58 68 89
58 68 89
58 68 89
58 68 89
58 68 89
58 68 89
58 68 89
58 68 89
58 68 89
58 68 89
58 68 89
58 68 89
58 68 89
58 68 89
58 67 89
58 67 89
58 67 89
58 67 89
58 67 89
58 67 89
58 67 89
57 67 89
57 67 89
57 67 89
57 67 89
57 67 89
57 67 89
57 67 89
57 67 89
57 67 89
57 67 89
57 67 89
57 67 89
57 67 89
57 67 89
57 67 89
57 67 89
57 67 89
57 67 89
57 67 89
57 67 89
57 67 89
57 67 89
57 67 89
57 67 89
57 67 89
57 67 89
57 67 89
57 67 89
57 67 89
57 67 89
57 67 89
57 67 89
57 67 89
57 67 88
57 67 88
57 67 88
57 67 88
57 67 88
57 67 88
57 67 88
57 67 88
57 67 88
57 67 88
57 67 88
57 67 88
57 67 88
57 67 88
57 67 89
57 67 89
57 67 89
57 67 89
57 67 89
57 67 89
57 67 89
57 67 89
57 67 89
57 67 89
57 67 89
57 67 89
57 67 89
57 67 89
57 67 89
57 67 89
57 67 89
57 67 89
57 67 89
57 67 89
57 67 89
57 67 89
57 67 89
57 67 89
57 67 89
57 67 89
57 67 89
57 67 89
57 67 89
57 67 89
57 67 89
57 67 89
57 67 89
57 67 89
57 67 89
57 67 89
58 67 89
58 67 89
58 67 89
58 67 89
58 67 89
58 67 89
58 67 89
58 67 89
58 67 89
58 68 89
58 68 89
58 68 89
58 68 89
58 68 89
58 68 89
58 68 89
58 68 89
58 68 89
58 68 89
58 68 89
58 68 89
58 68 89
58 68 89
58 68 89
58 68 89
58 68 89
58 68 89
58 68 89
58 68 89
58 68 89
58 68 89
58 68 89
58 68 89
58 68 89
58 68 89
58 68 89
58 68 89
58 68 89
58 68 89
58 68 89
58 68 89
58 68 89
58 68 89
58 68 89
58 68 89
58 68 89
58 68 89
58 68 89
58 68 89
58 68 89
58 68 89
58 68 89
58 68 89
58 68 89
58 68 89
58 68 89
58 68 89
58 68 89
58 68 89
58 68 89
58 68 89
58 68 89
58 68 89
58 68 89
58 68 89
58 68 89
58 68 89
58 68 89
58 68 89
58 68 89
58 68 89
58 68 89
58 68 89
58 68 89
58 68 89
58 68 89
58 68 89
58 68 89
58 68 89
58 68 89
58 68 89
58 68 89
58 68 89
58 68 89
58 68 89
58 68 89
58 68 89
58 68 89
58 68 89
58 68 89
58 68 89
58 68 89
58 68 89
58 68 89
58 68 89
58 68 89
58 68 89
58 67 89
58 67 89
58 67 89
58 67 89
58 67 89
58 67 89
58 67 89
58 67 89
58 67 89
57 67 89
57 67 89
57 67 89
57 67 89
57 67 89
57 67 89
57 67 89
57 67 89
57 67 89
57 67 89
57 67 89
57 67 89
57 67 89
57 67 89
57 67 89
57 67 89
57 67 89
57 67 89
57 67 89
57 67 89
57 67 89
57 67 89
57 67 89
57 67 89
57 67 89
57 67 89
57 67 89
57 67 89
57 67 89
57 67 89
57 67 89
57 67 89
57 67 89
57 67 89
57 67 89
57 67 89
57 67 88
57 67 88
57 67 88
57 67 88
57 67 88
57 67 88
57 67 88
57 67 88
57 67 88
57 67 88
57 67 88
57 67 88
57 67 88
57 67 88
57 67 88
57 67 88
57 67 88
57 67 88
57 67 88
57 67 88
57 67 88
57 67 88
57 67 88
57 67 88
57 67 88
57 67 88
57 67 88
57 67 88
57 67 88
57 67 88
57 67 88
57 67 89
57 67 89
57 67 89
57 67 89
57 67 89
57 67 89
57 67 89
57 67 89
57 67 89
57 67 89
57 67 89
57 67 89
57 67 89
57 67 89
57 67 89
57 67 89
57 67 89
57 67 89
57 67 89
57 67 89
57 67 89
57 67 89
57 67 89
57 67 89
57 67 89
57 67 89
57 67 89
57 67 89
57 67 89
57 67 89
57 67 89
57 67 89
57 67 89
57 67 89
57 67 89
57 67 89
57 67 89
57 67 89
57 67 89
57 67 89
58 67 89
58 67 89
58 67 89
58 67 89
58 67 89
58 67 89
58 67 89
58 67 89
58 67 89
58 67 89
58 67 89
58 67 89
58 67 89
58 68 89
58 68 89
58 68 89
58 68 89
58 68 89
58 68 89
58 68 89
58 68 89
58 68 89
58 68 89
58 68 89
58 68 89
58 68 89
58 68 89
58 68 89
58 68 89
58 68 89
58 68 89
58 68 89
58 68 89
58 68 89
58 68 89
58 68 89
58 68 89
58 68 89
58 68 89
58 68 89
58 68 89
58 68 89
58 68 89
58 68 89
58 68 89
58 68 89
58 68 89
58 68 89
58 68 89
58 68 89
58 68 89
58 68 89
58 68 89
58 68 89
58 68 89
58 68 89
58 68 89
58 68 89
58 68 89
58 68 89
58 68 89
58 68 89
58 68 89
58 68 89
58 68 89
58 68 89
58 68 89
58 67 89
58 67 89
58 67 89
58 67 89
58 67 89
58 67 89
58 67 89
58 67 89
58 67 89
58 67 89
58 67 89
58 67 89
58 67 89
57 67 89
57 67 89
57 67 89
57 67 89
57 67 89
57 67 89
57 67 89
57 67 89
57 67 89
57 67 89
57 67 89
57 67 89
57 67 89
57 67 89
57 67 89
57 67 89
57 67 89
57 67 89
57 67 89
57 67 89
57 67 89
57 67 89
57 67 89
57 67 89
57 67 89
57 67 89
57 67 89
57 67 89
57 67 89
57 67 89
57 67 89
57 67 89
57 67 89
57 67 89
57 67 89
57 67 89
57 67 89
57 67 89
57 67 89
57 67 89
57 67 88
57 67 88
57 67 88
57 67 88
57 67 88
57 67 88
57 67 88
57 67 88
57 67 88
57 67 88
57 67 88
57 67 88
57 67 88
57 67 88
57 67 88
57 67 88
57 67 88
57 67 88
57 67 88
57 67 88
57 66 88
57 66 88
57 66 88
57 67 88
57 67 88
57 67 88
57 67 88
57 67 88
57 67 88
57 67 88
57 67 88
57 67 88
57 67 88
57 67 88
57 67 88
57 67 88
57 67 88
57 67 88
57 67 88
57 67 88
57 67 88
57 67 88
57 67 88
57 67 88
57 67 88
57 67 88
57 67 88
57 67 88
57 67 88
57 67 89
57 67 89
57 67 89
57 67 89
57 67 89
57 67 89
57 67 89
57 67 89
57 67 89
57 67 89
57 67 89
57 67 89
57 67 89
57 67 89
57 67 89
57 67 89
57 67 89
57 67 89
57 67 89
57 67 89
57 67 89
57 67 89
57 67 89
57 67 89
57 67 89
57 67 89
57 67 89
57 67 89
57 67 89
57 67 89
57 67 89
57 67 89
57 67 89
57 67 89
57 67 89
57 67 89
57 67 89
57 67 89
57 67 89
57 67 89
57 67 89
57 67 89
57 67 89
57 67 89
57 67 89
57 67 89
57 67 89
57 67 89
57 67 89
57 67 89
57 67 89
57 67 89
57 67 89
58 67 89
58 67 89
58 67 89
58 67 89
58 67 89
58 67 89
58 67 89
58 67 89
58 67 89
58 67 89
58 67 89
58 67 89
58 67 89
58 67 89
58 67 89
58 67 89
58 67 89
58 67 89
58 67 89
58 67 89
58 67 89
58 67 89
58 67 89
58 67 89
58 67 89
58 67 89
58 67 89
58 67 89
58 67 89
58 67 89
58 67 89
58 67 89
58 67 89
58 67 89
58 67 89
58 67 89
57 67 89
57 67 89
57 67 89
57 67 89
57 67 89
57 67 89
57 67 89
57 67 89
57 67 89
57 67 89
57 67 89
57 67 89
57 67 89
57 67 89
57 67 89
57 67 89
57 67 89
57 67 89
57 67 89
57 67 89
57 67 89
57 67 89
57 67 89
57 67 89
57 67 89
57 67 89
57 67 89
57 67 89
57 67 89
57 67 89
57 67 89
57 67 89
57 67 89
57 67 89
57 67 89
57 67 89
57 67 89
57 67 89
57 67 89
57 67 89
57 67 89
57 67 89
57 67 89
57 67 89
57 67 89
57 67 89
57 67 89
57 67 89
57 67 89
57 67 89
57 67 89
57 67 89
57 67 89
57 67 88
57 67 88
57 67 88
57 67 88
57 67 88
57 67 88
57 67 88
57 67 88
57 67 88
57 67 88
57 67 88
57 67 88
57 67 88
57 67 88
57 67 88
57 67 88
57 67 88
57 67 88
57 67 88
57 67 88
57 67 88
57 67 88
57 67 88
57 67 88
57 67 88
57 67 88
57 66 88
57 66 88
57 66 88
57 66 88
57 66 88
57 66 88
57 66 88
57 66 88
57 66 88
57 66 88
57 66 88
57 66 88
57 66 88
57 66 88
57 66 88
57 67 88
57 67 88
57 67 88
57 67 88
57 67 88
57 67 88
57 67 88
57 67 88
57 67 88
57 67 88
57 67 88
57 67 88
57 67 88
57 67 88
57 67 88
57 67 88
57 67 88
57 67 88
57 67 88
57 67 88
57 67 88
57 67 88
57 67 88
57 67 88
57 67 88
57 67 88
57 67 88
57 67 88
57 67 89
57 67 89
57 67 89
57 67 89
57 67 89
57 67 89
57 67 89
57 67 89
57 67 89
57 67 89
57 67 89
57 67 89
57 67 89
57 67 89
57 67 89
57 67 89
57 67 89
57 67 89
57 67 89
57 67 89
57 67 89
57 67 89
57 67 89
57 67 89
57 67 89
57 67 89
57 67 89
57 67 89
57 67 89
57 67 89
57 67 89
57 67 89
57 67 89
57 67 89
57 67 89
57 67 89
57 67 89
57 67 89
57 67 89
57 67 89
57 67 89
57 67 89
57 67 89
57 67 89
57 67 89
57 67 89
57 67 89
57 67 89
57 67 89
57 67 89
57 67 89
57 67 89
57 67 89
57 67 89
57 67 89
57 67 89
57 67 89
57 67 89
57 67 89
57 67 89
57 67 89
57 67 89
57 67 89
57 67 89
57 67 89
57 67 89
57 67 89
57 67 89
57 67 89
57 67 89
57 67 89
57 67 89
57 67 89
57 67 89
57 67 89
57 67 89
57 67 89
57 67 89
57 67 89
57 67 89
57 67 89
57 67 89
57 67 89
57 67 89
57 67 89
57 67 89
57 67 89
57 67 89
57 67 89
57 67 89
57 67 89
57 67 89
57 67 89
57 67 89
57 67 89
57 67 89
57 67 89
57 67 89
57 67 89
57 67 89
57 67 89
57 67 89
57 67 89
57 67 89
57 67 89
57 67 89
57 67 89
57 67 89
57 67 89
57 67 89
57 67 89
57 67 89
57 67 89
57 67 89
57 67 89
57 67 89
57 67 89
57 67 89
57 67 89
57 67 89
57 67 88
57 67 88
57 67 88
57 67 88
57 67 88
57 67 88
57 67 88
57 67 88
57 67 88
57 67 88
57 67 88
57 67 88
57 67 88
57 67 88
57 67 88
57 67 88
57 67 88
57 67 88
57 67 88
57 67 88
57 67 88
57 67 88
57 67 88
57 67 88
57 67 88
57 67 88
57 67 88
57 67 88
57 66 88
57 66 88
57 66 88
57 66 88
57 66 88
57 66 88
57 66 88
57 66 88
57 66 88
57 66 88
57 66 88
57 66 88
56 66 88
56 66 88
56 66 88
56 66 88
56 66 88
57 66 88
57 66 88
57 66 88
57 66 88
57 66 88
57 66 88
57 66 88
57 66 88
57 66 88
57 66 88
57 66 88
57 66 88
57 66 88
57 66 88
57 66 88
57 66 88
57 66 88
57 67 88
57 67 88
57 67 88
57 67 88
57 67 88
57 67 88
57 67 88
57 67 88
57 67 88
57 67 88
57 67 88
57 67 88
57 67 88
57 67 88
57 67 88
57 67 88
57 67 88
57 67 88
57 67 88
57 67 88
57 67 88
57 67 88
57 67 88
57 67 88
57 67 88
57 67 88
57 67 88
57 67 88
57 67 88
57 67 88
57 67 88
57 67 89
57 67 89
57 67 89
57 67 89
57 67 89
57 67 89
57 67 89
57 67 89
57 67 89
57 67 89
57 67 89
57 67 89
57 67 89
57 67 89
57 67 89
57 67 89
57 67 89
57 67 89
57 67 89
57 67 89
57 67 89
57 67 89
57 67 89
57 67 89
57 67 89
57 67 89
57 67 89
57 67 89
57 67 89
57 67 89
57 67 89
57 67 89
57 67 89
57 67 89
57 67 89
57 67 89
57 67 89
57 67 89
57 67 89
57 67 89
57 67 89
57 67 89
57 67 89
57 67 89
57 67 89
57 67 89
57 67 89
57 67 89
57 67 89
57 67 89
57 67 89
57 67 89
57 67 89
57 67 89
57 67 89
57 67 89
57 67 89
57 67 89
57 67 89
57 67 89
57 67 89
57 67 89
57 67 89
57 67 89
57 67 89
57 67 89
57 67 89
57 67 89
57 67 89
57 67 89
57 67 89
57 67 89
57 67 89
57 67 89
57 67 89
57 67 89
57 67 89
57 67 89
57 67 89
57 67 89
57 67 89
57 67 89
57 67 89
57 67 89
57 67 89
57 67 89
57 67 89
57 67 89
57 67 89
57 67 89
57 67 89
57 67 89
57 67 89
57 67 89
57 67 88
57 67 88
57 67 88
57 67 88
57 67 88
57 67 88
57 67 88
57 67 88
57 67 88
57 67 88
57 67 88
57 67 88
57 67 88
57 67 88
57 67 88
57 67 88
57 67 88
57 67 88
57 67 88
57 67 88
57 67 88
57 67 88
57 67 88
57 67 88
57 67 88
57 67 88
57 67 88
57 67 88
57 67 88
57 67 88
57 67 88
57 66 88
57 66 88
57 66 88
57 66 88
57 66 88
57 66 88
57 66 88
57 66 88
57 66 88
57 66 88
57 66 88
57 66 88
57 66 88
57 66 88
57 66 88
57 66 88
57 66 88
56 66 88
56 66 88
56 66 88
56 66 88
56 66 88
56 66 88
56 66 88
56 66 88
56 66 88
56 66 88
56 66 88
56 66 88
56 66 88
56 66 88
56 66 88
56 66 88
56 66 88
56 66 88
56 66 88
57 66 88
57 66 88
57 66 88
57 66 88
57 66 88
57 66 88
57 66 88
57 66 88
57 66 88
57 66 88
57 66 88
57 66 88
57 66 88
57 66 88
57 66 88
57 66 88
57 66 88
57 66 88
57 67 88
57 67 88
57 67 88
57 67 88
57 67 88
57 67 88
57 67 88
57 67 88
57 67 88
57 67 88
57 67 88
57 67 88
57 67 88
57 67 88
57 67 88
57 67 88
57 67 88
57 67 88
57 67 88
57 67 88
57 67 88
57 67 88
57 67 88
57 67 88
57 67 88
57 67 88
57 67 88
57 67 88
57 67 88
57 67 88
57 67 88
57 67 88
57 67 88
57 67 88
57 67 88
57 67 88
57 67 88
57 67 88
57 67 88
57 67 89
57 67 89
57 67 89
57 67 89
57 67 89
57 67 89
57 67 89
57 67 89
57 67 89
57 67 89
57 67 89
57 67 89
57 67 89
57 67 89
57 67 89
57 67 89
57 67 89
57 67 89
57 67 89
57 67 89
57 67 89
57 67 89
57 67 89
57 67 89
57 67 89
57 67 89
57 67 89
57 67 89
57 67 89
57 67 89
57 67 89
57 67 89
57 67 89
57 67 89
57 67 89
57 67 89
57 67 89
57 67 89
57 67 89
57 67 89
57 67 89
57 67 89
57 67 89
57 67 89
57 67 89
57 67 89
57 67 89
57 67 89
57 67 89
57 67 89
57 67 89
57 67 89
57 67 89
57 67 89
57 67 89
57 67 89
57 67 89
57 67 89
57 67 88
57 67 88
57 67 88
57 67 88
57 67 88
57 67 88
57 67 88
57 67 88
57 67 88
57 67 88
57 67 88
57 67 88
57 67 88
57 67 88
57 67 88
57 67 88
57 67 88
57 67 88
57 67 88
57 67 88
57 67 88
57 67 88
57 67 88
57 67 88
57 67 88
57 67 88
57 67 88
57 67 88
57 67 88
57 67 88
57 67 88
57 67 88
57 67 88
57 67 88
57 67 88
57 67 88
57 67 88
57 67 88
57 67 88
57 66 88
57 66 88
57 66 88
57 66 88
57 66 88
57 66 88
57 66 88
57 66 88
57 66 88
57 66 88
57 66 88
57 66 88
57 66 88
57 66 88
57 66 88
57 66 88
57 66 88
57 66 88
56 66 88
56 66 88
56 66 88
56 66 88
56 66 88
56 66 88
56 66 88
56 66 88
56 66 88
56 66 88
56 66 88
56 66 88
56 66 88
56 66 88
56 66 87
56 66 87
56 66 87
56 66 87
56 66 87
56 66 87
56 66 87
56 66 87
56 66 87
56 66 88
56 66 88
56 66 88
56 66 88
56 66 88
56 66 88
56 66 88
56 66 88
56 66 88
56 66 88
56 66 88
56 66 88
56 66 88
56 66 88
56 66 88
57 66 88
57 66 88
57 66 88
57 66 88
57 66 88
57 66 88
57 66 88
57 66 88
57 66 88
57 66 88
57 66 88
57 66 88
57 66 88
57 66 88
57 66 88
57 66 88
57 66 88
57 66 88
57 66 88
57 66 88
57 67 88
57 67 88
57 67 88
57 67 88
57 67 88
57 67 88
57 67 88
57 67 88
57 67 88
57 67 88
57 67 88
57 67 88
57 67 88
57 67 88
57 67 88
57 67 88
57 67 88
57 67 88
57 67 88
57 67 88
57 67 88
57 67 88
57 67 88
57 67 88
57 67 88
57 67 88
57 67 88
57 67 88
57 67 88
57 67 88
57 67 88
57 67 88
57 67 88
57 67 88
57 67 88
57 67 88
57 67 88
57 67 88
57 67 88
57 67 88
57 67 88
57 67 88
57 67 88
57 67 88
57 67 88
57 67 88
57 67 88
57 67 88
57 67 88
57 67 88
57 67 88
57 67 88
57 67 88
57 67 88
57 67 88
57 67 88
57 67 88
57 67 88
57 67 88
57 67 88
57 67 88
57 67 88
57 67 88
57 67 88
57 67 88
57 67 88
57 67 88
57 67 88
57 67 88
57 67 88
57 67 88
57 67 88
57 67 88
57 67 88
57 67 88
57 67 88
57 67 88
57 67 88
57 67 88
57 67 88
57 67 88
57 67 88
57 67 88
57 67 88
57 67 88
57 67 88
57 67 88
57 67 88
57 67 88
57 67 88
57 67 88
57 67 88
57 67 88
57 67 88
57 67 88
57 67 88
57 67 88
57 67 88
57 67 88
57 67 88
57 67 88
57 67 88
57 67 88
57 67 88
57 67 88
57 67 88
57 67 88
57 67 88
57 67 88
57 67 88
57 67 88
57 67 88
57 66 88
57 66 88
57 66 88
57 66 88
57 66 88
57 66 88
57 66 88
57 66 88
57 66 88
57 66 88
57 66 88
57 66 88
57 66 88
57 66 88
57 66 88
57 66 88
57 66 88
57 66 88
57 66 88
57 66 88
56 66 88
56 66 88
56 66 88
56 66 88
56 66 88
56 66 88
56 66 88
56 66 88
56 66 88
56 66 88
56 66 88
56 66 88
56 66 88
56 66 88
56 66 88
56 66 87
56 66 87
56 66 87
56 66 87
56 66 87
56 66 87
56 66 87
56 66 87
56 66 87
56 66 87
56 66 87
56 66 87
56 66 87
56 66 87
56 66 87
56 66 87
56 66 87
56 66 87
56 66 87
56 66 87
56 66 87
56 66 87
56 66 87
56 66 87
56 66 87
56 66 87
56 66 87
56 66 87
56 66 88
56 66 88
56 66 88
56 66 88
56 66 88
56 66 88
56 66 88
56 66 88
56 66 88
56 66 88
56 66 88
56 66 88
56 66 88
56 66 88
56 66 88
56 66 88
57 66 88
57 66 88
57 66 88
57 66 88
57 66 88
57 66 88
57 66 88
57 66 88
57 66 88
57 66 88
57 66 88
57 66 88
57 66 88
57 66 88
57 66 88
57 66 88
57 66 88
57 66 88
57 66 88
57 66 88
57 66 88
57 66 88
57 66 88
57 66 88
57 67 88
57 67 88
57 67 88
57 67 88
57 67 88
57 67 88
57 67 88
57 67 88
57 67 88
57 67 88
57 67 88
57 67 88
57 67 88
57 67 88
57 67 88
57 67 88
57 67 88
57 67 88
57 67 88
57 67 88
57 67 88
57 67 88
57 67 88
57 67 88
57 67 88
57 67 88
57 67 88
57 67 88
57 67 88
57 67 88
57 67 88
57 67 88
57 67 88
57 67 88
57 67 88
57 67 88
57 67 88
57 67 88
57 67 88
57 67 88
57 67 88
57 67 88
57 67 88
57 67 88
57 67 88
57 67 88
57 67 88
57 67 88
57 67 88
57 67 88
57 67 88
57 67 88
57 67 88
57 67 88
57 67 88
57 67 88
57 67 88
57 67 88
57 67 88
57 67 88
57 67 88
57 67 88
57 67 88
57 67 88
57 67 88
57 67 88
57 67 88
57 67 88
57 67 88
57 67 88
57 67 88
57 67 88
57 67 88
57 67 88
57 67 88
57 67 88
57 67 88
57 67 88
57 67 88
57 67 88
57 67 88
57 67 88
57 66 88
57 66 88
57 66 88
57 66 88
57 66 88
57 66 88
57 66 88
57 66 88
57 66 88
57 66 88
57 66 88
57 66 88
57 66 88
57 66 88
57 66 88
57 66 88
57 66 88
57 66 88
57 66 88
57 66 88
57 66 88
57 66 88
57 66 88
57 66 88
56 66 88
56 66 88
56 66 88
56 66 88
56 66 88
56 66 88
56 66 88
56 66 88
56 66 88
56 66 88
56 66 88
56 66 88
56 66 88
56 66 88
56 66 88
56 66 88
56 66 87
56 66 87
56 66 87
56 66 87
56 66 87
56 66 87
56 66 87
56 66 87
56 66 87
56 66 87
56 66 87
56 66 87
56 66 87
56 66 87
56 66 87
56 66 87
56 66 87
56 66 87
56 66 87
56 66 87
56 66 87
56 66 87
56 66 87
56 66 87
56 66 87
56 66 87
56 66 87
56 66 87
56 66 87
56 66 87
56 66 87
56 66 87
56 66 87
56 66 87
56 66 87
56 66 87
56 66 87
56 66 87
56 66 87
56 66 87
56 66 87
56 66 87
56 66 87
56 66 87
56 66 87
56 66 87
56 66 87
56 66 87
56 66 87
56 66 88
56 66 88
56 66 88
56 66 88
56 66 88
56 66 88
56 66 88
56 66 88
56 66 88
56 66 88
56 66 88
56 66 88
56 66 88
56 66 88
56 66 88
56 66 88
56 66 88
56 66 88
56 66 88
57 66 88
57 66 88
57 66 88
57 66 88
57 66 88
57 66 88
57 66 88
57 66 88
57 66 88
57 66 88
57 66 88
57 66 88
57 66 88
57 66 88
57 66 88
57 66 88
57 66 88
57 66 88
57 66 88
57 66 88
57 66 88
57 66 88
57 66 88
57 66 88
57 66 88
57 66 88
57 66 88
57 66 88
57 66 88
57 66 88
57 66 88
57 66 88
57 66 88
57 66 88
57 66 88
57 66 88
57 67 88
57 67 88
57 67 88
57 67 88
57 67 88
57 67 88
57 67 88
57 67 88
57 67 88
57 67 88
57 67 88
57 67 88
57 67 88
57 67 88
57 67 88
57 67 88
57 67 88
57 67 88
57 67 88
57 67 88
57 67 88
57 67 88
57 67 88
57 67 88
57 67 88
57 67 88
57 67 88
57 67 88
57 67 88
57 67 88
57 66 88
57 66 88
57 66 88
57 66 88
57 66 88
57 66 88
57 66 88
57 66 88
57 66 88
57 66 88
57 66 88
57 66 88
57 66 88
57 66 88
57 66 88
57 66 88
57 66 88
57 66 88
57 66 88
57 66 88
57 66 88
57 66 88
57 66 88
57 66 88
57 66 88
57 66 88
57 66 88
57 66 88
57 66 88
57 66 88
57 66 88
57 66 88
57 66 88
57 66 88
57 66 88
57 66 88
56 66 88
56 66 88
56 66 88
56 66 88
56 66 88
56 66 88
56 66 88
56 66 88
56 66 88
56 66 88
56 66 88
56 66 88
56 66 88
56 66 88
56 66 88
56 66 88
56 66 88
56 66 88
56 66 88
56 66 87
56 66 87
56 66 87
56 66 87
56 66 87
56 66 87
56 66 87
56 66 87
56 66 87
56 66 87
56 66 87
56 66 87
56 66 87
56 66 87
56 66 87
56 66 87
56 66 87
56 66 87
56 66 87
56 66 87
56 66 87
56 66 87
56 66 87
56 66 87
56 66 87
56 66 87
56 66 87
56 66 87
56 66 87
56 66 87
56 66 87
56 66 87
56 66 87
56 66 87
56 66 87
56 66 87
56 66 87
56 66 87
56 66 87
56 66 87
56 66 87
56 66 87
56 66 87
56 66 87
56 66 87
56 66 87
56 66 87
56 66 87
56 66 87
56 66 87
56 66 87
56 66 87
56 66 87
56 66 87
56 66 87
56 66 87
56 66 87
56 66 87
56 66 87
56 66 87
56 66 87
56 66 87
56 66 87
56 66 87
56 66 87
56 66 87
56 66 87
56 66 87
56 66 87
56 66 87
56 66 87
56 66 87
56 66 88
56 66 88
56 66 88
56 66 88
56 66 88
56 66 88
56 66 88
56 66 88
56 66 88
56 66 88
56 66 88
56 66 88
56 66 88
56 66 88
56 66 88
56 66 88
56 66 88
56 66 88
56 66 88
56 66 88
56 66 88
56 66 88
56 66 88
56 66 88
57 66 88
57 66 88
57 66 88
57 66 88
57 66 88
57 66 88
57 66 88
57 66 88
57 66 88
57 66 88
57 66 88
57 66 88
57 66 88
57 66 88
57 66 88
57 66 88
57 66 88
57 66 88
57 66 88
57 66 88
57 66 88
57 66 88
57 66 88
57 66 88
57 66 88
57 66 88
57 66 88
57 66 88
57 66 88
57 66 88
57 66 88
57 66 88
57 66 88
57 66 88
57 66 88
57 66 88
57 66 88
57 66 88
57 66 88
57 66 88
57 66 88
57 66 88
57 66 88
57 66 88
57 66 88
57 66 88
57 66 88
57 66 88
57 66 88
57 66 88
57 66 88
57 66 88
57 66 88
57 66 88
57 66 88
57 66 88
57 66 88
57 66 88
57 66 88
57 66 88
57 66 88
57 66 88
57 66 88
57 66 88
57 66 88
57 66 88
57 66 88
57 66 88
56 66 88
56 66 88
56 66 88
56 66 88
56 66 88
56 66 88
56 66 88
56 66 88
56 66 88
56 66 88
56 66 88
56 66 88
56 66 88
56 66 88
56 66 88
56 66 88
56 66 88
56 66 88
56 66 88
56 66 88
56 66 88
56 66 88
56 66 88
56 66 88
56 66 87
56 66 87
56 66 87
56 66 87
56 66 87
56 66 87
56 66 87
56 66 87
56 66 87
56 66 87
56 66 87
56 66 87
56 66 87
56 66 87
56 66 87
56 66 87
56 66 87
56 66 87
56 66 87
56 66 87
56 66 87
56 66 87
56 66 87
56 66 87
56 66 87
56 66 87
56 66 87
56 66 87
56 66 87
56 66 87
56 66 87
56 66 87
56 66 87
56 66 87
56 66 87
56 66 87
56 66 87
56 66 87
56 66 87
56 66 87
56 66 87
56 66 87
56 65 87
56 65 87
56 65 87
56 65 87
56 65 87
56 65 87
56 65 87
56 65 87
56 65 87
56 65 87
56 66 87
56 66 87
56 66 87
56 66 87
56 66 87
56 66 87
56 66 87
56 66 87
56 66 87
56 66 87
56 66 87
56 66 87
56 66 87
56 66 87
56 66 87
56 66 87
56 66 87
56 66 87
56 66 87
56 66 87
56 66 87
56 66 87
56 66 87
56 66 87
56 66 87
56 66 87
56 66 87
56 66 87
56 66 87
56 66 87
56 66 87
56 66 87
56 66 87
56 66 87
56 66 87
56 66 87
56 66 87
56 66 87
56 66 87
56 66 87
56 66 87
56 66 87
56 66 87
56 66 87
56 66 87
56 66 87
56 66 87
56 66 87
56 66 88
56 66 88
56 66 88
56 66 88
56 66 88
56 66 88
56 66 88
56 66 88
56 66 88
56 66 88
56 66 88
56 66 88
56 66 88
56 66 88
56 66 88
56 66 88
56 66 88
56 66 88
56 66 88
56 66 88
56 66 88
56 66 88
56 66 88
56 66 88
56 66 88
56 66 88
56 66 88
56 66 88
56 66 88
56 66 88
56 66 88
56 66 88
56 66 88
56 66 88
56 66 88
56 66 88
56 66 88
56 66 88
56 66 88
56 66 88
56 66 88
56 66 88
56 66 88
56 66 88
56 66 88
56 66 88
56 66 88
56 66 88
56 66 88
56 66 88
56 66 88
56 66 88
56 66 88
56 66 88
56 66 88
56 66 88
56 66 88
56 66 88
56 66 88
56 66 88
56 66 88
56 66 88
56 66 88
56 66 88
56 66 88
56 66 88
56 66 88
56 66 88
56 66 88
56 66 88
56 66 88
56 66 88
56 66 88
56 66 88
56 66 88
56 66 88
56 66 88
56 66 88
56 66 88
56 66 88
56 66 88
56 66 88
56 66 88
56 66 88
56 66 87
56 66 87
56 66 87
56 66 87
56 66 87
56 66 87
56 66 87
56 66 87
56 66 87
56 66 87
56 66 87
56 66 87
56 66 87
56 66 87
56 66 87
56 66 87
56 66 87
56 66 87
56 66 87
56 66 87
56 66 87
56 66 87
56 66 87
56 66 87
56 66 87
56 66 87
56 66 87
56 66 87
56 66 87
56 66 87
56 66 87
56 66 87
56 66 87
56 66 87
56 66 87
56 66 87
56 66 87
56 66 87
56 66 87
56 66 87
56 66 87
56 66 87
56 66 87
56 66 87
56 66 87
56 66 87
56 66 87
56 66 87
56 65 87
56 65 87
56 65 87
56 65 87
56 65 87
56 65 87
56 65 87
56 65 87
56 65 87
56 65 87
56 65 87
56 65 87
56 65 87
56 65 87
56 65 87
56 65 87
56 65 87
56 65 87
56 65 87
56 65 87
56 65 87
56 65 87
56 65 87
56 65 87
56 65 87
56 65 87
56 65 87
56 65 87
56 65 87
56 65 87
56 65 87
56 65 87
56 66 87
56 66 87
56 66 87
56 66 87
56 66 87
56 66 87
56 66 87
56 66 87
56 66 87
56 66 87
56 66 87
56 66 87
56 66 87
56 66 87
56 66 87
56 66 87
56 66 87
56 66 87
56 66 87
56 66 87
56 66 87
56 66 87
56 66 87
56 66 87
56 66 87
56 66 87
56 66 87
56 66 87
56 66 87
56 66 87
56 66 87
56 66 87
56 66 87
56 66 87
56 66 87
56 66 87
56 66 87
56 66 87
56 66 87
56 66 87
56 66 87
56 66 87
56 66 87
56 66 87
56 66 87
56 66 87
56 66 87
56 66 87
56 66 87
56 66 87
56 66 87
56 66 87
56 66 87
56 66 87
56 66 87
56 66 87
56 66 87
56 66 87
56 66 87
56 66 87
56 66 87
56 66 87
56 66 87
56 66 87
56 66 88
56 66 88
56 66 88
56 66 88
56 66 88
56 66 88
56 66 88
56 66 88
56 66 88
56 66 88
56 66 88
56 66 88
56 66 88
56 66 88
56 66 88
56 66 88
56 66 88
56 66 88
56 66 88
56 66 88
56 66 88
56 66 88
56 66 88
56 66 88
56 66 88
56 66 88
56 66 88
56 66 88
56 66 87
56 66 87
56 66 87
56 66 87
56 66 87
56 66 87
56 66 87
56 66 87
56 66 87
56 66 87
56 66 87
56 66 87
56 66 87
56 66 87
56 66 87
56 66 87
56 66 87
56 66 87
56 66 87
56 66 87
56 66 87
56 66 87
56 66 87
56 66 87
56 66 87
56 66 87
56 66 87
56 66 87
56 66 87
56 66 87
56 66 87
56 66 87
56 66 87
56 66 87
56 66 87
56 66 87
56 66 87
56 66 87
56 66 87
56 66 87
56 66 87
56 66 87
56 66 87
56 66 87
56 66 87
56 66 87
56 66 87
56 66 87
56 66 87
56 66 87
56 66 87
56 66 87
56 66 87
56 66 87
56 66 87
56 66 87
56 66 87
56 66 87
56 66 87
56 66 87
56 66 87
56 66 87
56 66 87
56 66 87
56 65 87
56 65 87
56 65 87
56 65 87
56 65 87
56 65 87
56 65 87
56 65 87
56 65 87
56 65 87
56 65 87
56 65 87
56 65 87
56 65 87
56 65 87
56 65 87
56 65 87
56 65 87
56 65 87
56 65 87
56 65 87
56 65 87
55 65 86
56 65 86
56 65 86
56 65 86
56 65 86
56 65 86
56 65 86
56 65 86
56 65 87
56 65 87
56 65 87
56 65 87
56 65 87
56 65 87
56 65 87
56 65 87
56 65 87
56 65 87
56 65 87
56 65 87
56 65 87
56 65 87
56 65 87
56 65 87
56 65 87
56 65 87
56 65 87
56 65 87
56 65 87
56 65 87
56 65 87
56 65 87
56 65 87
56 65 87
56 66 87
56 66 87
56 66 87
56 66 87
56 66 87
56 66 87
56 66 87
56 66 87
56 66 87
56 66 87
56 66 87
56 66 87
56 66 87
56 66 87
56 66 87
56 66 87
56 66 87
56 66 87
56 66 87
56 66 87
56 66 87
56 66 87
56 66 87
56 66 87
56 66 87
56 66 87
56 66 87
56 66 87
56 66 87
56 66 87
56 66 87
56 66 87
56 66 87
56 66 87
56 66 87
56 66 87
56 66 87
56 66 87
56 66 87
56 66 87
56 66 87
56 66 87
56 66 87
56 66 87
56 66 87
56 66 87
56 66 87
56 66 87
56 66 87
56 66 87
56 66 87
56 66 87
56 66 87
56 66 87
56 66 87
56 66 87
56 66 87
56 66 87
56 66 87
56 66 87
56 66 87
56 66 87
56 66 87
56 66 87
56 66 87
56 66 87
56 66 87
56 66 87
56 66 87
56 66 87
56 66 87
56 66 87
56 66 87
56 66 87
56 66 87
56 66 87
56 66 87
56 66 87
56 66 87
56 66 87
56 66 87
56 66 87
56 66 87
56 66 87
56 66 87
56 66 87
56 66 87
56 66 87
56 66 87
56 66 87
56 66 87
56 66 87
56 66 87
56 66 87
56 66 87
56 66 87
56 66 87
56 66 87
56 66 87
56 66 87
56 66 87
56 66 87
56 66 87
56 66 87
56 66 87
56 66 87
56 66 87
56 66 87
56 66 87
56 66 87
56 66 87
56 66 87
56 66 87
56 66 87
56 66 87
56 66 87
56 66 87
56 66 87
56 66 87
56 66 87
56 66 87
56 66 87
56 66 87
56 66 87
56 66 87
56 66 87
56 66 87
56 66 87
56 66 87
56 66 87
56 66 87
56 66 87
56 65 87
56 65 87
56 65 87
56 65 87
56 65 87
56 65 87
56 65 87
56 65 87
56 65 87
56 65 87
56 65 87
56 65 87
56 65 87
56 65 87
56 65 87
56 65 87
56 65 87
56 65 87
56 65 87
56 65 87
56 65 87
56 65 87
56 65 87
56 65 87
56 65 87
56 65 87
56 65 86
56 65 86
56 65 86
56 65 86
56 65 86
56 65 86
56 65 86
55 65 86
55 65 86
55 65 86
55 65 86
55 65 86
55 65 86
55 65 86
55 65 86
55 65 86
55 65 86
55 65 86
55 65 86
55 65 86
55 65 86
56 65 86
56 65 86
56 65 86
56 65 86
56 65 86
56 65 86
56 65 86
56 65 87
56 65 87
56 65 87
56 65 87
56 65 87
56 65 87
56 65 87
56 65 87
56 65 87
56 65 87
56 65 87
56 65 87
56 65 87
56 65 87
56 65 87
56 65 87
56 65 87
56 65 87
56 65 87
56 65 87
56 65 87
56 65 87
56 65 87
56 65 87
56 65 87
56 65 87
56 65 87
56 65 87
56 65 87
56 66 87
56 66 87
56 66 87
56 66 87
56 66 87
56 66 87
56 66 87
56 66 87
56 66 87
56 66 87
56 66 87
56 66 87
56 66 87
56 66 87
56 66 87
56 66 87
56 66 87
56 66 87
56 66 87
56 66 87
56 66 87
56 66 87
56 66 87
56 66 87
56 66 87
56 66 87
56 66 87
56 66 87
56 66 87
56 66 87
56 66 87
56 66 87
56 66 87
56 66 87
56 66 87
56 66 87
56 66 87
56 66 87
56 66 87
56 66 87
56 66 87
56 66 87
56 66 87
56 66 87
56 66 87
56 66 87
56 66 87
56 66 87
56 66 87
56 66 87
56 66 87
56 66 87
56 66 87
56 66 87
56 66 87
56 66 87
56 66 87
56 66 87
56 66 87
56 66 87
56 66 87
56 66 87
56 66 87
56 66 87
56 66 87
56 66 87
56 66 87
56 66 87
56 66 87
56 66 87
56 66 87
56 66 87
56 66 87
56 66 87
56 66 87
56 66 87
56 66 87
56 66 87
56 66 87
56 66 87
56 66 87
56 66 87
56 66 87
56 66 87
56 66 87
56 66 87
56 66 87
56 66 87
56 66 87
56 66 87
56 66 87
56 66 87
56 66 87
56 66 87
56 66 87
56 66 87
56 66 87
56 66 87
56 66 87
56 66 87
56 66 87
56 66 87
56 65 87
56 65 87
56 65 87
56 65 87
56 65 87
56 65 87
56 65 87
56 65 87
56 65 87
56 65 87
56 65 87
56 65 87
56 65 87
56 65 87
56 65 87
56 65 87
56 65 87
56 65 87
56 65 87
56 65 87
56 65 87
56 65 87
56 65 87
56 65 87
56 65 87
56 65 87
56 65 87
56 65 87
56 65 87
56 65 86
56 65 86
56 65 86
56 65 86
56 65 86
56 65 86
56 65 86
55 65 86
55 65 86
55 65 86
55 65 86
55 65 86
55 65 86
55 65 86
55 65 86
55 65 86
55 65 86
55 65 86
55 65 86
55 65 86
55 65 86
55 65 86
55 65 86
55 65 86
55 65 86
55 65 86
55 65 86
55 65 86
55 65 86
55 65 86
55 65 86
55 65 86
55 65 86
55 65 86
55 65 86
55 65 86
55 65 86
55 65 86
55 65 86
55 65 86
55 65 86
55 65 86
55 65 86
55 65 86
55 65 86
56 65 86
56 65 86
56 65 86
56 65 86
56 65 86
56 65 86
56 65 86
56 65 86
56 65 87
56 65 87
56 65 87
56 65 87
56 65 87
56 65 87
56 65 87
56 65 87
56 65 87
56 65 87
56 65 87
56 65 87
56 65 87
56 65 87
56 65 87
56 65 87
56 65 87
56 65 87
56 65 87
56 65 87
56 65 87
56 65 87
56 65 87
56 65 87
56 65 87
56 65 87
56 65 87
56 65 87
56 65 87
56 65 87
56 65 87
56 65 87
56 65 87
56 65 87
56 65 87
56 65 87
56 65 87
56 65 87
56 66 87
56 66 87
56 66 87
56 66 87
56 66 87
56 66 87
56 66 87
56 66 87
56 66 87
56 66 87
56 66 87
56 66 87
56 66 87
56 66 87
56 66 87
56 66 87
56 66 87
56 66 87
56 66 87
56 66 87
56 66 87
56 66 87
56 66 87
56 66 87
56 66 87
56 66 87
56 66 87
56 66 87
56 66 87
56 66 87
56 66 87
56 66 87
56 66 87
56 66 87
56 66 87
56 66 87
56 66 87
56 66 87
56 66 87
56 66 87
56 66 87
56 66 87
56 66 87
56 66 87
56 66 87
56 66 87
56 66 87
56 66 87
56 66 87
56 66 87
56 66 87
56 66 87
56 66 87
56 66 87
56 66 87
56 66 87
56 66 87
56 66 87
56 65 87
56 65 87
56 65 87
56 65 87
56 65 87
56 65 87
56 65 87
56 65 87
56 65 87
56 65 87
56 65 87
56 65 87
56 65 87
56 65 87
56 65 87
56 65 87
56 65 87
56 65 87
56 65 87
56 65 87
56 65 87
56 65 87
56 65 87
56 65 87
56 65 87
56 65 87
56 65 87
56 65 87
56 65 87
56 65 87
56 65 87
56 65 87
56 65 87
56 65 87
56 65 87
56 65 87
56 65 87
56 65 87
56 65 86
56 65 86
56 65 86
56 65 86
56 65 86
56 65 86
56 65 86
56 65 86
55 65 86
55 65 86
55 65 86
55 65 86
55 65 86
55 65 86
55 65 86
55 65 86
55 65 86
55 65 86
55 65 86
55 65 86
55 65 86
55 65 86
55 65 86
55 65 86
55 65 86
55 65 86
55 65 86
55 65 86
55 65 86
55 65 86
55 65 86
55 65 86
55 65 86
55 65 86
55 65 86
55 65 86
55 65 86
55 65 86
55 65 86
55 65 86
55 65 86
55 65 86
55 65 86
55 65 86
55 65 86
55 65 86
55 65 86
55 65 86
55 65 86
55 65 86
55 65 86
55 65 86
55 65 86
55 65 86
55 65 86
55 65 86
55 65 86
55 65 86
55 65 86
55 65 86
55 65 86
55 65 86
55 65 86
55 65 86
55 65 86
55 65 86
55 65 86
55 65 86
55 65 86
55 65 86
55 65 86
55 65 86
56 65 86
56 65 86
56 65 86
56 65 86
56 65 86
56 65 86
56 65 86
56 65 86
56 65 86
56 65 86
56 65 87
56 65 87
56 65 87
56 65 87
56 65 87
56 65 87
56 65 87
56 65 87
56 65 87
56 65 87
56 65 87
56 65 87
56 65 87
56 65 87
56 65 87
56 65 87
56 65 87
56 65 87
56 65 87
56 65 87
56 65 87
56 65 87
56 65 87
56 65 87
56 65 87
56 65 87
56 65 87
56 65 87
56 65 87
56 65 87
56 65 87
56 65 87
56 65 87
56 65 87
56 65 87
56 65 87
56 65 87
56 65 87
56 65 87
56 65 87
56 65 87
56 65 87
56 65 87
56 65 87
56 65 87
56 65 87
56 65 87
56 65 87
56 65 87
56 65 87
56 65 87
56 65 87
56 65 87
56 65 87
56 65 87
56 65 87
56 65 87
56 65 87
56 65 87
56 65 87
56 65 87
56 65 87
56 65 87
56 65 87
56 65 87
56 65 87
56 65 87
56 65 87
56 65 87
56 65 87
56 65 87
56 65 87
56 65 87
56 65 87
56 65 87
56 65 87
56 65 87
56 65 87
56 65 87
56 65 87
56 65 87
56 65 87
56 65 87
56 65 87
56 65 87
56 65 87
56 65 87
56 65 87
56 65 87
56 65 87
56 65 87
56 65 87
56 65 87
56 65 87
56 65 87
56 65 87
56 65 87
56 65 87
56 65 87
56 65 87
56 65 87
56 65 87
56 65 86
56 65 86
56 65 86
56 65 86
56 65 86
56 65 86
56 65 86
56 65 86
56 65 86
56 65 86
55 65 86
55 65 86
55 65 86
55 65 86
55 65 86
55 65 86
55 65 86
55 65 86
55 65 86
55 65 86
55 65 86
55 65 86
55 65 86
55 65 86
55 65 86
55 65 86
55 65 86
55 65 86
55 65 86
55 65 86
55 65 86
55 65 86
55 65 86
55 65 86
55 65 86
55 65 86
55 65 86
55 65 86
55 65 86
55 65 86
55 65 86
55 65 86
55 65 86
55 65 86
55 65 86
55 65 86
55 65 86
55 65 86
55 65 86
55 65 86
55 65 86
55 65 86
55 65 86
55 65 86
55 65 86
55 65 86
55 65 86
55 65 86
55 65 86
55 65 86
55 65 86
55 65 86
55 65 86
55 65 86
55 65 86
55 65 86
55 65 86
55 65 86
55 65 86
55 65 86
55 65 86
55 65 86
55 65 86
55 65 86
55 65 86
55 65 86
55 65 86
55 65 86
55 65 86
55 65 86
55 65 86
55 65 86
55 65 86
55 65 86
55 65 86
55 65 86
55 65 86
55 65 86
55 65 86
55 65 86
55 65 86
55 65 86
55 65 86
55 65 86
55 65 86
55 65 86
55 65 86
55 65 86
55 65 86
55 65 86
55 65 86
55 65 86
55 65 86
55 65 86
55 65 86
55 65 86
55 65 86
56 65 86
56 65 86
56 65 86
56 65 86
56 65 86
56 65 86
56 65 86
56 65 86
56 65 86
56 65 86
56 65 86
56 65 86
56 65 86
56 65 87
56 65 87
56 65 87
56 65 87
56 65 87
56 65 87
56 65 87
56 65 87
56 65 87
56 65 87
56 65 87
56 65 87
56 65 87
56 65 87
56 65 87
56 65 87
56 65 87
56 65 87
56 65 87
56 65 87
56 65 87
56 65 87
56 65 87
56 65 87
56 65 87
56 65 87
56 65 87
56 65 87
56 65 87
56 65 87
56 65 87
56 65 87
56 65 87
56 65 87
56 65 87
56 65 87
56 65 87
56 65 87
56 65 87
56 65 87
56 65 87
56 65 87
56 65 87
56 65 87
56 65 87
56 65 87
56 65 87
56 65 87
56 65 87
56 65 87
56 65 87
56 65 87
56 65 87
56 65 87
56 65 87
56 65 87
56 65 87
56 65 87
56 65 86
56 65 86
56 65 86
56 65 86
56 65 86
56 65 86
56 65 86
56 65 86
56 65 86
56 65 86
56 65 86
56 65 86
56 65 86
55 65 86
55 65 86
55 65 86
55 65 86
55 65 86
55 65 86
55 65 86
55 65 86
55 65 86
55 65 86
55 65 86
55 65 86
55 65 86
55 65 86
55 65 86
55 65 86
55 65 86
55 65 86
55 65 86
55 65 86
55 65 86
55 65 86
55 65 86
55 65 86
55 65 86
55 65 86
55 65 86
55 65 86
55 65 86
55 65 86
55 65 86
55 65 86
55 65 86
55 65 86
55 65 86
55 65 86
55 65 86
55 65 86
55 65 86
55 65 86
55 65 86
55 65 86
55 65 86
55 65 86
55 65 86
55 65 86
55 65 86
55 65 86
55 65 86
55 65 86
55 65 86
55 65 86
55 65 86
55 65 86
55 65 86
55 65 86
55 65 86
55 65 86
55 64 86
55 64 86
55 64 86
55 64 86
55 64 86
55 64 86
55 64 86
55 64 86
55 64 86
55 64 86
55 64 86
55 65 86
55 65 86
55 65 86
55 65 86
55 65 86
55 65 86
55 65 86
55 65 86
55 65 86
55 65 86
55 65 86
55 65 86
55 65 86
55 65 86
55 65 86
55 65 86
55 65 86
55 65 86
55 65 86
55 65 86
55 65 86
55 65 86
55 65 86
55 65 86
55 65 86
55 65 86
55 65 86
55 65 86
55 65 86
55 65 86
55 65 86
55 65 86
55 65 86
55 65 86
55 65 86
55 65 86
55 65 86
55 65 86
55 65 86
55 65 86
55 65 86
55 65 86
55 65 86
55 65 86
55 65 86
55 65 86
55 65 86
55 65 86
55 65 86
55 65 86
55 65 86
55 65 86
55 65 86
55 65 86
55 65 86
55 65 86
55 65 86
55 65 86
55 65 86
55 65 86
55 65 86
55 65 86
55 65 86
55 65 86
55 65 86
55 65 86
55 65 86
55 65 86
55 65 86
55 65 86
55 65 86
55 65 86
55 65 86
55 65 86
55 65 86
55 65 86
55 65 86
55 65 86
55 65 86
55 65 86
55 65 86
55 65 86
55 65 86
55 65 86
55 65 86
55 65 86
55 65 86
55 65 86
55 65 86
55 65 86
55 65 86
55 65 86
55 65 86
55 65 86
55 65 86
55 65 86
55 65 86
55 65 86
55 65 86
55 65 86
55 65 86
55 65 86
55 65 86
55 65 86
55 65 86
55 65 86
55 65 86
55 65 86
55 65 86
55 65 86
55 65 86
55 65 86
55 65 86
55 65 86
55 65 86
55 65 86
55 65 86
55 65 86
55 65 86
55 65 86
55 65 86
55 65 86
55 65 86
55 65 86
55 65 86
55 65 86
55 65 86
55 65 86
55 65 86
55 65 86
55 65 86
55 65 86
55 65 86
55 65 86
55 65 86
55 65 86
55 65 86
55 65 86
55 65 86
55 65 86
55 65 86
55 65 86
55 65 86
55 65 86
55 65 86
55 65 86
55 65 86
55 65 86
55 65 86
55 65 86
55 65 86
55 65 86
55 65 86
55 65 86
55 65 86
55 65 86
55 65 86
55 65 86
55 65 86
55 65 86
55 65 86
55 65 86
55 65 86
55 65 86
55 65 86
55 65 86
55 65 86
55 65 86
55 65 86
55 65 86
55 65 86
55 65 86
55 65 86
55 65 86
55 65 86
55 65 86
55 65 86
55 65 86
55 64 86
55 64 86
55 64 86
55 64 86
55 64 86
55 64 86
55 64 86
55 64 86
55 64 86
55 64 86
55 64 86
55 64 85
55 64 85
55 64 85
55 64 85
55 64 85
55 64 85
55 64 85
55 64 85
55 64 85
55 64 86
55 64 86
55 64 86
55 64 86
55 64 86
55 64 86
55 64 86
55 64 86
55 64 86
55 64 86
55 64 86
55 64 86
55 64 86
55 64 86
55 64 86
55 64 86
55 65 86
55 65 86
55 65 86
55 65 86
55 65 86
55 65 86
55 65 86
55 65 86
55 65 86
55 65 86
55 65 86
55 65 86
55 65 86
55 65 86
55 65 86
55 65 86
55 65 86
55 65 86
55 65 86
55 65 86
55 65 86
55 65 86
55 65 86
55 65 86
55 65 86
55 65 86
55 65 86
55 65 86
55 65 86
55 65 86
55 65 86
55 65 86
55 65 86
55 65 86
55 65 86
55 65 86
55 65 86
55 65 86
55 65 86
55 65 86
55 65 86
55 65 86
55 65 86
55 65 86
55 65 86
55 65 86
55 65 86
55 65 86
55 65 86
55 65 86
55 65 86
55 65 86
55 65 86
55 65 86
55 65 86
55 65 86
55 65 86
55 65 86
55 65 86
55 65 86
55 65 86
55 65 86
55 65 86
55 65 86
55 65 86
55 65 86
55 65 86
55 65 86
55 65 86
55 65 86
55 65 86
55 65 86
55 65 86
55 65 86
55 65 86
55 65 86
55 65 86
55 65 86
55 65 86
55 65 86
55 65 86
55 65 86
55 65 86
55 65 86
55 65 86
55 65 86
55 65 86
55 65 86
55 65 86
55 65 86
55 65 86
55 65 86
55 65 86
55 65 86
55 65 86
55 65 86
55 65 86
55 65 86
55 65 86
55 65 86
55 65 86
55 65 86
55 65 86
55 65 86
55 65 86
55 65 86
55 65 86
55 65 86
55 65 86
55 65 86
55 65 86
55 65 86
55 65 86
55 65 86
55 65 86
55 65 86
55 65 86
55 65 86
55 65 86
55 65 86
55 65 86
55 65 86
55 65 86
55 65 86
55 65 86
55 65 86
55 65 86
55 65 86
55 65 86
55 65 86
55 65 86
55 65 86
55 65 86
55 65 86
55 65 86
55 65 86
55 65 86
55 65 86
55 65 86
55 65 86
55 65 86
55 65 86
55 65 86
55 65 86
55 65 86
55 65 86
55 65 86
55 65 86
55 65 86
55 65 86
55 64 86
55 64 86
55 64 86
55 64 86
55 64 86
55 64 86
55 64 86
55 64 86
55 64 86
55 64 86
55 64 86
55 64 86
55 64 86
55 64 86
55 64 86
55 64 86
55 64 85
55 64 85
55 64 85
55 64 85
55 64 85
55 64 85
55 64 85
55 64 85
55 64 85
55 64 85
55 64 85
55 64 85
55 64 85
55 64 85
55 64 85
55 64 85
55 64 85
55 64 85
55 64 85
55 64 85
55 64 85
55 64 85
55 64 85
55 64 85
55 64 85
55 64 85
55 64 85
55 64 85
55 64 85
55 64 85
55 64 85
55 64 85
55 64 86
55 64 86
55 64 86
55 64 86
55 64 86
55 64 86
55 64 86
55 64 86
55 64 86
55 64 86
55 64 86
55 64 86
55 64 86
55 64 86
55 64 86
55 64 86
55 64 86
55 64 86
55 65 86
55 65 86
55 65 86
55 65 86
55 65 86
55 65 86
55 65 86
55 65 86
55 65 86
55 65 86
55 65 86
55 65 86
55 65 86
55 65 86
55 65 86
55 65 86
55 65 86
55 65 86
55 65 86
55 65 86
55 65 86
55 65 86
55 65 86
55 65 86
55 65 86
55 65 86
55 65 86
55 65 86
55 65 86
55 65 86
55 65 86
55 65 86
55 65 86
55 65 86
55 65 86
55 65 86
55 65 86
55 65 86
55 65 86
55 65 86
55 65 86
55 65 86
55 65 86
55 65 86
55 65 86
55 65 86
55 65 86
55 65 86
55 65 86
55 65 86
55 65 86
55 65 86
55 65 86
55 65 86
55 65 86
55 65 86
55 65 86
55 65 86
55 65 86
55 65 86
55 65 86
55 65 86
55 65 86
55 65 86
55 65 86
55 65 86
55 65 86
55 65 86
55 65 86
55 65 86
55 65 86
55 65 86
55 65 86
55 65 86
55 65 86
55 65 86
55 65 86
55 65 86
55 65 86
55 65 86
55 65 86
55 65 86
55 65 86
55 65 86
55 65 86
55 65 86
55 65 86
55 65 86
55 65 86
55 65 86
55 65 86
55 65 86
55 65 86
55 65 86
55 65 86
55 65 86
55 65 86
55 65 86
55 65 86
55 65 86
55 65 86
55 65 86
55 65 86
55 65 86
55 65 86
55 65 86
55 65 86
55 65 86
55 65 86
55 65 86
55 65 86
55 65 86
55 65 86
55 65 86
55 65 86
55 65 86
55 65 86
55 65 86
55 64 86
55 64 86
55 64 86
55 64 86
55 64 86
55 64 86
55 64 86
55 64 86
55 64 86
55 64 86
55 64 86
55 64 86
55 64 86
55 64 86
55 64 86
55 64 86
55 64 86
55 64 86
55 64 85
55 64 85
55 64 85
55 64 85
55 64 85
55 64 85
55 64 85
55 64 85
55 64 85
55 64 85
55 64 85
55 64 85
55 64 85
55 64 85
55 64 85
55 64 85
55 64 85
55 64 85
55 64 85
55 64 85
55 64 85
55 64 85
55 64 85
55 64 85
55 64 85
55 64 85
55 64 85
55 64 85
55 64 85
55 64 85
55 64 85
55 64 85
55 64 85
55 64 85
55 64 85
55 64 85
55 64 85
55 64 85
55 64 85
55 64 85
55 64 85
55 64 85
55 64 85
55 64 85
55 64 85
55 64 85
55 64 85
55 64 85
55 64 85
55 64 85
55 64 85
55 64 85
55 64 85
55 64 85
55 64 85
55 64 85
55 64 85
55 64 85
55 64 85
55 64 85
55 64 85
55 64 85
55 64 85
55 64 86
55 64 86
55 64 86
55 64 86
55 64 86
55 64 86
55 64 86
55 64 86
55 64 86
55 64 86
55 64 86
55 64 86
55 64 86
55 64 86
55 64 86
55 64 86
55 64 86
55 64 86
55 64 86
55 64 86
55 64 86
55 64 86
55 64 86
55 65 86
55 65 86
55 65 86
55 65 86
55 65 86
55 65 86
55 65 86
55 65 86
55 65 86
55 65 86
55 65 86
55 65 86
55 65 86
55 65 86
55 65 86
55 65 86
55 65 86
55 65 86
55 65 86
55 65 86
55 65 86
55 65 86
55 65 86
55 65 86
55 65 86
55 65 86
55 65 86
55 65 86
55 65 86
55 65 86
55 65 86
55 65 86
55 65 86
55 65 86
55 65 86
55 65 86
55 65 86
55 65 86
55 65 86
55 65 86
55 65 86
55 65 86
55 65 86
55 65 86
55 65 86
55 65 86
55 65 86
55 65 86
55 65 86
55 65 86
55 65 86
55 65 86
55 65 86
55 65 86
55 65 86
55 65 86
55 65 86
55 65 86
55 65 86
55 65 86
55 65 86
55 65 86
55 65 86
55 65 86
55 65 86
55 65 86
55 65 86
55 65 86
55 65 86
55 65 86
55 65 86
55 65 86
55 65 86
55 65 86
55 64 86
55 64 86
55 64 86
55 64 86
55 64 86
55 64 86
55 64 86
55 64 86
55 64 86
55 64 86
55 64 86
55 64 86
55 64 86
55 64 86
55 64 86
55 64 86
55 64 86
55 64 86
55 64 86
55 64 86
55 64 86
55 64 86
55 64 86
55 64 85
55 64 85
55 64 85
55 64 85
55 64 85
55 64 85
55 64 85
55 64 85
55 64 85
55 64 85
55 64 85
55 64 85
55 64 85
55 64 85
55 64 85
55 64 85
55 64 85
55 64 85
55 64 85
55 64 85
55 64 85
55 64 85
55 64 85
55 64 85
55 64 85
55 64 85
55 64 85
55 64 85
55 64 85
55 64 85
55 64 85
55 64 85
55 64 85
55 64 85
55 64 85
55 64 85
55 64 85
55 64 85
55 64 85
55 64 85
54 64 85
54 64 85
54 64 85
54 64 85
54 64 85
54 64 85
54 64 85
54 64 85
54 64 85
54 64 85
54 64 85
54 64 85
54 64 85
54 64 85
55 64 85
55 64 85
55 64 85
55 64 85
55 64 85
55 64 85
55 64 85
55 64 85
55 64 85
55 64 85
55 64 85
55 64 85
55 64 85
55 64 85
55 64 85
55 64 85
55 64 85
55 64 85
55 64 85
55 64 85
55 64 85
55 64 85
55 64 85
55 64 85
55 64 85
55 64 85
55 64 85
55 64 85
55 64 85
55 64 85
55 64 85
55 64 85
55 64 85
55 64 85
55 64 85
55 64 85
55 64 85
55 64 85
55 64 85
55 64 85
55 64 85
55 64 85
55 64 85
55 64 85
55 64 85
55 64 85
55 64 85
55 64 85
55 64 86
55 64 86
55 64 86
55 64 86
55 64 86
55 64 86
55 64 86
55 64 86
55 64 86
55 64 86
55 64 86
55 64 86
55 64 86
55 64 86
55 64 86
55 64 86
55 64 86
55 64 86
55 64 86
55 64 86
55 64 86
55 64 86
55 64 86
55 64 86
55 64 86
55 64 86
55 64 86
55 64 86
55 64 86
55 64 86
55 64 86
55 64 86
55 64 86
55 64 86
55 64 86
55 64 86
55 64 86
55 64 86
55 64 86
55 64 86
55 64 86
55 64 86
55 64 86
55 64 86
55 64 86
55 64 86
55 64 86
55 64 86
55 64 86
55 64 86
55 64 86
55 64 86
55 64 86
55 64 86
55 64 86
55 64 86
55 64 86
55 64 86
55 64 86
55 64 86
55 64 86
55 64 86
55 64 86
55 64 86
55 64 86
55 64 86
55 64 86
55 64 86
55 64 86
55 64 86
55 64 86
55 64 86
55 64 86
55 64 86
55 64 86
55 64 86
55 64 85
55 64 85
55 64 85
55 64 85
55 64 85
55 64 85
55 64 85
55 64 85
55 64 85
55 64 85
55 64 85
55 64 85
55 64 85
55 64 85
55 64 85
55 64 85
55 64 85
55 64 85
55 64 85
55 64 85
55 64 85
55 64 85
55 64 85
55 64 85
55 64 85
55 64 85
55 64 85
55 64 85
55 64 85
55 64 85
55 64 85
55 64 85
55 64 85
55 64 85
55 64 85
55 64 85
55 64 85
55 64 85
55 64 85
55 64 85
55 64 85
55 64 85
55 64 85
55 64 85
55 64 85
55 64 85
55 64 85
55 64 85
54 64 85
54 64 85
54 64 85
54 64 85
54 64 85
54 64 85
54 64 85
54 64 85
54 64 85
54 64 85
54 64 85
54 64 85
54 64 85
54 64 85
54 64 85
54 64 85
54 64 85
54 64 85
54 64 85
54 64 85
54 64 85
54 64 85
54 64 85
54 64 85
54 64 85
54 64 85
54 64 85
54 64 85
54 64 85
54 64 85
54 64 85
54 64 85
54 64 85
54 64 85
54 64 85
54 64 85
54 64 85
54 64 85
54 64 85
54 64 85
54 64 85
54 64 85
54 64 85
54 64 85
54 64 85
55 64 85
55 64 85
55 64 85
55 64 85
55 64 85
55 64 85
55 64 85
55 64 85
55 64 85
55 64 85
55 64 85
55 64 85
55 64 85
55 64 85
55 64 85
55 64 85
55 64 85
55 64 85
55 64 85
55 64 85
55 64 85
55 64 85
55 64 85
55 64 85
55 64 85
55 64 85
55 64 85
55 64 85
55 64 85
55 64 85
55 64 85
55 64 85
55 64 85
55 64 85
55 64 85
55 64 85
55 64 85
55 64 85
55 64 85
55 64 85
55 64 85
55 64 85
55 64 85
55 64 85
55 64 85
55 64 85
55 64 85
55 64 85
55 64 85
55 64 85
55 64 85
55 64 85
55 64 85
55 64 85
55 64 85
55 64 85
55 64 85
55 64 85
55 64 85
55 64 85
55 64 85
55 64 85
55 64 85
55 64 85
55 64 85
55 64 85
55 64 85
55 64 85
55 64 85
55 64 85
55 64 85
55 64 85
55 64 85
55 64 85
55 64 85
55 64 85
55 64 85
55 64 85
55 64 85
55 64 85
55 64 85
55 64 85
55 64 85
55 64 85
55 64 85
55 64 85
55 64 85
55 64 85
55 64 85
55 64 85
55 64 85
55 64 85
55 64 85
55 64 85
55 64 85
55 64 85
55 64 85
55 64 85
55 64 85
55 64 85
55 64 85
55 64 85
55 64 85
55 64 85
55 64 85
55 64 85
55 64 85
55 64 85
55 64 85
55 64 85
55 64 85
55 64 85
55 64 85
55 64 85
55 64 85
55 64 85
55 64 85
55 64 85
55 64 85
55 64 85
55 64 85
55 64 85
55 64 85
55 64 85
55 64 85
55 64 85
55 64 85
55 64 85
55 64 85
55 64 85
55 64 85
55 64 85
55 64 85
55 64 85
55 64 85
55 64 85
55 64 85
55 64 85
54 64 85
54 64 85
54 64 85
54 64 85
54 64 85
54 64 85
54 64 85
54 64 85
54 64 85
54 64 85
54 64 85
54 64 85
54 64 85
54 64 85
54 64 85
54 64 85
54 64 85
54 64 85
54 64 85
54 64 85
54 64 85
54 64 85
54 64 85
54 64 85
54 64 85
54 64 85
54 64 85
54 64 85
54 64 85
54 64 85
54 64 85
54 64 85
54 64 85
54 64 85
54 64 85
54 64 85
54 64 85
54 64 85
54 64 85
54 64 85
54 64 85
54 64 85
54 64 85
54 64 85
54 64 85
54 64 85
54 64 85
54 64 85
54 64 85
54 64 85
54 64 85
54 64 85
54 64 85
54 64 85
54 64 85
54 64 85
54 64 85
54 64 85
54 64 85
54 64 85
54 64 85
54 64 85
54 64 85
54 64 85
54 64 85
54 64 85
54 64 85
54 64 85
54 64 85
54 64 85
54 64 85
54 64 85
54 64 85
54 64 85
54 64 85
54 64 85
54 64 85
54 64 85
54 64 85
54 64 85
54 64 85
54 64 85
54 64 85
55 64 85
55 64 85
55 64 85
55 64 85
55 64 85
55 64 85
55 64 85
55 64 85
55 64 85
55 64 85
55 64 85
55 64 85
55 64 85
55 64 85
55 64 85
55 64 85
55 64 85
55 64 85
55 64 85
55 64 85
55 64 85
55 64 85
55 64 85
55 64 85
55 64 85
55 64 85
55 64 85
55 64 85
55 64 85
55 64 85
55 64 85
55 64 85
55 64 85
55 64 85
55 64 85
55 64 85
55 64 85
55 64 85
55 64 85
55 64 85
55 64 85
55 64 85
55 64 85
55 64 85
55 64 85
55 64 85
55 64 85
55 64 85
55 64 85
55 64 85
55 64 85
55 64 85
55 64 85
55 64 85
55 64 85
55 64 85
55 64 85
55 64 85
55 64 85
55 64 85
55 64 85
55 64 85
55 64 85
55 64 85
55 64 85
55 64 85
55 64 85
55 64 85
55 64 85
55 64 85
55 64 85
55 64 85
55 64 85
55 64 85
55 64 85
55 64 85
55 64 85
55 64 85
55 64 85
55 64 85
55 64 85
55 64 85
55 64 85
55 64 85
55 64 85
55 64 85
55 64 85
55 64 85
55 64 85
55 64 85
55 64 85
55 64 85
55 64 85
55 64 85
55 64 85
55 64 85
54 64 85
54 64 85
54 64 85
54 64 85
54 64 85
54 64 85
54 64 85
54 64 85
54 64 85
54 64 85
54 64 85
54 64 85
54 64 85
54 64 85
54 64 85
54 64 85
54 64 85
54 64 85
54 64 85
54 64 85
54 64 85
54 64 85
54 64 85
54 64 85
54 64 85
54 64 85
54 64 85
54 64 85
54 64 85
54 64 85
54 64 85
54 64 85
54 64 85
54 64 85
54 64 85
54 64 85
54 64 85
54 64 85
54 64 85
54 64 85
54 64 85
54 64 85
54 64 85
54 64 85
54 64 85
54 64 85
54 64 85
54 64 85
54 64 85
54 64 85
54 64 85
54 64 85
54 63 84
54 63 84
54 63 84
54 63 84
54 63 84
54 63 84
54 63 84
54 63 84
54 63 84
54 63 84
54 63 84
54 63 84
54 63 85
54 63 85
54 64 85
54 64 85
54 64 85
54 64 85
54 64 85
54 64 85
54 64 85
54 64 85
54 64 85
54 64 85
54 64 85
54 64 85
54 64 85
54 64 85
54 64 85
54 64 85
54 64 85
54 64 85
54 64 85
54 64 85
54 64 85
54 64 85
54 64 85
54 64 85
54 64 85
54 64 85
54 64 85
54 64 85
54 64 85
54 64 85
54 64 85
54 64 85
54 64 85
54 64 85
54 64 85
54 64 85
54 64 85
54 64 85
54 64 85
54 64 85
54 64 85
54 64 85
54 64 85
54 64 85
54 64 85
54 64 85
54 64 85
54 64 85
54 64 85
54 64 85
54 64 85
54 64 85
54 64 85
54 64 85
54 64 85
54 64 85
54 64 85
54 64 85
54 64 85
54 64 85
54 64 85
54 64 85
54 64 85
54 64 85
54 64 85
54 64 85
54 64 85
54 64 85
54 64 85
54 64 85
54 64 85
54 64 85
54 64 85
54 64 85
54 64 85
54 64 85
54 64 85
54 64 85
54 64 85
54 64 85
54 64 85
54 64 85
54 64 85
54 64 85
54 64 85
54 64 85
54 64 85
54 64 85
54 64 85
54 64 85
54 64 85
54 64 85
54 64 85
54 64 85
54 64 85
54 64 85
54 64 85
54 64 85
54 64 85
54 64 85
54 64 85
54 64 85
54 64 85
54 64 85
54 64 85
54 64 85
54 64 85
54 64 85
54 64 85
54 64 85
54 64 85
54 64 85
54 64 85
54 64 85
54 64 85
54 64 85
54 64 85
54 64 85
54 64 85
54 64 85
54 64 85
54 64 85
54 64 85
54 64 85
54 64 85
54 64 85
54 64 85
54 64 85
54 64 85
54 64 85
54 64 85
54 64 85
54 64 85
54 64 85
54 64 85
54 64 85
54 64 85
54 64 85
54 64 85
54 64 85
54 64 85
54 64 85
54 64 85
54 64 85
54 64 85
54 64 85
54 64 85
54 64 85
54 64 85
54 64 85
54 64 85
54 64 85
54 64 85
54 64 85
54 64 85
54 64 85
54 64 85
54 64 85
54 64 85
54 64 85
54 64 85
54 64 85
54 64 85
54 64 85
54 64 85
54 64 85
54 64 85
54 64 85
54 64 85
54 64 85
54 64 85
54 64 85
54 63 85
54 63 85
54 63 84
54 63 84
54 63 84
54 63 84
54 63 84
54 63 84
54 63 84
54 63 84
54 63 84
54 63 84
54 63 84
54 63 84
54 63 84
54 63 84
54 63 84
54 63 84
54 63 84
54 63 84
54 63 84
54 63 84
54 63 84
54 63 84
54 63 84
54 63 84
54 63 84
54 63 84
54 63 84
54 63 84
54 63 84
54 63 84
54 63 84
54 63 84
54 63 84
54 63 84
54 63 84
54 63 84
54 63 84
54 63 84
54 63 84
54 63 84
54 63 84
54 63 84
54 63 84
54 63 85
54 63 85
54 64 85
54 64 85
54 64 85
54 64 85
54 64 85
54 64 85
54 64 85
54 64 85
54 64 85
54 64 85
54 64 85
54 64 85
54 64 85
54 64 85
54 64 85
54 64 85
54 64 85
54 64 85
54 64 85
54 64 85
54 64 85
54 64 85
54 64 85
54 64 85
54 64 85
54 64 85
54 64 85
54 64 85
54 64 85
54 64 85
54 64 85
54 64 85
54 64 85
54 64 85
54 64 85
54 64 85
54 64 85
54 64 85
54 64 85
54 64 85
54 64 85
54 64 85
54 64 85
54 64 85
54 64 85
54 64 85
54 64 85
54 64 85
54 64 85
54 64 85
54 64 85
54 64 85
54 64 85
54 64 85
54 64 85
54 64 85
54 64 85
54 64 85
54 64 85
54 64 85
54 64 85
54 64 85
54 64 85
54 64 85
54 64 85
54 64 85
54 64 85
54 64 85
54 64 85
54 64 85
54 64 85
54 64 85
54 64 85
54 64 85
54 64 85
54 64 85
54 64 85
54 64 85
54 64 85
54 64 85
54 64 85
54 64 85
54 64 85
54 64 85
54 64 85
54 64 85
54 64 85
54 64 85
54 64 85
54 64 85
54 64 85
54 64 85
54 64 85
54 64 85
54 64 85
54 64 85
54 64 85
54 64 85
54 64 85
54 64 85
54 64 85
54 64 85
54 64 85
54 64 85
54 64 85
54 64 85
54 64 85
54 64 85
54 64 85
54 64 85
54 64 85
54 64 85
54 64 85
54 64 85
54 64 85
54 64 85
54 64 85
54 64 85
54 64 85
54 64 85
54 64 85
54 64 85
54 64 85
54 64 85
54 64 85
54 64 85
54 64 85
54 64 85
54 64 85
54 64 85
54 64 85
54 64 85
54 64 85
54 64 85
54 63 85
54 63 85
54 63 84
54 63 84
54 63 84
54 63 84
54 63 84
54 63 84
54 63 84
54 63 84
54 63 84
54 63 84
54 63 84
54 63 84
54 63 84
54 63 84
54 63 84
54 63 84
54 63 84
54 63 84
54 63 84
54 63 84
54 63 84
54 63 84
54 63 84
54 63 84
54 63 84
54 63 84
54 63 84
54 63 84
54 63 84
54 63 84
54 63 84
54 63 84
54 63 84
54 63 84
54 63 84
54 63 84
54 63 84
54 63 84
54 63 84
54 63 84
54 63 84
54 63 84
54 63 84
54 63 84
54 63 84
54 63 84
54 63 84
54 63 84
54 63 84
54 63 84
54 63 84
54 63 84
54 63 84
54 63 84
54 63 84
54 63 84
54 63 84
54 63 84
54 63 84
54 63 84
54 63 84
54 63 84
54 63 84
54 63 84
54 63 84
54 63 84
54 63 84
54 63 84
54 63 84
54 63 84
54 63 84
54 63 84
54 63 84
54 63 84
54 63 84
54 63 84
54 63 84
54 63 84
54 63 84
54 63 84
54 63 84
54 63 84
54 63 84
54 63 84
54 63 84
54 63 84
54 63 85
54 63 85
54 63 85
54 63 85
54 64 85
54 64 85
54 64 85
54 64 85
54 64 85
54 64 85
54 64 85
54 64 85
54 64 85
54 64 85
54 64 85
54 64 85
54 64 85
54 64 85
54 64 85
54 64 85
54 64 85
54 64 85
54 64 85
54 64 85
54 64 85
54 64 85
54 64 85
54 64 85
54 64 85
54 64 85
54 64 85
54 64 85
54 64 85
54 64 85
54 64 85
54 64 85
54 64 85
54 64 85
54 64 85
54 64 85
54 64 85
54 64 85
54 64 85
54 64 85
54 64 85
54 64 85
54 64 85
54 64 85
54 64 85
54 64 85
54 64 85
54 64 85
54 64 85
54 64 85
54 64 85
54 64 85
54 64 85
54 64 85
54 64 85
54 64 85
54 64 85
54 64 85
54 64 85
54 64 85
54 64 85
54 64 85
54 64 85
54 64 85
54 64 85
54 64 85
54 64 85
54 64 85
54 64 85
54 64 85
54 64 85
54 64 85
54 64 85
54 64 85
54 64 85
54 64 85
54 64 85
54 64 85
54 64 85
54 64 85
54 64 85
54 64 85
54 63 85
54 63 85
54 63 85
54 63 85
54 63 84
54 63 84
54 63 84
54 63 84
54 63 84
54 63 84
54 63 84
54 63 84
54 63 84
54 63 84
54 63 84
54 63 84
54 63 84
54 63 84
54 63 84
54 63 84
54 63 84
54 63 84
54 63 84
54 63 84
54 63 84
54 63 84
54 63 84
54 63 84
54 63 84
54 63 84
54 63 84
54 63 84
54 63 84
54 63 84
54 63 84
54 63 84
54 63 84
54 63 84
54 63 84
54 63 84
54 63 84
54 63 84
54 63 84
54 63 84
54 63 84
54 63 84
54 63 84
54 63 84
54 63 84
54 63 84
54 63 84
54 63 84
54 63 84
54 63 84
54 63 84
54 63 84
54 63 84
54 63 84
54 63 84
54 63 84
54 63 84
54 63 84
54 63 84
54 63 84
54 63 84
54 63 84
54 63 84
54 63 84
54 63 84
54 63 84
54 63 84
54 63 84
54 63 84
54 63 84
54 63 84
54 63 84
54 63 84
54 63 84
54 63 84
54 63 84
54 63 84
54 63 84
54 63 84
54 63 84
54 63 84
54 63 84
54 63 84
54 63 84
54 63 84
54 63 84
54 63 84
54 63 84
54 63 84
54 63 84
54 63 84
54 63 84
54 63 84
54 63 84
54 63 84
54 63 84
54 63 84
54 63 84
54 63 84
54 63 84
54 63 84
54 63 84
54 63 84
54 63 84
54 63 84
54 63 84
54 63 84
54 63 84
54 63 84
54 63 84
54 63 84
54 63 84
54 63 84
54 63 84
54 63 84
54 63 84
54 63 84
54 63 84
54 63 84
54 63 84
54 63 84
54 63 84
54 63 84
54 63 84
54 63 84
54 63 84
54 63 84
54 63 84
54 63 84
54 63 84
54 63 84
54 63 84
54 63 84
54 63 84
54 63 84
54 63 84
54 63 84
54 63 84
54 63 84
54 63 84
54 63 84
54 63 84
54 63 84
54 63 84
54 63 84
54 63 84
54 63 84
54 63 84
54 63 84
54 63 84
54 63 84
54 63 84
54 63 84
54 63 84
54 63 84
54 63 84
54 63 84
54 63 84
54 63 84
54 63 84
54 63 84
54 63 84
54 63 84
54 63 84
54 63 84
54 63 84
54 63 84
54 63 84
54 63 84
54 63 84
54 63 84
54 63 84
54 63 84
54 63 84
54 63 84
54 63 84
54 63 84
54 63 84
54 63 84
54 63 84
54 63 84
54 63 84
54 63 84
54 63 84
54 63 84
54 63 84
54 63 84
54 63 84
54 63 84
54 63 84
54 63 84
54 63 84
54 63 84
54 63 84
54 63 84
54 63 84
54 63 84
54 63 84
54 63 84
54 63 84
54 63 84
54 63 84
54 63 84
54 63 84
54 63 84
54 63 84
54 63 84
54 63 84
54 63 84
54 63 84
54 63 84
54 63 84
54 63 84
54 63 84
54 63 84
54 63 84
54 63 84
54 63 84
54 63 84
54 63 84
54 63 84
54 63 84
54 63 84
54 63 84
54 63 84
54 63 84
54 63 84
54 63 84
54 63 84
54 63 84
54 63 84
54 63 84
54 63 84
54 63 84
54 63 84
54 63 84
54 63 84
54 63 84
54 63 84
54 63 84
54 63 84
54 63 84
54 63 84
54 63 84
54 63 84
54 63 84
54 63 84
54 63 84
54 63 84
54 63 84
54 63 84
54 63 84
54 63 84
54 63 84
54 63 84
53 63 84
54 63 84
54 63 84
54 63 84
54 63 84
54 63 84
54 63 84
54 63 84
54 63 84
54 63 84
54 63 84
54 63 84
54 63 84
54 63 84
54 63 84
54 63 84
54 63 84
54 63 84
54 63 84
54 63 84
54 63 84
54 63 84
54 63 84
54 63 84
54 63 84
54 63 84
54 63 84
54 63 84
54 63 84
54 63 84
54 63 84
54 63 84
54 63 84
54 63 84
54 63 84
54 63 84
54 63 84
54 63 84
54 63 84
54 63 84
54 63 84
54 63 84
54 63 84
54 63 84
54 63 84
54 63 84
54 63 84
54 63 84
54 63 84
54 63 84
54 63 84
54 63 84
54 63 84
54 63 84
54 63 84
54 63 84
54 63 84
54 63 84
54 63 84
54 63 84
54 63 84
54 63 84
54 63 84
54 63 84
54 63 84
54 63 84
54 63 84
54 63 84
54 63 84
54 63 84
54 63 84
54 63 84
54 63 84
54 63 84
54 63 84
54 63 84
54 63 84
54 63 84
54 63 84
54 63 84
54 63 84
54 63 84
54 63 84
54 63 84
54 63 84
54 63 84
54 63 84
54 63 84
54 63 84
54 63 84
54 63 84
54 63 84
54 63 84
54 63 84
54 63 84
54 63 84
54 63 84
54 63 84
54 63 84
54 63 84
54 63 84
54 63 84
54 63 84
54 63 84
54 63 84
54 63 84
54 63 84
54 63 84
54 63 84
54 63 84
54 63 84
54 63 84
54 63 84
54 63 84
54 63 84
54 63 84
54 63 84
54 63 84
54 63 84
54 63 84
54 63 84
54 63 84
54 63 84
54 63 84
54 63 84
54 63 84
54 63 84
54 63 84
54 63 84
54 63 84
54 63 84
54 63 84
54 63 84
54 63 84
54 63 84
54 63 84
54 63 84
54 63 84
54 63 84
54 63 84
54 63 84
54 63 84
54 63 84
54 63 84
54 63 84
54 63 84
54 63 84
54 63 84
54 63 84
54 63 84
54 63 84
54 63 84
54 63 84
54 63 84
54 63 84
54 63 84
54 63 84
54 63 84
54 63 84
54 63 84
54 63 84
54 63 84
54 63 84
54 63 84
54 63 84
54 63 84
54 63 84
54 63 84
54 63 84
54 63 84
54 63 84
54 63 84
54 63 84
54 63 84
54 63 84
54 63 84
54 63 84
54 63 84
54 63 84
54 63 84
54 63 84
54 63 84
54 63 84
54 63 84
54 63 84
54 63 84
54 63 84
54 63 84
54 63 84
54 63 84
54 63 84
54 63 84
54 63 84
54 63 84
54 63 84
54 63 84
54 63 84
54 63 84
54 63 84
53 63 84
53 63 84
53 63 84
53 63 84
53 63 84
53 63 84
53 63 84
53 63 84
53 63 84
53 63 84
53 63 84
53 63 84
53 63 84
53 63 84
53 63 84
53 63 84
53 63 84
53 63 84
53 63 84
53 63 84
53 63 84
53 63 84
53 63 84
54 63 84
54 63 84
54 63 84
54 63 84
54 63 84
54 63 84
54 63 84
54 63 84
54 63 84
54 63 84
54 63 84
54 63 84
54 63 84
54 63 84
54 63 84
54 63 84
54 63 84
54 63 84
54 63 84
54 63 84
54 63 84
54 63 84
54 63 84
54 63 84
54 63 84
54 63 84
54 63 84
54 63 84
54 63 84
54 63 84
54 63 84
54 63 84
54 63 84
54 63 84
54 63 84
54 63 84
54 63 84
54 63 84
54 63 84
54 63 84
54 63 84
54 63 84
54 63 84
54 63 84
54 63 84
54 63 84
54 63 84
54 63 84
54 63 84
54 63 84
54 63 84
54 63 84
54 63 84
54 63 84
54 63 84
54 63 84
54 63 84
54 63 84
54 63 84
54 63 84
54 63 84
54 63 84
54 63 84
54 63 84
54 63 84
54 63 84
54 63 84
54 63 84
54 63 84
54 63 84
54 63 84
54 63 84
54 63 84
54 63 84
54 63 84
54 63 84
54 63 84
54 63 84
54 63 84
54 63 84
54 63 84
54 63 84
54 63 84
54 63 84
54 63 84
54 63 84
54 63 84
54 63 84
54 63 84
54 63 84
54 63 84
54 63 84
54 63 84
54 63 84
54 63 84
54 63 84
54 63 84
54 63 84
54 63 84
54 63 84
54 63 84
54 63 84
54 63 84
54 63 84
54 63 84
54 63 84
54 63 84
54 63 84
54 63 84
54 63 84
54 63 84
54 63 84
54 63 84
54 63 84
54 63 84
54 63 84
54 63 84
54 63 84
54 63 84
54 63 84
54 63 84
54 63 84
54 63 84
54 63 84
54 63 84
54 63 84
54 63 84
54 63 84
54 63 84
54 63 84
54 63 84
54 63 84
54 63 84
54 63 84
54 63 84
54 63 84
54 63 84
54 63 84
54 63 84
54 63 84
54 63 84
54 63 84
54 63 84
54 63 84
54 63 84
54 63 84
54 63 84
54 63 84
54 63 84
54 63 84
54 63 84
54 63 84
54 63 84
54 63 84
54 63 84
54 63 84
53 63 84
53 63 84
53 63 84
53 63 84
53 63 84
53 63 84
53 63 84
53 63 84
53 63 84
53 63 84
53 63 84
53 63 84
53 63 84
53 63 84
53 63 84
53 63 84
53 63 84
53 63 84
53 63 84
53 63 84
53 63 84
53 63 84
53 63 83
53 63 83
53 63 83
53 63 83
53 63 83
53 63 83
53 63 83
53 63 83
53 63 83
53 63 83
53 63 83
53 63 83
53 63 83
53 63 83
53 63 83
53 63 83
53 63 83
53 63 83
53 63 83
53 63 83
53 63 84
53 63 84
53 63 84
53 63 84
53 63 84
53 63 84
53 63 84
53 63 84
53 63 84
53 63 84
53 63 84
53 63 84
53 63 84
53 63 84
53 63 84
53 63 84
53 63 84
53 63 84
53 63 84
53 63 84
53 63 84
53 63 84
53 63 84
53 63 84
53 63 84
53 63 84
53 63 84
53 63 84
53 63 84
53 63 84
54 63 84
54 63 84
54 63 84
54 63 84
54 63 84
54 63 84
54 63 84
54 63 84
54 63 84
54 63 84
54 63 84
54 63 84
54 63 84
54 63 84
54 63 84
54 63 84
54 63 84
54 63 84
54 63 84
54 63 84
54 63 84
54 63 84
54 63 84
54 63 84
54 63 84
54 63 84
54 63 84
54 63 84
54 63 84
54 63 84
54 63 84
54 63 84
54 63 84
54 63 84
54 63 84
54 63 84
54 63 84
54 63 84
54 63 84
54 63 84
54 63 84
54 63 84
54 63 84
54 63 84
54 63 84
54 63 84
54 63 84
54 63 84
54 63 84
54 63 84
54 63 84
54 63 84
54 63 84
54 63 84
54 63 84
54 63 84
54 63 84
54 63 84
54 63 84
54 63 84
54 63 84
54 63 84
54 63 84
54 63 84
54 63 84
54 63 84
54 63 84
54 63 84
54 63 84
54 63 84
54 63 84
54 63 84
54 63 84
54 63 84
54 63 84
54 63 84
54 63 84
54 63 84
54 63 84
54 63 84
54 63 84
54 63 84
54 63 84
54 63 84
54 63 84
54 63 84
54 63 84
54 63 84
54 63 84
54 63 84
54 63 84
54 63 84
54 63 84
54 63 84
54 63 84
54 63 84
54 63 84
54 63 84
54 63 84
54 63 84
53 63 84
53 63 84
53 63 84
53 63 84
53 63 84
53 63 84
53 63 84
53 63 84
53 63 84
53 63 84
53 63 84
53 63 84
53 63 84
53 63 84
53 63 84
53 63 84
53 63 84
53 63 84
53 63 84
53 63 84
53 63 84
53 63 84
53 63 84
53 63 84
53 63 84
53 63 84
53 63 84
53 63 84
53 63 84
53 63 84
53 63 83
53 63 83
53 63 83
53 63 83
53 63 83
53 63 83
53 63 83
53 63 83
53 63 83
53 63 83
53 63 83
53 63 83
53 63 83
53 63 83
53 63 83
53 63 83
53 63 83
53 63 83
53 63 83
53 63 83
53 62 83
53 62 83
53 62 83
53 62 83
53 62 83
53 62 83
53 62 83
53 62 83
53 62 83
53 62 83
53 62 83
53 62 83
53 62 83
53 62 83
53 62 83
53 62 83
53 62 83
53 62 83
53 62 83
53 62 83
53 62 83
53 62 83
53 62 83
53 62 83
53 63 83
53 63 83
53 63 83
53 63 83
53 63 83
53 63 83
53 63 83
53 63 83
53 63 83
53 63 83
53 63 83
53 63 83
53 63 83
53 63 83
53 63 83
53 63 83
53 63 83
53 63 83
53 63 83
53 63 83
53 63 83
53 63 83
53 63 83
53 63 83
53 63 84
53 63 84
53 63 84
53 63 84
53 63 84
53 63 84
53 63 84
53 63 84
53 63 84
53 63 84
53 63 84
53 63 84
53 63 84
53 63 84
53 63 84
53 63 84
53 63 84
53 63 84
53 63 84
53 63 84
53 63 84
53 63 84
53 63 84
53 63 84
53 63 84
53 63 84
53 63 84
53 63 84
53 63 84
53 63 84
53 63 84
53 63 84
53 63 84
53 63 84
53 63 84
53 63 84
53 63 84
53 63 84
53 63 84
53 63 84
53 63 84
53 63 84
53 63 84
53 63 84
53 63 84
53 63 84
53 63 84
53 63 84
53 63 84
53 63 84
53 63 84
53 63 84
53 63 84
53 63 84
53 63 84
53 63 84
53 63 84
53 63 84
53 63 84
53 63 84
53 63 84
53 63 84
53 63 84
53 63 84
53 63 84
53 63 84
53 63 84
53 63 84
53 63 84
53 63 84
53 63 84
53 63 84
53 63 84
53 63 84
53 63 84
53 63 84
53 63 84
53 63 84
53 63 84
53 63 84
53 63 84
53 63 84
53 63 84
53 63 84
53 63 84
53 63 84
53 63 84
53 63 84
53 63 84
53 63 84
53 63 84
53 63 84
53 63 84
53 63 84
53 63 84
53 63 84
53 63 84
53 63 84
53 63 84
53 63 84
53 63 84
53 63 84
53 63 84
53 63 84
53 63 83
53 63 83
53 63 83
53 63 83
53 63 83
53 63 83
53 63 83
53 63 83
53 63 83
53 63 83
53 63 83
53 63 83
53 63 83
53 63 83
53 63 83
53 63 83
53 63 83
53 63 83
53 63 83
53 63 83
53 63 83
53 63 83
53 63 83
53 63 83
53 62 83
53 62 83
53 62 83
53 62 83
53 62 83
53 62 83
53 62 83
53 62 83
53 62 83
53 62 83
53 62 83
53 62 83
53 62 83
53 62 83
53 62 83
53 62 83
53 62 83
53 62 83
53 62 83
53 62 83
53 62 83
53 62 83
53 62 83
53 62 83
53 62 83
53 62 83
53 62 83
53 62 83
53 62 83
53 62 83
53 62 83
53 62 83
53 62 83
53 62 83
53 62 83
53 62 83
53 62 83
53 62 83
53 62 83
53 62 83
53 62 83
53 62 83
53 62 83
53 62 83
53 62 83
53 62 83
53 62 83
53 62 83
53 62 83
53 62 83
53 62 83
53 62 83
53 62 83
53 62 83
53 62 83
53 62 83
53 62 83
53 62 83
53 62 83
53 62 83
53 62 83
53 62 83
53 62 83
53 62 83
53 62 83
53 62 83
53 62 83
53 62 83
53 62 83
53 62 83
53 62 83
53 62 83
53 62 83
53 62 83
53 62 83
53 62 83
53 62 83
53 62 83
53 62 83
53 62 83
53 62 83
53 63 83
53 63 83
53 63 83
53 63 83
53 63 83
53 63 83
53 63 83
53 63 83
53 63 83
53 63 83
53 63 83
53 63 83
53 63 83
53 63 83
53 63 83
53 63 83
53 63 83
53 63 83
53 63 83
53 63 83
53 63 83
53 63 83
53 63 83
53 63 83
53 63 83
53 63 83
53 63 83
53 63 83
53 63 83
53 63 83
53 63 83
53 63 83
53 63 83
53 63 83
53 63 83
53 63 83
53 63 83
53 63 83
53 63 83
53 63 83
53 63 83
53 63 83
53 63 83
53 63 83
53 63 83
53 63 83
53 63 83
53 63 83
53 63 83
53 63 83
53 63 83
53 63 83
53 63 83
53 63 83
53 63 83
53 63 83
53 63 83
53 63 83
53 63 83
53 63 83
53 63 83
53 63 83
53 63 83
53 63 83
53 63 83
53 63 83
53 63 83
53 63 83
53 63 83
53 63 83
53 63 83
53 63 83
53 63 83
53 63 83
53 63 83
53 63 83
53 63 83
53 63 83
53 63 83
53 63 83
53 63 83
53 63 83
53 63 83
53 63 83
53 63 83
53 63 83
53 62 83
53 62 83
53 62 83
53 62 83
53 62 83
53 62 83
53 62 83
53 62 83
53 62 83
53 62 83
53 62 83
53 62 83
53 62 83
53 62 83
53 62 83
53 62 83
53 62 83
53 62 83
53 62 83
53 62 83
53 62 83
53 62 83
53 62 83
53 62 83
53 62 83
53 62 83
53 62 83
53 62 83
53 62 83
53 62 83
53 62 83
53 62 83
53 62 83
53 62 83
53 62 83
53 62 83
53 62 83
53 62 83
53 62 83
53 62 83
53 62 83
53 62 83
53 62 83
53 62 83
53 62 83
53 62 83
53 62 83
53 62 83
53 62 83
53 62 83
53 62 83
53 62 83
53 62 83
53 62 83
53 62 83
53 62 83
53 62 83
53 62 83
53 62 83
53 62 83
53 62 83
53 62 83
53 62 83
53 62 83
53 62 83
53 62 83
53 62 83
53 62 83
53 62 83
53 62 83
53 62 83
53 62 83
53 62 83
53 62 83
53 62 83
53 62 83
53 62 83
53 62 83
53 62 83
53 62 83
53 62 83
53 62 83
53 62 83
53 62 83
53 62 83
53 62 83
53 62 83
53 62 83
53 62 83
53 62 83
53 62 83
53 62 83
53 62 83
53 62 83
53 62 83
53 62 83
53 62 83
53 62 83
53 62 83
53 62 83
53 62 83
53 62 83
53 62 83
53 62 83
53 62 83
53 62 83
53 62 83
53 62 83
53 62 83
53 62 83
53 62 83
53 62 83
53 62 83
53 62 83
53 62 83
53 62 83
53 62 83
53 62 83
53 62 83
53 62 83
53 62 83
53 62 83
53 62 83
53 62 83
53 62 83
53 62 83
53 62 83
53 62 83
53 62 83
53 62 83
53 62 83
53 62 83
53 62 83
53 62 83
53 62 83
53 62 83
53 62 83
53 62 83
53 62 83
53 62 83
53 62 83
53 62 83
53 62 83
53 62 83
53 62 83
53 62 83
53 62 83
53 62 83
53 62 83
53 62 83
53 62 83
53 62 83
53 62 83
53 62 83
53 62 83
53 62 83
53 62 83
53 62 83
53 62 83
53 62 83
53 62 83
53 62 83
53 62 83
53 62 83
53 62 83
53 62 83
53 62 83
53 62 83
53 62 83
53 62 83
53 62 83
53 62 83
53 62 83
53 62 83
53 62 83
53 62 83
53 62 83
53 62 83
53 62 83
53 62 83
53 62 83
53 62 83
53 62 83
53 62 83
53 62 83
53 62 83
53 62 83
53 62 83
53 62 83
53 62 83
53 62 83
53 62 83
53 62 83
53 62 83
53 62 83
53 62 83
53 62 83
53 62 83
53 62 83
53 62 83
53 62 83
53 62 83
53 62 83
53 62 83
53 62 83
53 62 83
53 62 83
53 62 83
53 62 83
53 62 83
53 62 83
53 62 83
53 62 83
53 62 83
53 62 83
53 62 83
53 62 83
53 62 83
53 62 83
53 62 83
53 62 83
53 62 83
53 62 83
53 62 83
53 62 83
53 62 83
53 62 83
53 62 83
53 62 83
53 62 83
53 62 83
53 62 83
53 62 83
53 62 83
53 62 83
53 62 83
53 62 83
53 62 83
53 62 83
53 62 83
53 62 83
53 62 83
53 62 83
53 62 83
53 62 83
53 62 83
53 62 83
53 62 83
53 62 83
53 62 83
53 62 83
53 62 83
53 62 83
53 62 83
53 62 83
53 62 83
53 62 83
53 62 83
53 62 83
53 62 83
53 62 83
53 62 83
53 62 83
53 62 83
53 62 83
53 62 83
53 62 83
53 62 83
53 62 83
53 62 83
53 62 83
53 62 83
53 62 83
53 62 83
53 62 83
53 62 83
53 62 83
53 62 83
53 62 83
53 62 83
53 62 83
53 62 83
53 62 83
53 62 83
53 62 83
53 62 83
53 62 83
53 62 83
53 62 83
53 62 83
53 62 83
53 62 83
53 62 83
53 62 83
53 62 83
53 62 83
53 62 83
53 62 83
53 62 83
53 62 83
53 62 83
53 62 83
53 62 83
53 62 83
53 62 83
53 62 83
53 62 83
53 62 83
53 62 83
53 62 83
53 62 83
53 62 83
53 62 83
53 62 83
53 62 83
53 62 83
53 62 83
53 62 83
53 62 83
53 62 83
53 62 83
53 62 83
53 62 83
53 62 83
53 62 83
53 62 83
53 62 83
53 62 83
53 62 83
53 62 83
53 62 83
53 62 83
53 62 83
53 62 83
53 62 83
53 62 83
53 62 83
53 62 83
53 62 83
53 62 83
53 62 83
53 62 83
53 62 83
53 62 83
53 62 83
53 62 83
53 62 83
53 62 83
53 62 83
53 62 83
53 62 83
53 62 83
53 62 83
53 62 83
53 62 83
53 62 83
53 62 83
53 62 83
53 62 83
53 62 83
53 62 83
53 62 83
53 62 83
53 62 83
53 62 83
53 62 83
53 62 83
53 62 83
53 62 83
53 62 83
53 62 83
53 62 83
53 62 83
53 62 83
53 62 83
53 62 83
53 62 83
53 62 83
53 62 83
53 62 83
53 62 83
53 62 83
53 62 83
53 62 83
53 62 83
53 62 83
53 62 83
53 62 83
53 62 83
53 62 83
53 62 83
53 62 83
53 62 83
53 62 83
53 62 83
53 62 83
53 62 83
53 62 83
53 62 83
53 62 83
53 62 83
53 62 83
53 62 83
53 62 83
53 62 83
53 62 83
53 62 83
53 62 83
53 62 83
53 62 83
53 62 83
53 62 83
53 62 83
53 62 83
53 62 83
53 62 83
53 62 83
53 62 83
53 62 83
53 62 83
53 62 83
53 62 83
53 62 83
53 62 83
53 62 83
53 62 83
53 62 83
53 62 83
53 62 83
53 62 83
53 62 83
53 62 83
53 62 83
53 62 83
53 62 83
53 62 83
53 62 83
53 62 83
53 62 83
53 62 83
53 62 83
53 62 83
53 62 83
53 62 83
53 62 83
53 62 83
53 62 83
53 62 83
53 62 83
53 62 83
53 62 83
53 62 83
53 62 83
53 62 83
53 62 83
53 62 83
53 62 83
53 62 82
53 62 82
53 62 82
53 62 82
53 62 82
53 62 83
53 62 83
53 62 83
53 62 83
53 62 83
53 62 83
53 62 83
53 62 83
53 62 83
53 62 83
53 62 83
53 62 83
53 62 83
53 62 83
53 62 83
53 62 83
53 62 83
53 62 83
53 62 83
53 62 83
53 62 83
53 62 83
53 62 83
53 62 83
53 62 83
53 62 83
53 62 83
53 62 83
53 62 83
53 62 83
53 62 83
53 62 83
53 62 83
53 62 83
53 62 83
53 62 83
53 62 83
53 62 83
53 62 83
53 62 83
53 62 83
53 62 83
53 62 83
53 62 83
53 62 83
53 62 83
53 62 83
53 62 83
53 62 83
53 62 83
53 62 83
53 62 83
53 62 83
53 62 83
53 62 83
53 62 83
53 62 83
53 62 83
53 62 83
53 62 83
53 62 83
53 62 83
53 62 83
53 62 83
53 62 83
53 62 83
53 62 83
53 62 83
53 62 83
53 62 83
53 62 83
53 62 83
53 62 83
53 62 83
53 62 83
53 62 83
53 62 83
53 62 83
53 62 83
53 62 83
53 62 83
53 62 83
53 62 83
53 62 83
53 62 83
53 62 83
53 62 83
53 62 83
53 62 83
53 62 83
53 62 83
53 62 83
53 62 83
53 62 83
53 62 83
53 62 83
53 62 83
53 62 83
53 62 83
53 62 83
53 62 83
53 62 83
53 62 83
53 62 83
53 62 83
53 62 83
53 62 83
53 62 83
53 62 83
53 62 83
53 62 83
53 62 83
53 62 83
53 62 83
53 62 83
53 62 83
53 62 83
53 62 83
53 62 83
53 62 83
53 62 83
53 62 83
53 62 83
53 62 83
53 62 83
53 62 83
53 62 83
53 62 83
53 62 83
53 62 83
53 62 83
53 62 83
53 62 83
53 62 83
53 62 83
53 62 83
53 62 83
53 62 83
53 62 83
53 62 83
53 62 83
53 62 83
53 62 83
53 62 83
53 62 83
53 62 83
53 62 83
53 62 83
53 62 83
53 62 83
53 62 83
53 62 83
53 62 83
53 62 83
53 62 83
53 62 83
53 62 83
53 62 83
53 62 83
53 62 83
53 62 83
53 62 83
53 62 83
53 62 83
53 62 83
53 62 83
53 62 83
53 62 83
53 62 83
53 62 83
53 62 83
53 62 83
53 62 83
53 62 83
53 62 83
53 62 83
53 62 83
53 62 83
53 62 83
53 62 83
53 62 83
53 62 83
53 62 83
53 62 83
53 62 83
53 62 83
53 62 83
53 62 83
53 62 83
53 62 83
53 62 82
53 62 82
53 62 82
53 62 82
53 62 82
52 62 82
52 62 82
52 62 82
52 62 82
52 62 82
52 62 82
52 62 82
52 62 82
52 62 82
52 62 82
53 62 82
53 62 82
53 62 82
53 62 82
53 62 82
53 62 82
53 62 82
53 62 82
53 62 82
53 62 82
53 62 82
53 62 82
53 62 82
53 62 82
53 62 82
53 62 82
53 62 82
53 62 82
53 62 82
53 62 82
53 62 82
53 62 82
53 62 82
53 62 82
53 62 82
53 62 82
53 62 82
53 62 82
53 62 82
53 62 82
53 62 82
53 62 83
53 62 83
53 62 83
53 62 83
53 62 83
53 62 83
53 62 83
53 62 83
53 62 83
53 62 83
53 62 83
53 62 83
53 62 83
53 62 83
53 62 83
53 62 83
53 62 83
53 62 83
53 62 83
53 62 83
53 62 83
53 62 83
53 62 83
53 62 83
53 62 83
53 62 83
53 62 83
53 62 83
53 62 83
53 62 83
53 62 83
53 62 83
53 62 83
53 62 83
53 62 83
53 62 83
53 62 83
53 62 83
53 62 83
53 62 83
53 62 83
53 62 83
53 62 83
53 62 83
53 62 83
53 62 83
53 62 83
53 62 83
53 62 83
53 62 83
53 62 83
53 62 83
53 62 83
53 62 83
53 62 83
53 62 83
53 62 83
53 62 83
53 62 83
53 62 83
53 62 83
53 62 83
53 62 83
53 62 83
53 62 83
53 62 83
53 62 83
53 62 83
53 62 83
53 62 83
53 62 83
53 62 83
53 62 83
53 62 83
53 62 83
53 62 83
53 62 83
53 62 83
53 62 83
53 62 83
53 62 83
53 62 83
53 62 83
53 62 83
53 62 83
53 62 83
53 62 83
53 62 83
53 62 83
53 62 83
53 62 83
53 62 83
53 62 83
53 62 83
53 62 83
53 62 83
53 62 83
53 62 83
53 62 83
53 62 83
53 62 83
53 62 83
53 62 83
53 62 83
53 62 83
53 62 83
53 62 83
53 62 83
53 62 83
53 62 83
53 62 83
53 62 83
53 62 83
53 62 83
53 62 83
53 62 83
53 62 83
53 62 83
53 62 82
53 62 82
53 62 82
53 62 82
53 62 82
53 62 82
53 62 82
53 62 82
53 62 82
53 62 82
53 62 82
53 62 82
53 62 82
53 62 82
53 62 82
53 62 82
53 62 82
53 62 82
53 62 82
53 62 82
53 62 82
53 62 82
53 62 82
53 62 82
53 62 82
53 62 82
53 62 82
53 62 82
53 62 82
53 62 82
53 62 82
52 62 82
52 62 82
52 62 82
52 62 82
52 62 82
52 62 82
52 62 82
52 62 82
52 62 82
52 62 82
52 61 82
52 61 82
52 61 82
52 61 82
52 61 82
52 61 82
52 61 82
52 61 82
52 61 82
52 61 82
52 61 82
52 62 82
52 62 82
52 62 82
52 62 82
52 62 82
52 62 82
52 62 82
52 62 82
52 62 82
52 62 82
52 62 82
52 62 82
52 62 82
52 62 82
52 62 82
52 62 82
52 62 82
52 62 82
52 62 82
52 62 82
52 62 82
52 62 82
52 62 82
52 62 82
52 62 82
52 62 82
52 62 82
52 62 82
52 62 82
52 62 82
52 62 82
52 62 82
52 62 82
52 62 82
52 62 82
52 62 82
52 62 82
52 62 82
52 62 82
52 62 82
52 62 82
52 62 82
53 62 82
53 62 82
53 62 82
53 62 82
53 62 82
53 62 82
53 62 82
53 62 82
53 62 82
53 62 82
53 62 82
53 62 82
53 62 82
53 62 82
53 62 82
53 62 82
53 62 82
53 62 82
53 62 82
53 62 82
53 62 82
53 62 82
53 62 82
53 62 82
53 62 82
53 62 82
53 62 82
53 62 82
53 62 82
53 62 82
53 62 82
53 62 82
53 62 82
53 62 82
53 62 82
53 62 82
53 62 82
53 62 82
53 62 82
53 62 82
53 62 82
53 62 82
53 62 82
53 62 82
53 62 82
53 62 82
53 62 82
53 62 82
53 62 82
53 62 82
53 62 82
53 62 82
53 62 82
53 62 82
53 62 82
53 62 82
53 62 82
53 62 82
53 62 82
53 62 82
53 62 82
53 62 82
53 62 82
53 62 82
53 62 82
53 62 82
53 62 82
53 62 82
53 62 82
53 62 82
53 62 82
53 62 82
53 62 82
53 62 82
53 62 82
53 62 82
53 62 82
53 62 82
53 62 82
53 62 82
53 62 82
53 62 82
53 62 82
53 62 82
53 62 82
53 62 82
53 62 82
53 62 82
53 62 82
53 62 82
53 62 82
53 62 82
53 62 82
53 62 82
52 62 82
52 62 82
52 62 82
52 62 82
52 62 82
52 62 82
52 62 82
52 62 82
52 62 82
52 62 82
52 62 82
52 62 82
52 62 82
52 62 82
52 62 82
52 62 82
52 62 82
52 62 82
52 62 82
52 62 82
52 62 82
52 62 82
52 62 82
52 62 82
52 62 82
52 62 82
52 62 82
52 62 82
52 62 82
52 62 82
52 62 82
52 62 82
52 62 82
52 62 82
52 62 82
52 62 82
52 62 82
52 62 82
52 62 82
52 62 82
52 62 82
52 62 82
52 61 82
52 61 82
52 61 82
52 61 82
52 61 82
52 61 82
52 61 82
52 61 82
52 61 82
52 61 82
52 61 82
52 61 82
52 61 82
52 61 82
52 61 82
52 61 82
52 61 82
52 61 82
52 61 82
52 61 82
52 61 82
52 61 82
52 61 82
52 61 82
52 61 82
52 61 82
52 61 82
52 61 82
52 61 82
52 61 82
52 61 82
52 61 82
52 61 82
52 61 82
52 61 82
52 61 82
52 61 82
52 61 82
52 61 82
52 61 82
52 61 82
52 61 82
52 61 82
52 61 82
52 61 82
52 61 82
52 61 82
52 61 82
52 61 82
52 61 82
52 61 82
52 61 82
52 61 82
52 61 82
52 61 82
52 61 82
52 61 82
52 61 82
52 61 82
52 61 82
52 61 82
52 61 82
52 61 82
52 61 82
52 61 82
52 61 82
52 61 82
52 61 82
52 61 82
52 61 82
52 61 82
52 61 82
52 62 82
52 62 82
52 62 82
52 62 82
52 62 82
52 62 82
52 62 82
52 62 82
52 62 82
52 62 82
52 62 82
52 62 82
52 62 82
52 62 82
52 62 82
52 62 82
52 62 82
52 62 82
52 62 82
52 62 82
52 62 82
52 62 82
52 62 82
52 62 82
52 62 82
52 62 82
52 62 82
52 62 82
52 62 82
52 62 82
52 62 82
52 62 82
52 62 82
52 62 82
52 62 82
52 62 82
52 62 82
52 62 82
52 62 82
52 62 82
52 62 82
52 62 82
52 62 82
52 62 82
52 62 82
52 62 82
52 62 82
52 62 82
52 62 82
52 62 82
52 62 82
52 62 82
52 62 82
52 62 82
52 62 82
52 62 82
52 62 82
52 62 82
52 62 82
52 62 82
52 62 82
52 62 82
52 62 82
52 62 82
52 62 82
52 62 82
52 62 82
52 62 82
52 62 82
52 62 82
52 62 82
52 62 82
52 62 82
52 62 82
52 62 82
52 62 82
52 62 82
52 62 82
52 61 82
52 61 82
52 61 82
52 61 82
52 61 82
52 61 82
52 61 82
52 61 82
52 61 82
52 61 82
52 61 82
52 61 82
52 61 82
52 61 82
52 61 82
52 61 82
52 61 82
52 61 82
52 61 82
52 61 82
52 61 82
52 61 82
52 61 82
52 61 82
52 61 82
52 61 82
52 61 82
52 61 82
52 61 82
52 61 82
52 61 82
52 61 82
52 61 82
52 61 82
52 61 82
52 61 82
52 61 82
52 61 82
52 61 82
52 61 82
52 61 82
52 61 82
52 61 82
52 61 82
52 61 82
52 61 82
52 61 82
52 61 82
52 61 82
52 61 82
52 61 82
52 61 82
52 61 82
52 61 82
52 61 82
52 61 82
52 61 82
52 61 82
52 61 82
52 61 82
52 61 82
52 61 82
52 61 82
52 61 82
52 61 82
52 61 82
52 61 82
52 61 82
52 61 82
52 61 82
52 61 82
52 61 82
52 61 82
52 61 82
52 61 82
52 61 82
52 61 82
52 61 82
52 61 82
52 61 82
52 61 82
52 61 82
52 61 82
52 61 82
52 61 82
52 61 82
52 61 82
52 61 82
52 61 82
52 61 82
52 61 82
52 61 82
52 61 82
52 61 82
52 61 82
52 61 82
52 61 82
52 61 82
52 61 82
52 61 82
52 61 82
52 61 82
52 61 82
52 61 82
52 61 82
52 61 82
52 61 82
52 61 82
52 61 82
52 61 82
52 61 82
52 61 82
52 61 82
52 61 82
52 61 82
52 61 82
52 61 82
52 61 82
52 61 82
52 61 82
52 61 82
52 61 82
52 61 82
52 61 82
52 61 82
52 61 82
52 61 82
52 61 82
52 61 82
52 61 82
52 61 82
52 61 82
52 61 82
52 61 82
52 61 82
52 61 82
52 61 82
52 61 82
52 61 82
52 61 82
52 61 82
52 61 82
52 61 82
52 61 82
52 61 82
52 61 82
52 61 82
52 61 82
52 61 82
52 61 82
52 61 82
52 61 82
52 61 82
52 61 82
52 61 82
52 61 82
52 61 82
52 61 82
52 61 82
52 61 82
52 61 82
52 61 82
52 61 82
52 61 82
52 61 82
52 61 82
52 61 82
52 61 82
52 61 82
52 61 82
52 61 82
52 61 82
52 61 82
52 61 82
52 61 82
52 61 82
52 61 82
52 61 82
52 61 82
52 61 82
52 61 82
52 61 82
52 61 82
52 61 82
52 61 82
52 61 82
52 61 82
52 61 82
52 61 82
52 61 82
52 61 82
52 61 82
52 61 82
52 61 82
52 61 82
52 61 82
52 61 82
52 61 82
52 61 82
52 61 82
52 61 82
52 61 82
52 61 82
52 61 82
52 61 82
52 61 82
52 61 82
52 61 82
52 61 82
52 61 82
52 61 82
52 61 82
52 61 82
52 61 82
52 61 82
52 61 82
52 61 82
52 61 82
52 61 82
52 61 82
52 61 82
52 61 82
52 61 82
52 61 82
52 61 82
52 61 82
52 61 82
52 61 82
52 61 82
52 61 82
52 61 82
52 61 82
52 61 82
52 61 82
52 61 82
52 61 82
52 61 82
52 61 82
52 61 82
52 61 82
52 61 82
52 61 82
52 61 82
52 61 82
52 61 82
52 61 82
52 61 82
52 61 82
52 61 82
52 61 82
52 61 82
52 61 82
52 61 82
52 61 82
52 61 82
52 61 82
52 61 82
52 61 82
52 61 82
52 61 82
52 61 82
52 61 82
52 61 82
52 61 82
52 61 82
52 61 82
52 61 82
52 61 82
52 61 82
52 61 82
52 61 82
52 61 82
52 61 82
52 61 82
52 61 82
52 61 82
52 61 82
52 61 82
52 61 82
52 61 82
52 61 82
52 61 82
52 61 82
52 61 82
52 61 82
52 61 82
52 61 82
52 61 82
52 61 82
52 61 82
52 61 82
52 61 82
52 61 82
52 61 82
52 61 82
52 61 82
52 61 82
52 61 82
52 61 82
52 61 82
52 61 82
52 61 82
52 61 82
52 61 82
52 61 82
52 61 82
52 61 82
52 61 82
52 61 82
52 61 82
52 61 82
52 61 82
52 61 82
52 61 82
52 61 82
52 61 82
52 61 82
52 61 82
52 61 82
52 61 82
52 61 82
52 61 82
52 61 82
52 61 82
52 61 82
52 61 82
52 61 82
52 61 82
52 61 82
52 61 82
52 61 82
52 61 82
52 61 82
52 61 82
52 61 82
52 61 82
52 61 82
52 61 82
52 61 82
52 61 82
52 61 82
52 61 82
52 61 82
52 61 82
52 61 82
52 61 82
52 61 82
52 61 82
52 61 82
52 61 82
52 61 82
52 61 82
52 61 82
52 61 82
52 61 82
52 61 82
52 61 82
52 61 82
52 61 82
52 61 82
52 61 82
52 61 82
52 61 82
52 61 82
52 61 82
52 61 82
52 61 82
52 61 82
52 61 82
52 61 82
52 61 82
52 61 82
52 61 82
52 61 82
52 61 82
52 61 82
52 61 82
52 61 82
52 61 82
52 61 82
52 61 82
52 61 82
52 61 82
52 61 82
52 61 82
52 61 82
52 61 82
52 61 82
52 61 82
52 61 82
52 61 82
52 61 82
52 61 82
52 61 82
52 61 82
52 61 82
52 61 82
52 61 82
52 61 82
52 61 82
52 61 82
52 61 82
52 61 82
52 61 82
52 61 82
52 61 82
52 61 82
52 61 82
52 61 82
52 61 82
52 61 82
52 61 82
52 61 82
52 61 82
52 61 82
52 61 82
52 61 82
52 61 82
52 61 82
52 61 82
52 61 82
52 61 82
52 61 82
52 61 82
52 61 82
52 61 82
52 61 82
52 61 82
52 61 82
52 61 82
52 61 82
52 61 82
52 61 82
52 61 82
52 61 82
52 61 82
52 61 82
52 61 82
52 61 82
52 61 82
52 61 82
52 61 82
52 61 82
52 61 82
52 61 82
52 61 82
52 61 82
52 61 82
52 61 82
52 61 82
52 61 82
52 61 82
52 61 82
52 61 82
52 61 82
52 61 82
52 61 82
52 61 82
52 61 82
52 61 82
52 61 82
52 61 81
52 61 81
52 61 81
52 61 81
52 61 81
52 61 81
52 61 81
52 61 81
52 61 81
52 61 81
52 61 81
52 61 81
52 61 81
52 61 81
52 61 81
52 61 81
52 61 81
52 61 81
52 61 81
52 61 81
52 61 81
52 61 81
52 61 81
52 61 81
52 61 81
52 61 81
52 61 81
52 61 81
52 61 81
52 61 82
52 61 82
52 61 82
52 61 82
52 61 82
52 61 82
52 61 82
52 61 82
52 61 82
52 61 82
52 61 82
52 61 82
52 61 82
52 61 82
52 61 82
52 61 82
52 61 82
52 61 82
52 61 82
52 61 82
52 61 82
52 61 82
52 61 82
52 61 82
52 61 82
52 61 82
52 61 82
52 61 82
52 61 82
52 61 82
52 61 82
52 61 82
52 61 82
52 61 82
52 61 82
52 61 82
52 61 82
52 61 82
52 61 82
52 61 82
52 61 82
52 61 82
52 61 82
52 61 82
52 61 82
52 61 82
52 61 82
52 61 82
52 61 82
52 61 82
52 61 82
52 61 82
52 61 82
52 61 82
52 61 82
52 61 82
52 61 82
52 61 82
52 61 82
52 61 82
52 61 82
52 61 82
52 61 82
52 61 82
52 61 82
52 61 82
52 61 82
52 61 82
52 61 82
52 61 82
52 61 82
52 61 82
52 61 82
52 61 82
52 61 82
52 61 82
52 61 82
52 61 82
52 61 82
52 61 82
52 61 82
52 61 82
52 61 82
52 61 82
52 61 82
52 61 82
52 61 82
52 61 82
52 61 82
52 61 82
52 61 82
52 61 82
52 61 82
52 61 82
52 61 82
52 61 82
52 61 82
52 61 82
52 61 82
52 61 82
52 61 82
52 61 82
52 61 82
52 61 82
52 61 82
52 61 82
52 61 82
52 61 82
52 61 82
52 61 82
52 61 82
52 61 82
52 61 82
52 61 82
52 61 82
52 61 82
52 61 82
52 61 82
52 61 82
52 61 82
52 61 82
52 61 82
52 61 82
52 61 82
52 61 82
52 61 82
52 61 82
52 61 82
52 61 82
52 61 82
52 61 82
52 61 82
52 61 82
52 61 82
52 61 82
52 61 82
52 61 82
52 61 82
52 61 82
52 61 82
52 61 82
52 61 82
52 61 81
52 61 81
52 61 81
52 61 81
52 61 81
52 61 81
52 61 81
52 61 81
52 61 81
52 61 81
52 61 81
52 61 81
52 61 81
52 61 81
52 61 81
52 61 81
52 61 81
52 61 81
52 61 81
52 61 81
52 61 81
52 61 81
52 61 81
52 61 81
52 61 81
52 61 81
52 61 81
52 61 81
52 61 81
52 61 81
52 61 81
52 61 81
52 61 81
52 61 81
52 61 81
52 61 81
52 61 81
52 61 81
52 61 81
52 61 81
52 61 81
52 61 81
52 61 81
52 61 81
52 61 81
52 61 81
52 61 81
52 61 81
52 61 81
52 61 81
52 61 81
52 61 81
52 61 81
52 61 81
52 61 81
52 61 81
52 61 81
52 61 81
52 61 81
52 61 81
52 61 81
52 61 81
52 61 81
52 61 81
52 61 81
52 61 81
52 61 81
52 61 81
52 61 81
52 61 81
52 61 81
52 61 81
52 61 81
52 61 81
52 61 81
52 61 81
52 61 81
52 61 81
52 61 81
52 61 81
52 61 81
52 61 81
52 61 81
52 61 81
52 61 81
52 61 81
52 61 81
52 61 81
52 61 81
52 61 81
52 61 81
52 61 81
52 61 81
52 61 81
52 61 81
52 61 81
52 61 81
52 61 81
52 61 81
52 61 81
52 61 81
52 61 81
52 61 81
52 61 81
52 61 81
52 61 81
52 61 81
52 61 81
52 61 81
52 61 81
52 61 81
52 61 81
52 61 81
52 61 81
52 61 81
52 61 81
52 61 81
52 61 81
52 61 81
52 61 81
52 61 81
52 61 81
52 61 81
52 61 81
52 61 81
52 61 81
52 61 81
52 61 81
52 61 81
52 61 81
52 61 81
52 61 81
52 61 81
52 61 81
52 61 81
52 61 81
52 61 81
52 61 81
52 61 81
52 61 81
52 61 81
52 61 81
52 61 81
52 61 81
52 61 81
52 61 81
52 61 81
52 61 81
52 61 81
52 61 81
52 61 81
52 61 81
52 61 81
52 61 81
52 61 81
52 61 81
52 61 81
52 61 81
52 61 81
52 61 81
52 61 81
52 61 81
52 61 81
52 61 81
52 61 81
52 61 81
52 61 81
52 61 81
52 61 81
52 61 81
52 61 81
52 61 81
52 61 81
52 61 81
52 61 81
52 61 81
52 61 81
52 61 81
52 61 81
52 61 81
52 61 81
52 61 81
52 61 81
52 61 81
52 61 81
52 61 81
52 61 81
52 61 81
52 61 81
52 61 81
52 61 81
52 61 81
52 61 81
52 61 81
52 61 81
52 61 81
52 61 81
52 61 81
52 61 81
52 61 81
52 61 81
52 61 81
52 61 81
52 61 81
52 61 81
52 61 81
52 61 81
52 61 81
52 61 81
52 61 81
52 61 81
52 61 81
52 61 81
52 61 81
52 61 81
52 61 81
52 61 81
52 61 81
52 61 81
52 61 81
52 61 81
52 61 81
52 61 81
52 61 81
52 61 81
52 61 81
52 61 81
52 61 81
52 61 81
52 61 81
52 61 81
52 61 81
52 61 81
52 61 81
52 61 81
52 61 81
52 61 81
52 61 81
52 61 81
52 61 81
52 61 81
52 61 81
52 61 81
52 61 81
52 61 81
52 61 81
52 61 81
52 61 81
52 61 81
52 61 81
52 61 81
52 61 81
52 61 81
52 61 81
52 61 81
52 61 81
52 61 81
52 61 81
52 61 81
52 61 81
52 61 81
52 61 81
52 61 81
52 61 81
52 61 81
52 61 81
52 61 81
52 61 81
52 61 81
52 61 81
52 61 81
52 61 81
52 61 81
52 61 81
52 61 81
52 61 81
52 61 81
52 61 81
52 61 81
52 61 81
52 61 81
52 61 81
52 61 81
52 61 81
52 61 81
52 61 81
52 61 81
52 61 81
52 61 81
52 61 81
52 61 81
52 61 81
52 61 81
52 61 81
52 61 81
52 61 81
52 61 81
52 61 81
52 61 81
52 61 81
52 61 81
52 61 81
52 61 81
52 61 81
52 61 81
52 61 81
52 61 81
52 61 81
52 61 81
52 61 81
52 61 81
52 61 81
52 61 81
52 61 81
52 61 81
52 61 81
52 61 81
52 61 81
52 61 81
52 61 81
52 61 81
52 61 81
52 61 81
52 61 81
52 61 81
52 61 81
52 61 81
52 61 81
52 61 81
52 61 81
52 61 81
52 61 81
52 61 81
52 61 81
52 61 81
52 61 81
52 61 81
52 61 81
52 61 81
52 61 81
52 61 81
52 61 81
52 61 81
52 61 81
52 61 81
52 61 81
52 61 81
52 61 81
52 61 81
52 61 81
52 61 81
52 61 81
52 61 81
52 61 81
52 61 81
52 61 81
52 61 81
52 61 81
52 61 81
52 61 81
52 61 81
52 61 81
52 61 81
52 61 81
52 61 81
52 61 81
52 61 81
52 61 81
52 61 81
52 61 81
52 61 81
52 61 81
52 61 81
52 61 81
52 61 81
52 61 81
52 61 81
52 61 81
52 61 81
52 61 81
52 61 81
52 61 81
52 61 81
52 61 81
52 61 81
52 61 81
52 61 81
52 61 81
52 61 81
52 61 81
52 61 81
52 61 81
52 61 81
52 61 81
52 61 81
52 61 81
52 61 81
52 61 81
52 61 81
52 61 81
52 61 81
52 61 81
52 61 81
52 61 81
52 61 81
52 61 81
52 61 81
52 61 81
52 61 81
52 61 81
52 61 81
52 61 81
52 61 81
52 61 81
52 61 81
52 61 81
52 61 81
52 61 81
52 61 81
52 61 81
52 61 81
52 61 81
52 61 81
52 61 81
52 61 81
52 61 81
52 61 81
52 61 81
52 61 81
51 60 81
51 60 81
51 60 81
51 60 81
51 60 81
51 60 81
51 60 81
51 60 81
51 60 81
51 60 81
51 60 81
51 60 81
51 60 81
51 60 81
51 60 81
51 60 81
51 60 81
51 60 81
51 60 81
51 60 81
51 60 81
51 60 81
51 60 81
51 60 81
51 60 81
51 60 81
51 60 81
51 60 81
51 60 81
51 60 81
51 60 81
51 60 81
51 60 81
51 60 81
51 60 81
51 60 81
51 60 81
51 60 81
51 60 81
51 60 81
51 60 81
51 60 81
51 60 81
51 60 81
51 60 81
51 60 81
51 60 81
51 60 81
51 60 81
51 60 81
51 60 81
51 60 81
51 60 81
51 60 81
51 60 81
51 60 81
51 60 81
51 60 81
51 60 81
51 60 81
51 60 81
51 60 81
51 60 81
51 60 81
51 60 81
51 60 81
51 60 81
51 60 81
51 60 81
51 60 81
51 60 81
51 60 81
51 60 81
51 60 81
51 60 81
51 60 81
51 60 81
51 60 81
51 60 81
51 60 81
51 60 81
51 60 81
51 60 81
51 60 81
51 60 81
51 60 81
51 60 81
51 60 81
51 60 81
51 60 81
51 60 81
51 60 81
51 60 81
51 60 81
51 60 81
51 60 81
51 60 81
51 60 81
51 60 81
51 60 81
51 60 81
51 60 81
51 60 81
51 60 81
51 60 81
51 60 81
51 60 81
51 60 81
51 60 81
51 60 81
51 60 81
51 60 81
51 60 81
51 60 81
51 60 81
51 60 81
51 60 81
51 60 81
51 60 81
51 60 81
51 60 81
51 60 81
51 60 81
51 60 81
51 60 81
51 60 81
51 60 81
51 60 81
51 60 81
51 60 81
51 60 81
51 60 81
51 60 81
51 60 81
51 60 81
51 60 81
51 60 81
51 60 81
51 60 81
51 60 81
51 60 81
51 60 81
51 60 81
51 60 81
51 60 81
51 60 81
51 60 81
51 60 81
51 60 81
51 60 81
51 60 81
51 60 81
51 60 81
51 60 81
51 60 81
51 60 81
51 60 81
51 60 81
51 60 81
51 60 81
51 60 81
51 60 81
51 60 81
51 60 81
51 60 81
51 60 81
51 60 81
51 60 81
51 60 81
51 60 81
51 60 81
51 60 81
51 60 81
51 60 81
51 60 81
51 60 81
51 60 81
51 60 81
51 60 81
51 60 81
51 60 81
51 60 81
51 60 81
51 60 81
51 60 81
51 60 81
51 60 81
51 60 81
51 60 81
51 60 81
51 60 81
51 60 81
51 60 81
51 60 81
51 60 81
51 60 81
51 60 81
51 60 81
51 60 81
51 60 81
51 60 81
51 60 81
51 60 81
51 60 81
51 60 81
51 60 81
51 60 81
51 60 81
51 60 81
51 60 81
51 60 81
51 60 81
51 60 81
51 60 81
51 60 81
51 60 81
51 60 81
51 60 81
51 60 81
51 60 81
51 60 81
51 60 81
51 60 81
51 60 81
51 60 81
51 60 81
51 60 81
51 60 81
51 60 81
51 60 81
51 60 81
51 60 81
51 60 81
51 60 81
51 60 81
51 60 81
51 60 81
51 60 81
51 60 81
51 60 81
51 60 81
51 60 81
51 60 81
51 60 81
51 60 81
51 60 81
51 60 81
51 60 81
51 60 81
51 60 81
51 60 81
51 60 81
51 60 81
51 60 81
51 60 81
51 60 81
51 60 81
51 60 81
51 60 81
51 60 81
51 60 81
51 60 81
51 60 81
51 60 81
51 60 81
51 60 81
51 60 81
51 60 81
51 60 81
51 60 81
51 60 81
51 60 81
51 60 81
51 60 81
51 60 81
51 60 81
51 60 81
51 60 81
51 60 81
51 60 81
51 60 81
51 60 81
51 60 81
51 60 81
51 60 81
51 60 81
51 60 81
51 60 81
51 60 81
51 60 81
51 60 81
51 60 81
51 60 81
51 60 81
51 60 81
51 60 81
51 60 81
51 60 81
51 60 81
51 60 81
51 60 81
51 60 81
51 60 81
51 60 81
51 60 81
51 60 81
51 60 81
51 60 81
51 60 81
51 60 81
51 60 81
51 60 81
51 60 81
51 60 81
51 60 81
51 60 81
51 60 81
51 60 81
51 60 81
51 60 81
51 60 81
51 60 81
51 60 81
51 60 81
51 60 81
51 60 81
51 60 81
51 60 81
51 60 81
51 60 81
51 60 81
51 60 81
51 60 81
51 60 81
51 60 81
51 60 81
51 60 81
51 60 81
51 60 81
51 60 81
51 60 81
51 60 81
51 60 81
51 60 81
51 60 81
51 60 81
51 60 81
51 60 81
51 60 81
51 60 81
51 60 81
51 60 81
51 60 81
51 60 81
51 60 81
51 60 81
51 60 81
51 60 81
51 60 81
51 60 81
51 60 81
51 60 81
51 60 81
51 60 81
51 60 81
51 60 81
51 60 81
51 60 81
51 60 81
51 60 81
51 60 81
51 60 81
51 60 81
51 60 81
51 60 81
51 60 81
51 60 81
51 60 81
51 60 81
51 60 81
51 60 81
51 60 81
51 60 81
51 60 81
51 60 81
51 60 81
51 60 81
51 60 81
51 60 81
51 60 81
51 60 81
51 60 81
51 60 81
51 60 81
51 60 81
51 60 81
51 60 81
51 60 81
51 60 81
51 60 81
51 60 81
51 60 81
51 60 81
51 60 81
51 60 81
51 60 81
51 60 81
51 60 81
51 60 81
51 60 81
51 60 81
51 60 81
51 60 81
51 60 81
51 60 81
51 60 81
51 60 81
51 60 81
51 60 81
51 60 81
51 60 81
51 60 81
51 60 81
51 60 81
51 60 81
51 60 81
51 60 81
51 60 81
51 60 81
51 60 81
51 60 81
51 60 81
51 60 81
51 60 81
51 60 81
51 60 81
51 60 81
51 60 81
51 60 81
51 60 81
51 60 81
51 60 81
51 60 81
51 60 81
51 60 81
51 60 81
51 60 81
51 60 81
51 60 81
51 60 81
51 60 81
51 60 81
51 60 81
51 60 81
51 60 81
51 60 81
51 60 81
51 60 81
51 60 81
51 60 81
51 60 81
51 60 81
51 60 81
51 60 81
51 60 81
51 60 81
51 60 81
51 60 81
51 60 81
51 60 81
51 60 81
51 60 81
51 60 81
51 60 81
51 60 81
51 60 81
51 60 81
51 60 81
51 60 81
51 60 81
51 60 81
51 60 81
51 60 81
51 60 81
51 60 81
51 60 81
51 60 81
51 60 81
51 60 81
51 60 81
51 60 81
51 60 81
51 60 81
51 60 81
51 60 81
51 60 81
51 60 81
51 60 81
51 60 81
51 60 81
51 60 81
51 60 81
51 60 81
51 60 81
51 60 81
51 60 81
51 60 81
51 60 81
51 60 81
51 60 81
51 60 81
51 60 81
51 60 81
51 60 81
51 60 81
51 60 81
51 60 81
51 60 81
51 60 81
51 60 81
51 60 81
51 60 81
51 60 81
51 60 81
51 60 81
51 60 81
51 60 81
51 60 81
51 60 81
51 60 81
51 60 81
51 60 81
51 60 81
51 60 81
51 60 81
51 60 81
51 60 81
51 60 81
51 60 81
51 60 81
51 60 81
51 60 81
51 60 81
51 60 81
51 60 81
51 60 81
51 60 81
51 60 81
51 60 81
51 60 81
51 60 81
51 60 81
51 60 81
51 60 81
51 60 81
51 60 81
51 60 81
51 60 81
51 60 81
51 60 81
51 60 81
51 60 81
51 60 81
51 60 81
51 60 81
51 60 81
51 60 81
51 60 81
51 60 81
51 60 81
51 60 81
51 60 81
51 60 81
51 60 81
51 60 81
51 60 81
51 60 81
51 60 81
51 60 81
51 60 81
51 60 81
51 60 81
51 60 81
51 60 81
51 60 81
51 60 81
51 60 81
51 60 81
51 60 81
51 60 81
51 60 81
51 60 81
51 60 81
51 60 81
51 60 81
51 60 81
51 60 81
51 60 81
51 60 81
51 60 81
51 60 80
51 60 80
51 60 80
51 60 80
51 60 80
51 60 80
51 60 80
51 60 80
51 60 80
51 60 80
51 60 80
51 60 80
51 60 80
51 60 80
51 60 80
51 60 80
51 60 80
51 60 80
51 60 80
51 60 80
51 60 80
51 60 80
51 60 80
51 60 80
51 60 80
51 60 80
51 60 80
51 60 80
51 60 80
51 60 80
51 60 80
51 60 80
51 60 80
51 60 80
51 60 80
51 60 80
51 60 80
51 60 80
51 60 80
51 60 80
51 60 80
51 60 80
51 60 80
51 60 80
51 60 80
51 60 80
51 60 80
51 60 80
51 60 80
51 60 80
51 60 80
51 60 80
51 60 80
51 60 80
51 60 80
51 60 80
51 60 80
51 60 80
51 60 80
51 60 80
51 60 80
51 60 80
51 60 80
51 60 80
51 60 80
51 60 80
51 60 80
51 60 80
51 60 80
51 60 80
51 60 80
51 60 80
51 60 80
51 60 80
51 60 80
51 60 80
51 60 80
51 60 80
51 60 80
51 60 80
51 60 80
51 60 80
51 60 80
51 60 80
51 60 80
51 60 80
51 60 80
51 60 80
51 60 80
51 60 80
51 60 80
51 60 80
51 60 80
51 60 80
51 60 80
51 60 80
51 60 80
51 60 80
51 60 80
51 60 80
51 60 80
51 60 80
51 60 80
51 60 80
51 60 80
51 60 80
51 60 80
51 60 80
51 60 80
51 60 80
51 60 80
51 60 80
51 60 80
51 60 80
51 60 80
51 60 80
51 60 80
51 60 80
51 60 80
51 60 80
51 60 80
51 60 80
51 60 80
51 60 80
51 60 80
51 60 80
51 60 80
51 60 80
51 60 80
51 60 80
51 60 80
51 60 80
51 60 80
51 60 80
51 60 80
51 60 80
51 60 80
51 60 80
51 60 80
51 60 80
51 60 80
51 60 80
51 60 80
51 60 80
51 60 80
51 60 80
51 60 80
51 60 80
51 60 80
51 60 80
51 60 80
51 60 80
51 60 80
51 60 80
51 60 80
51 60 80
51 60 80
51 60 80
51 60 80
51 60 80
51 60 80
51 60 80
51 60 80
51 60 80
51 60 80
51 60 80
51 60 80
51 60 80
51 60 80
51 60 80
51 60 80
51 60 80
51 60 80
51 60 80
51 60 80
51 60 80
51 60 80
51 60 80
51 60 80
51 60 80
51 60 80
51 60 80
51 60 80
51 60 80
51 60 80
51 60 80
51 60 80
51 60 80
51 60 80
51 60 80
51 60 80
51 60 80
51 60 80
51 60 80
51 60 80
51 60 80
51 60 80
51 60 80
51 60 80
51 60 80
12 13 15
12 13 15
12 13 15
12 13 15
12 13 15
12 13 15
12 13 15
12 13 15
12 13 15
12 13 15
12 13 15
12 13 15
12 13 15
12 13 15
12 13 15
12 13 15
12 13 15
12 13 15
12 13 15
12 13 15
12 13 15
12 13 15
12 13 15
12 13 15
12 13 15
12 13 15
12 13 15
12 13 15
12 13 15
12 13 15
12 13 15
12 13 15
12 13 15
12 13 15
12 13 15
12 13 15
12 13 15
12 13 15
12 13 15
12 13 15
12 13 15
12 13 15
12 13 15
12 13 15
12 13 15
12 13 15
12 13 15
12 13 15
12 13 15
12 13 15
12 13 15
12 13 15
12 13 15
12 13 15
12 13 15
12 13 15
12 13 15
12 13 15
12 13 15
12 13 15
12 13 15
12 13 15
12 13 15
12 13 15
12 13 15
12 13 15
12 13 15
12 13 15
12 13 15
12 13 15
12 13 15
12 13 15
12 13 15
12 13 15
12 13 15
12 13 15
12 13 15
12 13 15
12 13 15
12 13 15
12 13 15
12 13 15
12 13 15
12 13 15
12 13 15
12 13 15
12 13 15
12 13 15
12 13 15
12 13 15
12 13 15
12 13 15
12 13 15
12 13 15
12 13 15
12 13 15
12 13 15
12 13 15
12 13 15
12 13 15
12 13 15
12 13 15
12 13 15
12 13 15
12 13 15
12 13 15
12 13 15
12 13 15
12 13 15
12 13 15
12 13 15
12 13 15
12 13 15
12 13 15
12 13 15
12 13 15
12 13 15
12 13 15
12 13 15
12 13 15
12 13 15
12 13 15
12 13 15
12 13 15
12 13 15
12 13 15
12 13 15
12 13 15
12 13 15
12 13 15
12 13 15
12 13 15
12 13 15
12 13 15
12 13 15
12 13 15
12 13 15
12 13 15
12 13 15
12 13 15
12 13 15
12 13 15
12 13 15
12 13 15
12 13 15
12 13 15
12 13 15
12 13 15
12 13 15
12 13 15
12 13 15
12 13 15
12 13 15
12 13 15
12 13 15
12 13 15
12 13 15
12 13 15
12 13 15
12 13 15
12 13 15
12 13 15
12 13 15
12 13 15
12 13 15
12 13 15
12 13 15
12 13 15
12 13 15
12 13 15
12 13 15
12 13 15
12 13 15
12 13 15
12 13 15
12 13 15
12 13 15
12 13 15
12 13 15
12 13 15
12 13 15
12 13 15
12 13 15
12 13 15
12 13 15
12 13 15
12 13 15
12 13 15
12 13 15
12 13 15
12 13 15
12 13 15
12 13 15
12 13 15
12 13 15
12 13 15
12 13 15
12 13 15
12 13 15
12 13 15
13 14 16
13 14 16
13 14 16
13 14 16
13 14 16
13 14 16
13 14 16
13 14 16
13 14 16
13 14 16
13 14 16
13 14 16
13 14 16
13 14 16
13 14 16
13 14 16
13 14 16
13 14 16
13 14 16
13 14 16
13 14 16
13 14 16
13 14 16
13 14 16
13 14 16
13 14 16
13 14 16
13 14 16
13 14 16
13 14 16
13 14 16
13 14 16
13 14 16
13 14 16
13 14 16
13 14 16
13 14 16
13 14 16
13 14 16
13 14 16
13 14 16
13 14 16
13 14 16
13 14 16
13 14 16
13 14 16
13 14 16
13 14 16
13 14 16
13 14 16
13 14 16
13 14 16
13 14 16
13 14 16
13 14 16
13 14 16
13 14 16
13 14 16
13 14 16
13 14 16
13 14 16
13 14 16
13 14 16
13 14 16
13 14 16
13 14 16
13 14 16
13 14 16
13 14 16
13 14 16
13 14 16
13 14 16
13 14 16
13 14 16
13 14 16
13 14 16
13 14 16
13 14 16
13 14 16
13 14 16
13 14 16
13 14 16
13 14 16
13 14 16
13 14 16
13 14 16
13 14 16
13 14 16
13 14 16
13 14 16
13 14 16
13 14 16
13 14 16
13 14 16
13 14 16
13 14 16
13 14 16
13 14 16
13 14 16
13 14 16
13 14 16
13 14 16
13 14 16
13 14 16
13 14 16
13 14 16
13 14 16
13 14 16
13 14 16
13 14 16
13 14 16
13 14 16
13 14 16
13 14 16
13 14 16
13 14 16
13 14 16
13 14 16
13 14 16
13 14 16
13 14 16
13 14 16
13 14 16
13 14 16
13 14 16
13 14 16
13 14 16
13 14 16
13 14 16
13 14 16
13 14 16
13 14 16
13 14 16
13 14 16
13 14 16
13 14 16
13 14 16
13 14 16
13 14 16
13 14 16
13 14 16
13 14 16
13 14 16
13 14 16
13 14 16
13 14 16
13 14 16
13 14 16
13 14 16
13 14 16
13 14 16
13 14 16
13 14 16
13 14 16
13 14 16
13 14 16
13 14 16
13 14 16
13 14 16
13 14 16
13 14 16
13 14 16
13 14 16
13 14 16
13 14 16
13 14 16
13 14 16
13 14 16
13 14 16
13 14 16
13 14 16
13 14 16
13 14 16
13 14 16
13 14 16
13 14 16
13 14 16
13 14 16
13 14 16
13 14 16
13 14 16
13 14 16
13 14 16
13 14 16
13 14 16
13 14 16
13 14 16
13 14 16
13 14 16
13 14 16
13 14 16
13 14 16
13 14 16
13 14 16
13 14 16
13 14 16
13 14 16
13 14 16
13 14 16
13 14 16
14 14 17
14 14 17
14 14 17
14 14 17
14 14 17
14 14 17
14 14 17
14 14 17
14 14 17
14 14 17
14 14 17
14 14 17
14 14 17
14 14 17
14 14 17
14 14 17
14 14 17
14 14 17
14 14 17
14 14 17
14 14 17
14 14 17
14 14 17
14 14 17
14 14 17
14 14 17
14 14 17
14 14 17
14 14 17
14 14 17
14 14 17
14 14 17
14 14 17
14 14 17
14 14 17
14 14 17
14 14 17
14 14 17
14 14 17
14 14 17
14 14 17
14 15 17
14 15 17
14 15 17
14 15 17
14 15 17
14 15 17
14 15 17
14 15 17
14 15 17
14 15 17
14 15 17
14 15 17
14 15 17
14 15 17
14 15 17
14 15 17
14 15 17
14 15 17
14 15 17
14 15 17
14 15 17
14 15 17
14 15 17
14 15 17
14 15 17
14 15 17
14 15 17
14 15 17
14 15 17
14 15 17
14 15 17
14 15 17
14 15 17
14 15 17
14 15 17
14 15 17
14 15 17
14 15 17
14 15 17
14 15 17
14 15 17
14 15 17
14 15 17
14 15 17
14 15 17
14 15 17
14 15 17
14 15 17
14 15 17
14 15 17
14 15 17
14 15 17
14 15 17
14 15 17
14 15 17
14 15 17
14 15 17
14 15 17
14 15 17
14 15 17
14 15 17
14 15 17
14 15 17
14 15 17
14 15 17
14 15 17
14 15 17
14 15 17
14 15 17
14 15 17
14 15 17
14 15 17
14 15 17
14 15 17
14 15 17
14 15 17
14 15 17
14 15 17
14 15 17
14 15 17
14 15 17
14 15 17
14 15 17
14 15 17
14 15 17
14 15 17
14 15 17
14 15 17
14 15 17
14 15 17
14 15 17
14 15 17
14 15 17
14 15 17
14 15 17
14 15 17
14 15 17
14 15 17
14 15 17
14 15 17
14 15 17
14 15 17
14 15 17
14 15 17
14 15 17
14 15 17
14 15 17
14 15 17
14 15 17
14 15 17
14 15 17
14 15 17
14 15 17
14 14 17
14 14 17
14 14 17
14 14 17
14 14 17
14 14 17
14 14 17
14 14 17
14 14 17
14 14 17
14 14 17
14 14 17
14 14 17
14 14 17
14 14 17
14 14 17
14 14 17
14 14 17
14 14 17
14 14 17
14 14 17
14 14 17
14 14 17
14 14 17
14 14 17
14 14 17
14 14 17
14 14 17
14 14 17
14 14 17
14 14 17
14 14 17
14 14 17
14 14 17
14 14 17
14 14 17
14 14 17
14 14 17
14 14 17
14 14 17
14 14 17
14 14 17
14 14 17
14 14 17
14 14 17
14 14 17
14 15 18
14 15 18
14 15 18
14 15 18
14 15 18
14 15 18
14 15 18
14 15 18
14 15 18
14 15 18
14 15 18
14 15 18
15 15 18
15 15 18
15 15 18
15 15 18
15 15 18
15 15 18
15 15 18
15 15 18
15 15 18
15 15 18
15 15 18
15 15 18
15 15 18
15 15 18
15 15 18
15 15 18
15 15 18
15 15 18
15 15 18
15 15 18
15 15 18
15 15 18
15 15 18
15 15 18
15 15 18
15 15 18
15 15 18
15 15 18
15 15 18
15 15 18
15 15 18
15 15 18
15 15 18
15 15 18
15 15 18
15 15 18
15 15 18
15 15 18
15 15 18
15 15 18
15 15 18
15 15 18
15 15 18
15 15 18
15 15 18
15 15 18
15 15 18
15 15 18
15 15 18
15 15 18
15 15 18
15 15 18
15 15 18
15 15 18
15 15 18
15 15 18
15 15 18
15 15 18
15 15 18
15 15 18
15 15 18
15 15 18
15 16 18
15 16 18
15 16 18
15 16 18
15 16 18
15 16 18
15 16 18
15 16 18
15 16 18
15 16 18
15 16 18
15 16 18
15 16 18
15 16 18
15 16 18
15 16 18
15 16 18
15 16 18
15 16 18
15 16 18
15 16 18
15 16 18
15 16 18
15 16 18
15 16 18
15 16 18
15 16 18
15 16 18
15 16 18
15 16 18
15 16 18
15 16 18
15 16 18
15 16 18
15 16 18
15 16 18
15 16 18
15 16 18
15 16 18
15 16 18
15 16 18
15 16 18
15 16 18
15 16 18
15 16 18
15 15 18
15 15 18
15 15 18
15 15 18
15 15 18
15 15 18
15 15 18
15 15 18
15 15 18
15 15 18
15 15 18
15 15 18
15 15 18
15 15 18
15 15 18
15 15 18
15 15 18
15 15 18
15 15 18
15 15 18
15 15 18
15 15 18
15 15 18
15 15 18
15 15 18
15 15 18
15 15 18
15 15 18
15 15 18
15 15 18
15 15 18
15 15 18
15 15 18
15 15 18
15 15 18
15 15 18
15 15 18
15 15 18
15 15 18
15 15 18
15 15 18
15 15 18
15 15 18
15 15 18
15 15 18
15 15 18
15 15 18
15 15 18
15 15 18
15 15 18
15 15 18
15 15 18
15 15 18
15 15 18
15 15 18
15 15 18
15 15 18
15 15 18
15 15 18
15 15 18
15 15 18
15 15 18
14 15 18
14 15 18
14 15 18
14 15 18
14 15 18
14 15 18
14 15 18
14 15 18
14 15 18
14 15 18
14 15 18
14 15 18
14 15 18
14 15 18
14 15 18
14 15 18
14 15 18
14 15 18
14 15 18
15 16 19
15 16 19
15 16 19
15 16 19
15 16 19
15 16 19
15 16 19
15 16 19
15 16 19
15 16 19
15 16 19
15 16 19
15 16 19
15 16 19
15 16 19
15 16 19
15 16 19
15 16 19
15 16 19
15 16 19
15 16 19
15 16 19
15 16 19
15 16 19
15 16 19
15 16 19
15 16 19
15 16 19
15 16 19
15 16 19
15 16 19
15 16 19
16 16 19
16 16 19
16 16 19
16 16 19
16 16 19
16 16 19
16 16 19
16 16 19
16 16 19
16 16 19
16 16 19
16 16 19
16 16 19
16 16 19
16 16 19
16 16 19
16 16 19
16 16 19
16 16 19
16 16 19
16 16 19
16 16 19
16 16 19
16 16 19
16 16 19
16 16 19
16 16 19
16 16 19
16 16 19
16 16 19
16 16 19
16 16 19
16 16 19
16 16 19
16 16 19
16 16 19
16 16 19
16 16 19
16 16 19
16 16 19
16 16 19
16 16 19
16 16 19
16 16 19
16 16 19
16 16 19
16 16 19
16 16 19
16 16 19
16 16 19
16 16 19
16 16 19
16 16 19
16 16 19
16 16 19
16 16 19
16 16 19
16 16 19
16 16 19
16 16 19
16 16 19
16 16 19
16 16 19
16 16 19
16 16 19
16 16 19
16 16 19
16 16 19
16 16 19
16 16 19
16 16 19
16 16 19
16 16 19
16 16 19
16 16 19
16 16 19
16 16 19
16 16 19
16 16 19
16 16 19
16 16 19
16 16 19
16 16 19
16 16 19
16 16 19
16 16 19
16 16 19
16 16 19
16 16 19
16 16 19
16 16 19
16 16 19
16 16 19
16 16 19
16 16 19
16 16 19
16 16 19
16 16 19
16 16 19
16 16 19
16 16 19
16 16 19
16 16 19
16 16 19
16 16 19
16 16 19
16 16 19
16 16 19
16 16 19
16 16 19
16 16 19
16 16 19
16 16 19
16 16 19
16 16 19
16 16 19
16 16 19
16 16 19
16 16 19
16 16 19
16 16 19
16 16 19
16 16 19
16 16 19
16 16 19
16 16 19
16 16 19
15 16 19
15 16 19
15 16 19
15 16 19
15 16 19
15 16 19
15 16 19
15 16 19
15 16 19
15 16 19
15 16 19
15 16 19
15 16 19
15 16 19
15 16 19
15 16 19
15 16 19
15 16 19
15 16 19
15 16 19
15 16 19
15 16 19
15 16 19
15 16 19
15 16 19
15 16 19
15 16 19
15 16 19
15 16 19
15 16 19
15 16 19
15 16 19
15 16 19
15 16 19
15 16 19
15 16 19
15 16 19
15 16 19
15 16 19
15 16 18
15 16 18
16 17 19
16 17 19
16 17 19
16 17 19
16 17 19
16 17 20
16 17 20
16 17 20
16 17 20
16 17 20
16 17 20
16 17 20
16 17 20
16 17 20
16 17 20
16 17 20
16 17 20
16 17 20
16 17 20
16 17 20
16 17 20
16 17 20
16 17 20
16 17 20
16 17 20
16 17 20
16 17 20
16 17 20
16 17 20
16 17 20
16 17 20
16 17 20
16 17 20
16 17 20
16 17 20
16 17 20
16 17 20
16 17 20
16 17 20
16 17 20
16 17 20
16 17 20
16 17 20
16 17 20
17 17 20
17 17 20
17 17 20
17 17 20
17 17 20
17 17 20
17 17 20
17 17 20
17 17 20
17 17 20
17 17 20
17 17 20
17 17 20
17 17 20
17 17 20
17 17 20
17 17 20
17 17 20
17 17 20
17 17 20
17 17 20
17 17 20
17 17 20
17 17 20
17 17 20
17 17 20
17 17 20
17 17 20
17 17 20
17 17 20
17 17 20
17 17 20
17 17 20
17 17 20
17 17 20
17 17 20
17 17 20
17 17 20
17 17 20
17 17 20
17 17 20
17 17 20
17 17 20
17 17 20
17 17 20
17 17 20
17 17 20
17 17 20
17 17 20
17 17 20
17 17 20
17 17 20
17 17 20
17 17 20
17 17 20
17 17 20
17 17 20
17 17 20
17 17 20
17 17 20
17 17 20
17 17 20
17 17 20
17 17 20
17 17 20
17 17 20
17 17 20
17 17 20
17 17 20
17 17 20
17 17 20
17 17 20
17 17 20
17 17 20
17 17 20
17 17 20
17 17 20
17 17 20
17 17 20
17 17 20
17 17 20
17 17 20
17 17 20
17 17 20
17 17 20
17 17 20
17 17 20
17 17 20
17 17 20
17 17 20
17 17 20
17 17 20
17 17 20
17 17 20
17 17 20
17 17 20
17 17 20
17 17 20
17 17 20
17 17 20
17 17 20
16 17 20
16 17 20
16 17 20
16 17 20
16 17 20
16 17 20
16 17 20
16 17 20
16 17 20
16 17 20
16 17 20
16 17 20
16 17 20
16 17 20
16 17 20
16 17 20
16 17 20
16 17 20
16 17 20
16 17 20
16 17 20
16 17 20
16 17 20
16 17 20
16 17 20
16 17 20
16 17 20
16 17 20
16 17 20
16 17 20
16 17 20
16 17 20
16 17 20
16 17 20
16 17 20
16 17 20
16 17 20
16 17 20
16 17 20
16 17 19
16 17 19
16 17 19
16 17 19
16 17 19
16 17 19
16 17 19
16 17 19
16 17 19
16 17 19
16 17 19
16 17 19
16 16 19
16 16 19
16 16 19
16 16 19
17 17 20
17 17 20
17 17 20
17 17 20
17 17 20
17 17 20
17 17 20
17 18 20
17 18 20
17 18 20
17 18 20
17 18 20
17 18 21
17 18 21
17 18 21
17 18 21
17 18 21
17 18 21
17 18 21
17 18 21
17 18 21
17 18 21
17 18 21
17 18 21
17 18 21
17 18 21
17 18 21
17 18 21
17 18 21
17 18 21
17 18 21
17 18 21
17 18 21
17 18 21
17 18 21
17 18 21
17 18 21
17 18 21
17 18 21
17 18 21
17 18 21
17 18 21
17 18 21
17 18 21
17 18 21
17 18 21
17 18 21
17 18 21
17 18 21
17 18 21
17 18 21
17 18 21
18 18 21
18 18 21
18 18 21
18 18 21
18 18 21
18 18 21
18 18 21
18 18 21
18 18 21
18 18 21
18 18 21
18 18 21
18 18 21
18 18 21
18 18 21
18 18 21
18 18 21
18 18 21
18 18 21
18 18 21
18 18 21
18 18 21
18 18 21
18 18 21
18 18 21
18 18 21
18 18 21
18 18 21
18 18 21
18 18 21
18 18 21
18 18 21
18 18 21
18 18 21
18 18 21
18 18 21
18 18 21
18 18 21
18 18 21
18 18 21
18 18 21
18 18 21
18 18 21
18 18 21
18 18 21
18 18 21
18 18 21
18 18 21
18 18 21
18 18 21
18 18 21
18 18 21
18 18 21
18 18 21
18 18 21
18 18 21
18 18 21
18 18 21
18 18 21
18 18 21
18 18 21
20 66 78
18 18 21
18 18 21
18 18 21
18 18 21
18 18 21
18 18 21
18 18 21
18 18 21
18 18 21
18 18 21
18 18 21
18 18 21
18 18 21
18 18 21
18 18 21
18 18 21
18 18 21
18 18 21
18 18 21
18 18 21
18 18 21
17 18 21
17 18 21
17 18 21
17 18 21
17 18 21
17 18 21
17 18 21
17 18 21
17 18 21
17 18 21
17 18 21
17 18 21
17 18 21
17 18 21
17 18 21
17 18 21
17 18 21
17 18 21
17 18 21
17 18 21
17 18 21
17 18 21
17 18 21
17 18 21
17 18 21
17 18 21
17 18 21
17 18 21
17 18 21
17 18 21
17 18 21
17 18 21
17 18 21
17 18 21
17 18 21
17 18 21
17 18 21
17 18 21
17 18 21
17 18 21
17 18 21
17 18 20
17 18 20
17 18 20
17 18 20
17 17 20
17 17 20
17 17 20
17 17 20
17 17 20
17 17 20
17 17 20
17 17 20
17 17 20
17 17 20
17 17 20
17 17 20
17 17 20
17 17 20
17 17 20
17 17 20
17 17 20
17 17 20
17 17 20
17 17 20
18 18 21
18 18 21
18 18 21
18 18 21
18 18 21
18 18 21
18 18 21
18 18 21
18 18 21
18 18 21
18 18 21
18 18 21
18 18 21
18 18 21
18 18 21
18 18 21
18 18 22
18 19 22
18 19 22
18 19 22
18 19 22
18 19 22
18 19 22
18 19 22
18 19 22
18 19 22
18 19 22
18 19 22
18 19 22
18 19 22
18 19 22
18 19 22
18 19 22
18 19 22
18 19 22
18 19 22
18 19 22
18 19 22
18 19 22
18 19 22
18 19 22
18 19 22
18 19 22
18 19 22
18 19 22
18 19 22
18 19 22
18 19 22
18 19 22
18 19 22
18 19 22
18 19 22
18 19 22
18 19 22
18 19 22
18 19 22
18 19 22
19 19 22
19 19 22
19 19 22
19 19 22
19 19 22
19 19 22
19 19 22
19 19 22
19 19 22
19 19 22
19 19 22
19 19 22
19 19 22
19 19 22
19 19 22
19 19 22
19 19 22
19 19 22
19 19 22
19 19 22
19 19 22
19 19 22
19 19 22
19 19 22
19 19 22
19 19 22
19 19 22
19 19 22
19 19 22
19 19 22
23 77 90
23 77 90
23 77 90
23 77 90
23 76 89
23 76 89
23 76 89
23 76 89
23 76 89
23 76 89
23 76 89
23 76 88
23 75 88
23 75 88
23 75 88
22 75 88
22 75 88
22 75 87
22 75 87
22 74 87
22 74 87
22 74 87
22 74 87
22 74 86
22 74 86
22 73 86
22 73 86
22 73 86
22 73 85
22 73 85
22 73 85
19 19 22
19 19 22
19 19 22
19 19 22
19 19 22
19 19 22
19 19 22
19 19 22
19 19 22
19 19 22
18 19 22
18 19 22
18 19 22
18 19 22
18 19 22
18 19 22
18 19 22
18 19 22
18 19 22
18 19 22
18 19 22
18 19 22
18 19 22
18 19 22
18 19 22
18 19 22
18 19 22
18 19 22
18 19 22
18 19 22
18 19 22
18 19 22
18 19 22
18 19 22
18 19 22
18 19 22
18 19 22
18 19 22
18 19 22
18 19 22
18 19 22
18 19 22
18 19 22
18 19 22
18 19 22
18 19 22
18 19 22
18 19 22
18 19 22
18 19 22
18 19 22
18 18 22
18 18 21
18 18 21
18 18 21
18 18 21
18 18 21
18 18 21
18 18 21
18 18 21
18 18 21
18 18 21
18 18 21
18 18 21
18 18 21
18 18 21
18 18 21
18 18 21
18 18 21
18 18 21
18 18 21
18 18 21
18 18 21
18 18 21
17 18 21
17 18 21
17 18 21
17 18 21
17 18 21
17 18 21
17 18 21
17 18 21
18 19 22
18 19 22
19 19 22
19 19 22
19 19 22
19 19 22
19 19 22
19 19 22
19 19 22
19 19 22
19 19 22
19 19 22
19 19 22
19 19 22
19 19 22
19 19 22
19 19 22
19 19 22
19 19 23
19 19 23
19 19 23
19 19 23
19 19 23
19 20 23
19 20 23
19 20 23
19 20 23
19 20 23
19 20 23
19 20 23
19 20 23
19 20 23
19 20 23
19 20 23
19 20 23
19 20 23
19 20 23
19 20 23
19 20 23
19 20 23
19 20 23
19 20 23
19 20 23
19 20 23
19 20 23
19 20 23
19 20 23
19 20 23
19 20 23
19 20 23
19 20 23
19 20 23
19 20 23
19 20 23
19 20 23
19 20 23
19 20 23
19 20 23
19 20 23
19 20 23
20 20 23
20 20 23
20 20 23
20 20 23
20 20 23
20 20 23
20 20 23
20 20 23
20 20 23
20 20 23
20 20 23
20 20 23
20 20 23
20 20 23
20 20 23
20 20 23
20 20 23
20 20 23
20 20 23
20 20 23
20 20 23
20 20 23
20 20 23
20 20 23
20 20 23
20 20 23
20 20 23
27 93 108
27 93 108
27 93 107
27 92 107
27 92 107
27 92 107
27 92 106
27 92 106
26 91 106
26 91 106
26 91 105
26 91 105
26 90 105
26 90 105
26 90 104
26 90 104
26 90 104
26 89 104
26 89 103
26 89 103
26 89 103
26 88 103
26 88 102
25 88 102
25 88 102
25 87 101
25 87 101
25 87 101
25 87 101
25 86 100
25 86 100
25 86 100
25 86 99
20 20 23
20 20 23
20 20 23
20 20 23
19 20 23
19 20 23
19 20 23
19 20 23
19 20 23
19 20 23
19 20 23
19 20 23
19 20 23
19 20 23
19 20 23
19 20 23
19 20 23
19 20 23
19 20 23
19 20 23
19 20 23
19 20 23
19 20 23
19 20 23
19 20 23
19 20 23
19 20 23
19 20 23
19 20 23
19 20 23
19 20 23
19 20 23
19 20 23
19 20 23
19 20 23
19 20 23
19 20 23
19 20 23
19 20 23
19 20 23
19 19 23
19 19 23
19 19 23
19 19 23
19 19 23
19 19 23
19 19 22
19 19 22
19 19 22
19 19 22
19 19 22
19 19 22
19 19 22
19 19 22
19 19 22
19 19 22
19 19 22
19 19 22
19 19 22
19 19 22
19 19 22
18 19 22
18 19 22
18 19 22
18 19 22
18 19 22
18 19 22
18 19 22
18 19 22
18 19 22
18 19 22
18 19 22
18 19 22
18 19 22
18 19 22
18 19 22
18 19 22
18 19 22
18 19 22
18 19 22
19 20 23
19 20 23
19 20 23
19 20 23
19 20 23
19 20 23
19 20 23
19 20 23
20 20 23
20 20 23
20 20 23
20 20 23
20 20 23
20 20 23
20 20 23
20 20 23
20 20 23
20 20 23
20 20 23
20 20 24
20 20 24
20 20 24
20 20 24
20 20 24
20 20 24
20 20 24
20 20 24
20 21 24
20 21 24
20 21 24
20 21 24
20 21 24
20 21 24
20 21 24
20 21 24
20 21 24
20 21 24
20 21 24
20 21 24
20 21 24
20 21 24
20 21 24
20 21 24
20 21 24
20 21 24
20 21 24
20 21 24
20 21 24
20 21 24
20 21 24
20 21 24
20 21 24
20 21 24
20 21 24
20 21 24
20 21 24
20 21 24
20 21 24
20 21 24
20 21 24
21 21 24
21 21 24
21 21 24
21 21 24
21 21 24
21 21 24
21 21 24
21 21 24
21 21 24
21 21 24
21 21 24
21 21 24
21 21 24
21 21 24
21 21 24
21 21 24
21 21 24
21 21 24
21 21 24
21 21 24
21 21 24
21 21 24
21 21 24
21 21 24
21 21 25
21 21 25
21 21 25
27 93 107
27 92 107
27 92 107
27 92 107
27 92 107
27 92 106
27 91 106
27 91 106
26 91 106
26 91 105
26 91 105
26 90 105
26 90 105
26 90 104
26 90 104
26 90 104
26 89 104
26 89 103
26 89 103
26 89 103
26 88 103
26 88 102
26 88 102
25 88 102
25 87 101
25 87 101
25 87 101
25 87 101
25 86 100
25 86 100
25 86 100
25 86 99
25 85 99
21 21 24
21 21 24
20 21 24
20 21 24
20 21 24
20 21 24
20 21 24
20 21 24
20 21 24
20 21 24
20 21 24
20 21 24
20 21 24
20 21 24
20 21 24
20 21 24
20 21 24
20 21 24
20 21 24
20 21 24
20 21 24
20 21 24
20 21 24
20 21 24
20 21 24
20 21 24
20 21 24
20 21 24
20 21 24
20 21 24
20 21 24
20 21 24
20 21 24
20 21 24
20 20 24
20 20 24
20 20 24
20 20 24
20 20 24
20 20 24
20 20 24
20 20 24
20 20 24
20 20 23
20 20 23
20 20 23
20 20 23
20 20 23
20 20 23
20 20 23
20 20 23
20 20 23
20 20 23
20 20 23
19 20 23
19 20 23
19 20 23
19 20 23
19 20 23
19 20 23
19 20 23
19 20 23
19 20 23
19 20 23
19 20 23
19 20 23
19 20 23
19 20 23
19 20 23
19 20 23
19 20 23
19 20 23
19 20 23
19 20 23
19 20 23
19 20 23
19 20 23
19 20 23
19 19 23
19 19 23
20 21 24
20 21 24
20 21 24
20 21 24
20 21 24
20 21 24
20 21 24
20 21 24
20 21 24
20 21 24
20 21 24
20 21 24
21 21 24
21 21 24
21 21 24
21 21 24
21 21 24
21 21 24
21 21 24
21 21 25
21 21 25
21 21 25
21 21 25
21 21 25
21 21 25
21 21 25
21 21 25
21 21 25
21 21 25
21 21 25
21 22 25
21 22 25
21 22 25
21 22 25
21 22 25
21 22 25
21 22 25
21 22 25
21 22 25
21 22 25
21 22 25
21 22 25
21 22 25
21 22 25
21 22 25
21 22 25
21 22 25
21 22 25
21 22 25
21 22 25
21 22 25
21 22 25
21 22 25
21 22 25
21 22 25
21 22 25
21 22 25
21 22 25
21 22 25
22 22 25
22 22 25
22 22 25
22 22 25
22 22 25
22 22 25
22 22 25
22 22 25
22 22 25
22 22 25
22 22 26
22 22 26
22 22 26
22 22 26
22 22 26
22 22 26
22 22 26
22 22 26
22 22 26
22 22 26
22 22 26
22 22 26
22 22 26
22 22 26
22 22 26
22 22 26
22 22 26
22 22 26
27 92 107
27 92 107
27 92 107
27 92 106
27 92 106
27 91 106
27 91 106
26 91 106
26 91 105
26 91 105
26 90 105
26 90 105
26 90 104
26 90 104
26 89 104
26 89 104
26 89 103
26 89 103
26 89 103
26 88 103
26 88 102
26 88 102
26 88 102
25 87 101
25 87 101
25 87 101
25 87 101
25 86 100
25 86 100
25 86 100
25 86 99
25 85 99
25 85 99
22 22 25
21 22 25
21 22 25
21 22 25
21 22 25
21 22 25
21 22 25
21 22 25
21 22 25
21 22 25
21 22 25
21 22 25
21 22 25
21 22 25
21 22 25
21 22 25
21 22 25
21 22 25
21 22 25
21 22 25
21 22 25
21 22 25
21 22 25
21 22 25
21 22 25
21 22 25
21 22 25
21 22 25
21 22 25
21 22 25
21 21 25
21 21 25
21 21 25
21 21 25
21 21 25
21 21 25
21 21 25
21 21 25
21 21 25
21 21 25
21 21 25
21 21 24
21 21 24
21 21 24
21 21 24
21 21 24
21 21 24
21 21 24
20 21 24
20 21 24
20 21 24
20 21 24
20 21 24
20 21 24
20 21 24
20 21 24
20 21 24
20 21 24
20 21 24
20 21 24
20 21 24
20 21 24
20 21 24
20 21 24
20 21 24
20 21 24
20 21 24
20 21 24
20 21 24
20 20 24
20 20 24
20 20 24
20 20 24
20 20 24
20 20 24
20 20 24
20 20 23
20 20 23
20 20 23
20 20 23
21 22 25
21 22 25
21 22 25
21 22 25
21 22 25
21 22 25
21 22 25
21 22 25
21 22 25
21 22 25
21 22 25
21 22 25
21 22 25
21 22 25
22 22 25
22 22 25
22 22 25
22 22 25
22 22 25
22 22 26
22 22 26
22 22 26
22 22 26
22 22 26
22 22 26
22 22 26
22 22 26
22 22 26
22 22 26
22 22 26
22 22 26
22 22 26
22 23 26
22 23 26
22 23 26
22 23 26
22 23 26
22 23 26
22 23 26
22 23 26
22 23 26
22 23 26
22 23 26
22 23 26
22 23 26
22 23 26
22 23 26
22 23 26
22 23 26
22 23 26
22 23 26
22 23 26
22 23 26
22 23 26
22 23 26
22 23 26
22 23 26
23 23 26
23 23 26
23 23 26
23 23 27
23 23 27
23 23 27
23 23 27
23 23 27
23 23 27
23 23 27
23 23 27
23 23 27
23 23 27
23 23 27
23 23 27
23 23 27
23 23 27
23 23 27
23 23 27
23 23 27
23 23 27
23 23 27
23 23 27
23 23 27
23 23 27
23 23 27
23 23 27
23 23 27
23 23 27
23 23 27
27 92 107
27 92 106
27 92 106
27 91 106
27 91 106
27 91 106
27 91 105
26 91 105
26 90 105
26 90 105
26 90 105
26 90 104
26 90 104
26 89 104
26 89 104
26 89 103
26 89 103
26 89 103
26 88 103
26 88 102
26 88 102
26 88 102
25 87 101
25 87 101
25 87 101
25 87 101
25 86 100
25 86 100
25 86 100
25 86 99
25 85 99
25 85 99
25 85 99
22 23 26
22 23 26
22 23 26
22 23 26
22 23 26
22 23 26
22 23 26
22 23 26
22 23 26
22 23 26
22 23 26
22 23 26
22 23 26
22 23 26
22 23 26
22 23 26
22 23 26
22 23 26
22 23 26
22 23 26
22 23 26
22 23 26
22 23 26
22 23 26
22 23 26
22 23 26
22 22 26
22 22 26
22 22 26
22 22 26
22 22 26
22 22 26
22 22 26
22 22 26
22 22 26
22 22 26
22 22 26
22 22 26
22 22 26
22 22 25
22 22 25
22 22 25
22 22 25
21 22 25
21 22 25
21 22 25
21 22 25
21 22 25
21 22 25
21 22 25
21 22 25
21 22 25
21 22 25
21 22 25
21 22 25
21 22 25
21 22 25
21 22 25
21 22 25
21 22 25
21 22 25
21 22 25
21 21 25
21 21 25
21 21 25
21 21 25
21 21 25
21 21 25
21 21 25
21 21 25
21 21 25
21 21 24
21 21 24
21 21 24
21 21 24
21 21 24
21 21 24
20 21 24
20 21 24
20 21 24
22 23 26
22 23 26
22 23 26
22 23 26
22 23 26
22 23 26
22 23 26
22 23 26
22 23 26
22 23 26
22 23 26
22 23 26
22 23 26
22 23 26
22 23 26
22 23 26
23 23 26
23 23 26
23 23 27
23 23 27
23 23 27
23 23 27
23 23 27
23 23 27
23 23 27
23 23 27
23 23 27
23 23 27
23 23 27
23 23 27
23 23 27
23 23 27
23 24 27
23 24 27
23 24 27
23 24 27
23 24 27
23 24 27
23 24 27
23 24 27
23 24 27
23 24 27
23 24 27
23 24 27
23 24 27
23 24 27
23 24 27
23 24 27
23 24 27
23 24 27
23 24 27
23 24 27
23 24 27
23 24 27
23 24 28
24 24 28
24 24 28
24 24 28
24 24 28
24 24 28
24 24 28
24 24 28
24 24 28
24 24 28
24 24 28
24 24 28
24 24 28
24 24 28
24 24 28
24 24 28
24 24 28
24 24 28
24 24 28
24 24 28
24 24 28
24 24 28
24 24 28
24 24 28
24 24 28
24 24 28
24 24 28
24 24 28
24 24 28
24 24 28
24 24 28
24 24 28
24 24 28
27 92 106
27 92 106
27 91 106
27 91 106
27 91 106
27 91 105
27 91 105
26 90 105
26 90 105
26 90 104
26 90 104
26 90 104
26 89 104
26 89 103
26 89 103
26 89 103
26 89 103
26 88 102
26 88 102
26 88 102
26 88 102
26 87 101
25 87 101
25 87 101
25 87 101
25 86 100
25 86 100
25 86 100
25 86 100
25 85 99
25 85 99
25 85 99
25 85 98
24 24 28
23 24 28
23 24 27
23 24 27
23 24 27
23 24 27
23 24 27
23 24 27
23 24 27
23 24 27
23 24 27
23 24 27
23 24 27
23 24 27
23 24 27
23 24 27
23 24 27
23 24 27
23 24 27
23 24 27
23 24 27
23 24 27
23 24 27
23 24 27
23 23 27
23 23 27
23 23 27
23 23 27
23 23 27
23 23 27
23 23 27
23 23 27
23 23 27
23 23 27
23 23 27
23 23 27
23 23 27
23 23 27
23 23 26
23 23 26
22 23 26
22 23 26
22 23 26
22 23 26
22 23 26
22 23 26
22 23 26
22 23 26
22 23 26
22 23 26
22 23 26
22 23 26
22 23 26
22 23 26
22 23 26
22 23 26
22 22 26
22 22 26
22 22 26
22 22 26
22 22 26
22 22 26
22 22 26
22 22 26
22 22 26
22 22 26
22 22 26
22 22 25
22 22 25
22 22 25
21 22 25
21 22 25
21 22 25
21 22 25
21 22 25
21 22 25
21 22 25
21 22 25
21 22 25
21 22 25
23 23 27
23 23 27
23 24 27
23 24 27
23 24 27
23 24 27
23 24 27
23 24 27
23 24 27
23 24 27
23 24 27
23 24 27
23 24 27
23 24 27
23 24 27
23 24 27
23 24 27
24 24 28
24 24 28
24 24 28
24 24 28
24 24 28
24 24 28
24 24 28
24 24 28
24 24 28
24 24 28
24 24 28
24 24 28
24 24 28
24 24 28
24 24 28
24 24 28
24 25 28
24 25 28
24 25 28
24 25 28
24 25 28
24 25 28
24 25 28
24 25 28
24 25 28
24 25 28
24 25 28
24 25 28
24 25 28
24 25 28
24 25 28
24 25 29
24 25 29
24 25 29
24 25 29
25 25 29
25 25 29
25 25 29
25 25 29
25 25 29
25 25 29
25 25 29
25 25 29
25 25 29
25 25 29
25 25 29
25 25 29
25 25 29
25 25 29
25 25 29
25 25 29
25 25 29
25 25 29
25 25 29
25 25 29
25 25 29
25 25 29
25 25 29
25 25 29
25 25 29
25 25 29
25 25 29
25 25 29
25 25 29
25 25 29
25 25 29
25 25 29
25 25 29
25 25 29
25 25 29
27 91 106
27 91 106
27 91 106
27 91 105
27 91 105
27 91 105
26 90 105
26 90 105
26 90 104
26 90 104
26 90 104
26 89 104
26 89 103
26 89 103
26 89 103
26 89 103
26 88 102
26 88 102
26 88 102
26 88 102
26 87 101
26 87 101
25 87 101
25 87 101
25 86 100
25 86 100
25 86 100
25 86 100
25 85 99
25 85 99
25 85 99
25 85 98
25 84 98
25 25 29
25 25 29
24 25 29
24 25 29
24 25 29
24 25 29
24 25 28
24 25 28
24 25 28
24 25 28
24 25 28
24 25 28
24 25 28
24 25 28
24 25 28
24 25 28
24 25 28
24 25 28
24 25 28
24 25 28
24 25 28
24 25 28
24 24 28
24 24 28
24 24 28
24 24 28
24 24 28
24 24 28
24 24 28
24 24 28
24 24 28
24 24 28
24 24 28
24 24 28
24 24 28
24 24 28
24 24 28
23 24 28
23 24 27
23 24 27
23 24 27
23 24 27
23 24 27
23 24 27
23 24 27
23 24 27
23 24 27
23 24 27
23 24 27
23 24 27
23 24 27
23 24 27
23 23 27
23 23 27
23 23 27
23 23 27
23 23 27
23 23 27
23 23 27
23 23 27
23 23 27
23 23 27
23 23 27
23 23 27
23 23 26
22 23 26
22 23 26
22 23 26
22 23 26
22 23 26
22 23 26
22 23 26
22 23 26
22 23 26
22 23 26
22 23 26
22 23 26
22 23 26
22 23 26
22 23 26
24 24 28
24 24 28
24 24 28
24 24 28
24 25 28
24 25 28
24 25 28
24 25 28
24 25 28
24 25 28
24 25 28
24 25 28
24 25 28
24 25 28
24 25 28
24 25 29
24 25 29
24 25 29
25 25 29
25 25 29
25 25 29
25 25 29
25 25 29
25 25 29
25 25 29
25 25 29
25 25 29
25 25 29
25 25 29
25 25 29
25 25 29
25 25 29
25 26 29
25 26 29
25 26 29
25 26 29
25 26 29
25 26 29
25 26 29
25 26 29
25 26 29
25 26 29
25 26 29
25 26 30
25 26 30
25 26 30
25 26 30
25 26 30
25 26 30
25 26 30
26 26 30
26 26 30
26 26 30
26 26 30
26 26 30
26 26 30
26 26 30
26 26 30
26 26 30
26 26 30
26 26 30
26 26 30
26 26 30
26 26 30
26 26 30
26 26 30
26 26 30
26 26 30
26 26 30
26 26 30
26 26 30
26 26 30
26 26 30
26 26 30
26 26 30
26 26 30
26 26 30
26 26 30
26 26 30
26 26 30
26 26 30
26 26 30
26 26 30
26 26 30
26 26 30
26 26 30
26 26 30
27 91 106
27 91 106
27 91 105
27 91 105
27 90 105
27 90 105
26 90 105
26 90 104
26 90 104
26 90 104
26 89 104
26 89 103
26 89 103
26 89 103
26 88 103
26 88 102
26 88 102
26 88 102
26 88 102
26 87 101
26 87 101
26 87 101
25 87 101
25 86 100
25 86 100
25 86 100
25 86 100
25 85 99
25 85 99
25 85 99
25 85 98
25 85 98
25 84 98
26 26 30
26 26 30
26 26 30
25 26 30
25 26 30
25 26 30
25 26 30
25 26 30
25 26 30
25 26 29
25 26 29
25 26 29
25 26 29
25 26 29
25 26 29
25 26 29
25 26 29
25 26 29
25 26 29
25 26 29
25 25 29
25 25 29
25 25 29
25 25 29
25 25 29
25 25 29
25 25 29
25 25 29
25 25 29
25 25 29
25 25 29
25 25 29
25 25 29
25 25 29
25 25 29
24 25 29
24 25 29
24 25 28
24 25 28
24 25 28
24 25 28
24 25 28
24 25 28
24 25 28
24 25 28
24 25 28
24 25 28
24 25 28
24 24 28
24 24 28
24 24 28
24 24 28
24 24 28
24 24 28
24 24 28
24 24 28
24 24 28
24 24 28
24 24 28
24 24 28
23 24 28
23 24 27
23 24 27
23 24 27
23 24 27
23 24 27
23 24 27
23 24 27
23 24 27
23 24 27
23 24 27
23 24 27
23 24 27
23 24 27
23 23 27
23 23 27
23 23 27
23 23 27
23 23 27
23 23 27
25 25 29
25 25 29
25 25 29
25 25 29
25 25 29
25 25 29
25 26 29
25 26 29
25 26 29
25 26 29
25 26 29
25 26 29
25 26 29
25 26 29
25 26 30
25 26 30
25 26 30
25 26 30
26 26 30
26 26 30
26 26 30
26 26 30
26 26 30
26 26 30
26 26 30
26 26 30
26 26 30
26 26 30
26 26 30
26 26 30
26 26 30
26 26 30
26 27 30
26 27 30
26 27 30
26 27 30
26 27 30
26 27 30
26 27 30
26 27 31
26 27 31
26 27 31
26 27 31
26 27 31
26 27 31
26 27 31
26 27 31
27 27 31
27 27 31
27 27 31
27 27 31
27 27 31
27 27 31
27 27 31
27 27 31
27 27 31
27 27 31
27 27 31
27 27 31
27 27 31
27 27 31
27 27 31
27 27 31
27 27 31
27 27 31
27 27 31
27 27 31
27 27 31
27 27 31
27 27 31
27 27 31
27 27 31
27 27 31
27 27 31
27 27 31
27 27 31
27 28 31
27 28 31
27 28 31
27 28 31
27 28 31
27 28 31
27 28 31
27 28 31
27 28 31
27 28 31
27 28 31
27 91 105
27 91 105
27 91 105
27 90 105
27 90 105
27 90 104
26 90 104
26 90 104
26 89 104
26 89 104
26 89 103
26 89 103
26 89 103
26 88 103
26 88 102
26 88 102
26 88 102
26 88 102
26 87 101
26 87 101
26 87 101
26 87 101
25 86 100
25 86 100
25 86 100
25 86 100
25 86 99
25 85 99
25 85 99
25 85 98
25 85 98
25 84 98
27 27 31
27 27 31
27 27 31
27 27 31
27 27 31
26 27 31
26 27 31
26 27 31
26 27 31
26 27 31
26 27 31
26 27 31
26 27 30
26 27 30
26 27 30
26 27 30
26 27 30
26 27 30
26 27 30
26 27 30
26 26 30
26 26 30
26 26 30
26 26 30
26 26 30
26 26 30
26 26 30
26 26 30
26 26 30
26 26 30
26 26 30
26 26 30
26 26 30
26 26 30
25 26 30
25 26 30
25 26 30
25 26 30
25 26 29
25 26 29
25 26 29
25 26 29
25 26 29
25 26 29
25 26 29
25 26 29
25 25 29
25 25 29
25 25 29
25 25 29
25 25 29
25 25 29
25 25 29
25 25 29
25 25 29
25 25 29
25 25 29
25 25 29
24 25 29
24 25 29
24 25 28
24 25 28
24 25 28
24 25 28
24 25 28
24 25 28
24 25 28
24 25 28
24 25 28
24 24 28
24 24 28
24 24 28
24 24 28
24 24 28
24 24 28
24 24 28
24 24 28
24 24 28
24 24 28
24 24 28
24 24 28
26 26 30
26 26 30
26 26 30
26 26 30
26 26 30
26 26 30
26 26 30
26 27 30
26 27 30
26 27 30
26 27 30
26 27 30
26 27 31
26 27 31
26 27 31
26 27 31
26 27 31
26 27 31
27 27 31
27 27 31
27 27 31
27 27 31
27 27 31
27 27 31
27 27 31
27 27 31
27 27 31
27 27 31
27 27 31
27 27 31
27 27 31
27 28 31
27 28 31
27 28 31
27 28 31
27 28 32
27 28 32
27 28 32
27 28 32
27 28 32
27 28 32
27 28 32
27 28 32
27 28 32
28 28 32
28 28 32
28 28 32
28 28 32
28 28 32
28 28 32
28 28 32
28 28 32
28 28 32
28 28 32
28 28 32
28 28 32
28 28 32
28 28 32
28 28 32
28 28 32
28 28 32
28 28 32
28 28 32
28 28 32
28 28 32
28 28 32
28 28 32
28 29 32
28 29 32
28 29 32
28 29 32
28 29 32
28 29 32
28 29 32
28 29 32
28 29 33
28 29 33
28 29 33
28 29 33
28 29 33
28 29 33
28 29 33
28 29 33
28 29 33
28 29 33
28 29 33
28 29 33
27 91 105
27 90 105
27 90 105
27 90 105
27 90 104
27 90 104
26 90 104
26 89 104
26 89 103
26 89 103
26 89 103
26 89 103
26 88 103
26 88 102
26 88 102
26 88 102
26 88 102
26 87 101
26 87 101
26 87 101
26 87 101
26 86 100
25 86 100
25 86 100
25 86 100
25 86 99
25 85 99
25 85 99
25 85 99
25 85 98
25 84 98
25 84 98
28 28 32
28 28 32
28 28 32
28 28 32
28 28 32
27 28 32
27 28 32
27 28 32
27 28 32
27 28 32
27 28 32
27 28 32
27 28 32
27 28 32
27 28 31
27 28 31
27 28 31
27 28 31
27 28 31
27 27 31
27 27 31
27 27 31
27 27 31
27 27 31
27 27 31
27 27 31
27 27 31
27 27 31
27 27 31
27 27 31
27 27 31
27 27 31
26 27 31
26 27 31
26 27 31
26 27 31
26 27 31
26 27 30
26 27 30
26 27 30
26 27 30
26 27 30
26 27 30
26 26 30
26 26 30
26 26 30
26 26 30
26 26 30
26 26 30
26 26 30
26 26 30
26 26 30
26 26 30
26 26 30
25 26 30
25 26 30
25 26 30
25 26 30
25 26 29
25 26 29
25 26 29
25 26 29
25 26 29
25 26 29
25 26 29
25 25 29
25 25 29
25 25 29
25 25 29
25 25 29
25 25 29
25 25 29
25 25 29
25 25 29
25 25 29
25 25 29
24 25 29
24 25 29
24 25 28
24 25 28
24 25 28
27 27 31
27 27 31
27 27 31
27 27 31
27 27 31
27 27 31
27 27 31
27 28 31
27 28 31
27 28 31
27 28 31
27 28 32
27 28 32
27 28 32
27 28 32
27 28 32
27 28 32
28 28 32
28 28 32
28 28 32
28 28 32
28 28 32
28 28 32
28 28 32
28 28 32
28 28 32
28 28 32
28 28 32
28 28 32
28 29 32
28 29 32
28 29 33
28 29 33
28 29 33
28 29 33
28 29 33
28 29 33
28 29 33
28 29 33
28 29 33
28 29 33
29 29 33
29 29 33
29 29 33
29 29 33
29 29 33
29 29 33
29 29 33
29 29 33
29 29 33
29 29 33
29 29 33
29 29 33
29 29 33
29 29 33
29 29 33
29 29 33
29 29 33
29 29 33
29 29 33
29 29 33
29 30 34
29 30 34
29 30 34
29 30 34
29 30 34
29 30 34
29 30 34
29 30 34
29 30 34
29 30 34
29 30 34
29 30 34
29 30 34
29 30 34
29 30 34
29 30 34
29 30 34
29 30 34
29 30 34
29 30 34
29 30 34
29 30 34
29 30 34
29 30 34
29 30 34
29 30 34
27 90 105
27 90 105
27 90 104
27 90 104
27 90 104
27 90 104
27 89 104
26 89 103
26 89 103
26 89 103
26 89 103
26 88 103
26 88 102
26 88 102
26 88 102
26 88 102
26 87 101
26 87 101
26 87 101
26 87 101
26 86 100
26 86 100
25 86 100
25 86 100
25 86 99
25 85 99
25 85 99
25 85 99
25 85 98
25 84 98
25 84 98
25 84 97
29 29 33
29 29 33
29 29 33
29 29 33
29 29 33
29 29 33
28 29 33
28 29 33
28 29 33
28 29 33
28 29 33
28 29 33
28 29 33
28 29 33
28 29 33
28 29 33
28 29 32
28 29 32
28 28 32
28 28 32
28 28 32
28 28 32
28 28 32
28 28 32
28 28 32
28 28 32
28 28 32
28 28 32
28 28 32
28 28 32
28 28 32
27 28 32
27 28 32
27 28 32
27 28 32
27 28 32
27 28 32
27 28 31
27 28 31
27 28 31
27 28 31
27 27 31
27 27 31
27 27 31
27 27 31
27 27 31
27 27 31
27 27 31
27 27 31
27 27 31
27 27 31
26 27 31
26 27 31
26 27 31
26 27 31
26 27 31
26 27 30
26 27 30
26 27 30
26 27 30
26 27 30
26 26 30
26 26 30
26 26 30
26 26 30
26 26 30
26 26 30
26 26 30
26 26 30
26 26 30
26 26 30
25 26 30
25 26 30
25 26 30
25 26 30
25 26 29
25 26 29
25 26 29
25 26 29
25 26 29
25 26 29
28 28 32
28 28 32
28 28 32
28 28 32
28 28 32
28 28 32
28 28 32
28 29 32
28 29 32
28 29 33
28 29 33
28 29 33
28 29 33
28 29 33
28 29 33
28 29 33
29 29 33
29 29 33
29 29 33
29 29 33
29 29 33
29 29 33
29 29 33
29 29 33
29 29 33
29 29 33
29 29 33
29 29 33
29 30 34
29 30 34
29 30 34
29 30 34
29 30 34
29 30 34
29 30 34
29 30 34
29 30 34
29 30 34
29 30 34
30 30 34
30 30 34
30 30 34
30 30 34
30 30 34
30 30 34
30 30 34
30 30 34
30 30 34
30 30 34
30 30 34
30 30 34
30 30 34
30 30 34
30 30 34
30 30 35
30 30 35
30 30 35
30 31 35
30 31 35
30 31 35
30 31 35
30 31 35
30 31 35
30 31 35
30 31 35
30 31 35
30 31 35
30 31 35
30 31 35
30 31 35
30 31 35
30 31 35
30 31 35
30 31 35
30 31 35
30 31 35
30 31 35
30 31 35
30 31 35
30 31 35
30 31 35
30 31 35
30 31 35
30 31 35
30 31 35
30 31 35
30 31 35
27 90 105
27 90 104
27 90 104
27 90 104
27 89 104
27 89 104
27 89 103
26 89 103
26 89 103
26 89 103
26 88 102
26 88 102
26 88 102
26 88 102
26 88 102
26 87 101
26 87 101
26 87 101
26 87 101
26 86 100
26 86 100
26 86 100
25 86 100
25 86 99
25 85 99
25 85 99
25 85 99
25 85 98
25 84 98
25 84 98
25 84 98
25 84 97
30 30 34
30 30 34
30 30 34
30 30 34
30 30 34
30 30 34
30 30 34
29 30 34
29 30 34
29 30 34
29 30 34
29 30 34
29 30 34
29 30 34
29 30 34
29 30 34
29 30 34
29 30 34
29 29 33
29 29 33
29 29 33
29 29 33
29 29 33
29 29 33
29 29 33
29 29 33
29 29 33
29 29 33
29 29 33
28 29 33
28 29 33
28 29 33
28 29 33
28 29 33
28 29 33
28 29 33
28 29 33
28 29 32
28 29 32
28 28 32
28 28 32
28 28 32
28 28 32
28 28 32
28 28 32
28 28 32
28 28 32
28 28 32
28 28 32
27 28 32
27 28 32
27 28 32
27 28 32
27 28 32
27 28 32
27 28 31
27 28 31
27 28 31
27 27 31
27 27 31
27 27 31
27 27 31
27 27 31
27 27 31
27 27 31
27 27 31
27 27 31
27 27 31
26 27 31
26 27 31
26 27 31
26 27 31
26 27 30
26 27 30
26 27 30
26 27 30
26 27 30
26 26 30
26 26 30
26 26 30
26 26 30
29 29 33
29 29 33
29 29 33
29 29 33
29 29 33
29 29 33
29 29 33
29 30 34
29 30 34
29 30 34
29 30 34
29 30 34
29 30 34
29 30 34
29 30 34
29 30 34
30 30 34
30 30 34
30 30 34
30 30 34
30 30 34
30 30 34
30 30 34
30 30 34
30 30 34
30 30 35
30 30 35
30 31 35
30 31 35
30 31 35
30 31 35
30 31 35
30 31 35
30 31 35
30 31 35
30 31 35
30 31 35
31 31 35
31 31 35
31 31 35
31 31 35
31 31 35
31 31 35
31 31 35
31 31 35
31 31 35
31 31 35
31 31 36
31 31 36
31 31 36
31 31 36
31 31 36
31 31 36
31 32 36
31 32 36
31 32 36
31 32 36
31 32 36
31 32 36
31 32 36
31 32 36
31 32 36
31 32 36
31 32 36
31 32 36
31 32 36
31 32 36
31 32 36
31 32 36
31 32 36
31 32 36
31 32 36
31 32 36
31 32 36
31 32 36
32 32 36
32 32 36
32 32 36
32 32 36
32 32 36
32 32 36
32 32 36
32 32 36
32 32 36
32 32 36
32 32 36
32 32 36
27 90 104
27 90 104
27 90 104
27 89 104
27 89 103
27 89 103
27 89 103
26 89 103
26 88 103
26 88 102
26 88 102
26 88 102
26 88 102
26 88 102
26 87 101
26 87 101
26 87 101
26 87 101
26 86 100
26 86 100
26 86 100
26 86 100
25 86 99
25 85 99
25 85 99
25 85 99
25 85 98
25 84 98
25 84 98
25 84 98
25 84 97
25 83 97
31 31 35
31 31 35
31 31 35
31 31 35
31 31 35
31 31 35
31 31 35
30 31 35
30 31 35
30 31 35
30 31 35
30 31 35
30 31 35
30 31 35
30 31 35
30 31 35
30 31 35
30 30 35
30 30 35
30 30 34
30 30 34
30 30 34
30 30 34
30 30 34
30 30 34
30 30 34
30 30 34
30 30 34
29 30 34
29 30 34
29 30 34
29 30 34
29 30 34
29 30 34
29 30 34
29 30 34
29 30 34
29 29 33
29 29 33
29 29 33
29 29 33
29 29 33
29 29 33
29 29 33
29 29 33
29 29 33
29 29 33
28 29 33
28 29 33
28 29 33
28 29 33
28 29 33
28 29 33
28 29 32
28 29 32
28 28 32
28 28 32
28 28 32
28 28 32
28 28 32
28 28 32
28 28 32
28 28 32
28 28 32
27 28 32
27 28 32
27 28 32
27 28 32
27 28 32
27 28 32
27 28 31
27 28 31
27 27 31
27 27 31
27 27 31
27 27 31
27 27 31
27 27 31
27 27 31
27 27 31
27 27 31
30 30 34
30 30 34
30 30 34
30 30 34
30 30 34
30 30 34
30 30 35
30 31 35
30 31 35
30 31 35
30 31 35
30 31 35
30 31 35
30 31 35
30 31 35
31 31 35
31 31 35
31 31 35
31 31 35
31 31 35
31 31 35
31 31 35
31 31 36
31 31 36
31 31 36
31 31 36
31 32 36
31 32 36
31 32 36
31 32 36
31 32 36
31 32 36
31 32 36
31 32 36
32 32 36
32 32 36
32 32 36
32 32 36
32 32 36
32 32 36
32 32 36
32 32 36
32 32 37
32 32 37
32 32 37
32 32 37
32 32 37
32 32 37
32 32 37
32 33 37
32 33 37
32 33 37
32 33 37
32 33 37
32 33 37
32 33 37
32 33 37
32 33 37
32 33 37
32 33 37
32 33 37
32 33 37
32 33 37
32 33 37
33 33 37
33 33 37
33 33 37
33 33 37
33 33 37
33 33 37
33 33 37
33 33 37
33 33 37
33 33 37
33 33 37
33 33 37
33 33 37
33 33 37
33 33 37
33 33 37
33 33 37
33 33 37
33 33 37
33 33 37
33 33 37
33 33 37
33 33 37
27 90 104
27 89 104
27 89 104
27 89 103
27 89 103
27 89 103
27 89 103
26 88 103
26 88 102
26 88 102
26 88 102
26 88 102
26 87 101
26 87 101
26 87 101
26 87 101
26 87 101
26 86 100
26 86 100
26 86 100
26 86 100
26 86 99
25 85 99
25 85 99
25 85 99
25 85 98
25 84 98
25 84 98
25 84 98
25 84 97
25 84 97
25 83 97
32 32 36
32 32 36
32 32 36
32 32 36
32 32 36
32 32 36
32 32 36
32 32 36
31 32 36
31 32 36
31 32 36
31 32 36
31 32 36
31 32 36
31 32 36
31 32 36
31 31 36
31 31 36
31 31 36
31 31 36
31 31 35
31 31 35
31 31 35
31 31 35
31 31 35
31 31 35
31 31 35
30 31 35
30 31 35
30 31 35
30 31 35
30 31 35
30 31 35
30 31 35
30 31 35
30 30 35
30 30 34
30 30 34
30 30 34
30 30 34
30 30 34
30 30 34
30 30 34
30 30 34
29 30 34
29 30 34
29 30 34
29 30 34
29 30 34
29 30 34
29 30 34
29 30 34
29 29 33
29 29 33
29 29 33
29 29 33
29 29 33
29 29 33
29 29 33
29 29 33
29 29 33
28 29 33
28 29 33
28 29 33
28 29 33
28 29 33
28 29 33
28 29 32
28 29 32
28 28 32
28 28 32
28 28 32
28 28 32
28 28 32
28 28 32
28 28 32
28 28 32
28 28 32
27 28 32
27 28 32
27 28 32
31 31 35
31 31 35
31 31 35
31 31 35
31 31 36
31 31 36
31 31 36
31 32 36
31 32 36
31 32 36
31 32 36
31 32 36
31 32 36
31 32 36
32 32 36
32 32 36
32 32 36
32 32 36
32 32 36
32 32 36
32 32 37
32 32 37
32 32 37
32 32 37
32 33 37
32 33 37
32 33 37
32 33 37
32 33 37
32 33 37
32 33 37
32 33 37
33 33 37
33 33 37
33 33 37
33 33 37
33 33 37
33 33 37
33 33 38
33 33 38
33 33 38
33 33 38
33 33 38
33 33 38
33 33 38
33 33 38
33 34 38
33 34 38
33 34 38
33 34 38
33 34 38
33 34 38
33 34 38
33 34 38
33 34 38
33 34 38
33 34 38
33 34 38
34 34 38
34 34 38
34 34 38
34 34 38
34 34 38
34 34 38
34 34 38
34 34 38
34 34 38
34 34 38
34 34 39
34 34 39
34 34 39
34 34 39
34 34 39
34 34 39
34 34 39
34 34 39
34 34 39
34 34 39
34 34 39
34 34 39
34 34 39
34 34 39
34 34 39
34 34 39
34 34 39
34 34 39
34 34 39
27 89 104
27 89 103
27 89 103
27 89 103
27 89 103
27 89 103
27 88 102
26 88 102
26 88 102
26 88 102
26 88 102
26 87 101
26 87 101
26 87 101
26 87 101
26 87 101
26 86 100
26 86 100
26 86 100
26 86 100
26 86 99
26 85 99
25 85 99
25 85 99
25 85 98
25 84 98
25 84 98
25 84 98
25 84 97
25 84 97
25 83 97
25 83 96
33 33 38
33 33 38
33 33 37
33 33 37
33 33 37
33 33 37
33 33 37
33 33 37
32 33 37
32 33 37
32 33 37
32 33 37
32 33 37
32 33 37
32 33 37
32 33 37
32 32 37
32 32 37
32 32 37
32 32 37
32 32 36
32 32 36
32 32 36
32 32 36
32 32 36
32 32 36
31 32 36
31 32 36
31 32 36
31 32 36
31 32 36
31 32 36
31 32 36
31 31 36
31 31 36
31 31 36
31 31 35
31 31 35
31 31 35
31 31 35
31 31 35
31 31 35
30 31 35
30 31 35
30 31 35
30 31 35
30 31 35
30 31 35
30 31 35
30 30 35
30 30 35
30 30 34
30 30 34
30 30 34
30 30 34
30 30 34
30 30 34
30 30 34
29 30 34
29 30 34
29 30 34
29 30 34
29 30 34
29 30 34
29 30 34
29 29 33
29 29 33
29 29 33
29 29 33
29 29 33
29 29 33
29 29 33
29 29 33
29 29 33
28 29 33
28 29 33
28 29 33
28 29 33
28 29 33
28 29 33
28 29 32
32 32 36
32 32 36
32 32 36
32 32 37
32 32 37
32 32 37
32 32 37
32 33 37
32 33 37
32 33 37
32 33 37
32 33 37
32 33 37
33 33 37
33 33 37
33 33 37
33 33 37
33 33 37
33 33 38
33 33 38
33 33 38
33 33 38
33 33 38
33 34 38
33 34 38
33 34 38
33 34 38
33 34 38
33 34 38
33 34 38
34 34 38
34 34 38
34 34 38
34 34 38
34 34 39
34 34 39
34 34 39
34 34 39
34 34 39
34 34 39
34 34 39
34 34 39
34 34 39
34 35 39
34 35 39
34 35 39
34 35 39
34 35 39
34 35 39
34 35 39
34 35 39
34 35 39
34 35 39
35 35 39
35 35 39
35 35 39
35 35 39
35 35 39
35 35 40
35 35 40
35 35 40
35 35 40
35 35 40
35 35 40
35 35 40
35 35 40
35 35 40
35 35 40
35 35 40
35 35 40
35 35 40
35 35 40
35 35 40
35 35 40
35 35 40
35 35 40
35 35 40
35 35 40
35 35 40
35 35 40
35 35 40
35 35 40
35 35 40
35 35 40
35 35 40
35 35 40
35 35 40
27 89 103
27 89 103
27 89 103
27 89 103
27 88 103
27 88 102
26 88 102
26 88 102
26 88 102
26 88 102
26 87 101
26 87 101
26 87 101
26 87 101
26 87 100
26 86 100
26 86 100
26 86 100
26 86 99
26 86 99
26 85 99
26 85 99
25 85 99
25 85 98
25 84 98
25 84 98
25 84 98
25 84 97
25 84 97
25 83 97
25 83 96
25 83 96
34 34 39
34 34 39
34 34 39
34 34 39
34 34 38
34 34 38
34 34 38
34 34 38
33 34 38
33 34 38
33 34 38
33 34 38
33 34 38
33 34 38
33 34 38
33 33 38
33 33 38
33 33 38
33 33 38
33 33 38
33 33 38
33 33 37
33 33 37
33 33 37
33 33 37
32 33 37
32 33 37
32 33 37
32 33 37
32 33 37
32 33 37
32 33 37
32 32 37
32 32 37
32 32 37
32 32 36
32 32 36
32 32 36
32 32 36
32 32 36
32 32 36
31 32 36
31 32 36
31 32 36
31 32 36
31 32 36
31 32 36
31 31 36
31 31 36
31 31 35
31 31 35
31 31 35
31 31 35
31 31 35
31 31 35
30 31 35
30 31 35
30 31 35
30 31 35
30 31 35
30 31 35
30 31 35
30 30 35
30 30 34
30 30 34
30 30 34
30 30 34
30 30 34
30 30 34
30 30 34
29 30 34
29 30 34
29 30 34
29 30 34
29 30 34
29 30 34
29 30 34
29 29 33
29 29 33
29 29 33
29 29 33
33 33 37
33 33 37
33 33 38
33 33 38
33 33 38
33 33 38
33 34 38
33 34 38
33 34 38
33 34 38
33 34 38
33 34 38
34 34 38
34 34 38
34 34 38
34 34 39
34 34 39
34 34 39
34 34 39
34 34 39
34 34 39
34 34 39
34 35 39
34 35 39
34 35 39
34 35 39
34 35 39
34 35 39
35 35 39
35 35 39
35 35 39
35 35 40
35 35 40
35 35 40
35 35 40
35 35 40
35 35 40
35 35 40
35 35 40
35 35 40
35 35 40
35 36 40
35 36 40
35 36 40
35 36 40
35 36 40
35 36 40
35 36 40
35 36 40
36 36 40
36 36 40
36 36 41
36 36 41
36 36 41
36 36 41
36 36 41
36 36 41
36 36 41
36 36 41
36 36 41
36 36 41
36 36 41
36 36 41
36 36 41
36 36 41
36 36 41
36 36 41
36 36 41
36 36 41
36 36 41
36 36 41
36 36 41
36 36 41
36 36 41
36 36 41
36 36 41
36 36 41
36 36 41
36 36 41
36 36 41
36 36 41
36 36 41
36 36 41
36 36 41
36 36 41
36 36 41
36 36 41
27 89 103
27 89 103
27 88 103
27 88 102
27 88 102
26 88 102
26 88 102
26 88 102
26 87 101
26 87 101
26 87 101
26 87 101
26 87 101
26 86 100
26 86 100
26 86 100
26 86 100
26 86 99
26 85 99
26 85 99
26 85 99
25 85 98
25 85 98
25 84 98
25 84 98
25 84 97
25 84 97
25 83 97
25 83 97
25 83 96
25 83 96
25 83 96
35 35 40
35 35 40
35 35 40
35 35 40
35 35 40
35 35 40
35 35 39
35 35 39
34 35 39
34 35 39
34 35 39
34 35 39
34 35 39
34 35 39
34 34 39
34 34 39
34 34 39
34 34 39
34 34 39
34 34 39
34 34 39
34 34 38
34 34 38
34 34 38
33 34 38
33 34 38
33 34 38
33 34 38
33 34 38
33 34 38
33 33 38
33 33 38
33 33 38
33 33 38
33 33 38
33 33 37
33 33 37
33 33 37
33 33 37
32 33 37
32 33 37
32 33 37
32 33 37
32 33 37
32 33 37
32 32 37
32 32 37
32 32 37
32 32 36
32 32 36
32 32 36
32 32 36
32 32 36
31 32 36
31 32 36
31 32 36
31 32 36
31 32 36
31 32 36
31 31 36
31 31 36
31 31 35
31 31 35
31 31 35
31 31 35
31 31 35
31 31 35
30 31 35
30 31 35
30 31 35
30 31 35
30 31 35
30 31 35
30 30 35
30 30 34
30 30 34
30 30 34
30 30 34
30 30 34
30 30 34
30 30 34
34 34 39
34 34 39
34 34 39
34 34 39
34 34 39
34 34 39
34 35 39
34 35 39
34 35 39
34 35 39
34 35 39
35 35 39
35 35 39
35 35 40
35 35 40
35 35 40
35 35 40
35 35 40
35 35 40
35 35 40
35 35 40
35 36 40
35 36 40
35 36 40
35 36 40
35 36 40
35 36 40
36 36 40
36 36 41
36 36 41
36 36 41
36 36 41
36 36 41
36 36 41
36 36 41
36 36 41
36 36 41
36 36 41
36 37 41
36 37 41
36 37 41
36 37 41
36 37 41
36 37 41
36 37 41
36 37 41
37 37 42
37 37 42
37 37 42
37 37 42
37 37 42
37 37 42
37 37 42
37 37 42
37 37 42
37 37 42
37 37 42
37 37 42
37 37 42
37 37 42
37 37 42
37 37 42
37 37 42
37 37 42
37 37 42
37 37 42
37 37 42
37 37 42
37 37 42
37 37 42
37 37 42
37 37 42
37 37 42
37 38 42
37 38 42
37 38 42
37 38 42
37 38 42
37 38 42
37 38 42
37 38 42
37 37 42
37 37 42
37 37 42
37 37 42
37 37 42
37 37 42
27 88 103
27 88 102
27 88 102
27 88 102
26 88 102
26 88 102
26 87 101
26 87 101
26 87 101
26 87 101
26 87 101
26 87 100
26 86 100
26 86 100
26 86 100
26 86 100
26 86 99
26 85 99
26 85 99
26 85 99
25 85 98
25 85 98
25 84 98
25 84 98
25 84 97
25 84 97
25 83 97
25 83 97
25 83 96
25 83 96
25 83 96
25 82 96
36 36 41
36 36 41
36 36 41
36 36 41
36 36 41
36 36 41
36 36 41
36 36 40
35 36 40
35 36 40
35 36 40
35 36 40
35 36 40
35 36 40
35 35 40
35 35 40
35 35 40
35 35 40
35 35 40
35 35 40
35 35 40
35 35 39
35 35 39
34 35 39
34 35 39
34 35 39
34 35 39
34 35 39
34 35 39
34 34 39
34 34 39
34 34 39
34 34 39
34 34 39
34 34 38
34 34 38
34 34 38
33 34 38
33 34 38
33 34 38
33 34 38
33 34 38
33 33 38
33 33 38
33 33 38
33 33 38
33 33 38
33 33 37
33 33 37
33 33 37
32 33 37
32 33 37
32 33 37
32 33 37
32 33 37
32 33 37
32 32 37
32 32 37
32 32 37
32 32 36
32 32 36
32 32 36
32 32 36
32 32 36
31 32 36
31 32 36
31 32 36
31 32 36
31 32 36
31 32 36
31 31 36
31 31 36
31 31 35
31 31 35
31 31 35
31 31 35
31 31 35
31 31 35
30 31 35
30 31 35
30 31 35
35 35 40
35 35 40
35 35 40
35 35 40
35 35 40
35 35 40
35 36 40
35 36 40
35 36 40
35 36 40
35 36 40
36 36 40
36 36 41
36 36 41
36 36 41
36 36 41
36 36 41
36 36 41
36 36 41
36 36 41
36 37 41
36 37 41
36 37 41
36 37 41
36 37 41
37 37 42
37 37 42
37 37 42
37 37 42
37 37 42
37 37 42
37 37 42
37 37 42
37 37 42
37 37 42
37 37 42
37 38 42
37 38 42
37 38 42
37 38 42
37 38 42
37 38 42
37 38 43
38 38 43
38 38 43
38 38 43
38 38 43
38 38 43
38 38 43
38 38 43
38 38 43
38 38 43
38 38 43
38 38 43
38 38 43
38 38 43
38 38 43
38 38 43
38 38 43
38 38 43
38 38 43
38 38 43
38 38 43
38 39 43
38 39 43
38 39 43
38 39 43
38 39 43
38 39 43
38 39 43
38 39 43
38 39 43
38 39 43
38 39 43
38 39 43
38 39 43
38 39 43
38 39 43
38 39 43
38 39 43
38 39 43
38 39 43
38 39 43
38 39 43
38 39 43
38 39 43
38 39 43
27 88 102
27 88 102
27 88 102
26 88 102
26 87 101
26 87 101
26 87 101
26 87 101
26 87 101
26 87 100
26 86 100
26 86 100
26 86 100
26 86 100
26 86 99
26 85 99
26 85 99
26 85 99
26 85 99
25 85 98
25 84 98
25 84 98
25 84 98
25 84 97
25 84 97
25 83 97
25 83 97
25 83 96
25 83 96
25 83 96
25 82 96
25 82 95
37 37 42
37 37 42
37 37 42
37 37 42
37 37 42
37 37 42
37 37 42
36 37 42
36 37 41
36 37 41
36 37 41
36 37 41
36 37 41
36 36 41
36 36 41
36 36 41
36 36 41
36 36 41
36 36 41
36 36 41
36 36 41
36 36 40
35 36 40
35 36 40
35 36 40
35 36 40
35 36 40
35 35 40
35 35 40
35 35 40
35 35 40
35 35 40
35 35 40
35 35 40
35 35 39
34 35 39
34 35 39
34 35 39
34 35 39
34 35 39
34 34 39
34 34 39
34 34 39
34 34 39
34 34 39
34 34 39
34 34 38
34 34 38
33 34 38
33 34 38
33 34 38
33 34 38
33 34 38
33 33 38
33 33 38
33 33 38
33 33 38
33 33 37
33 33 37
33 33 37
33 33 37
32 33 37
32 33 37
32 33 37
32 33 37
32 33 37
32 32 37
32 32 37
32 32 37
32 32 36
32 32 36
32 32 36
32 32 36
32 32 36
31 32 36
31 32 36
31 32 36
31 32 36
31 32 36
31 32 36
31 31 36
36 36 41
36 36 41
36 36 41
36 36 41
36 36 41
36 37 41
36 37 41
36 37 41
36 37 41
36 37 41
37 37 42
37 37 42
37 37 42
37 37 42
37 37 42
37 37 42
37 37 42
37 37 42
37 37 42
37 38 42
37 38 42
37 38 42
37 38 42
37 38 43
38 38 43
38 38 43
38 38 43
38 38 43
38 38 43
38 38 43
38 38 43
38 38 43
38 38 43
38 38 43
38 38 43
38 39 43
38 39 43
38 39 43
38 39 44
38 39 44
38 39 44
39 39 44
39 39 44
39 39 44
39 39 44
39 39 44
39 39 44
39 39 44
39 39 44
39 39 44
39 39 44
39 39 44
39 39 44
39 39 44
39 39 44
39 39 44
39 39 44
39 39 44
39 40 44
39 40 44
39 40 44
39 40 44
39 40 44
39 40 45
39 40 45
39 40 45
39 40 45
39 40 45
39 40 45
39 40 45
39 40 45
39 40 45
39 40 45
39 40 45
39 40 45
39 40 45
39 40 45
39 40 45
39 40 45
39 40 45
39 40 45
39 40 45
39 40 45
39 40 45
39 40 45
39 40 45
39 40 45
27 88 102
26 88 102
26 87 101
26 87 101
26 87 101
26 87 101
26 87 101
26 87 100
26 86 100
26 86 100
26 86 100
26 86 100
26 86 99
26 86 99
26 85 99
26 85 99
26 85 99
26 85 98
25 85 98
25 84 98
25 84 98
25 84 97
25 84 97
25 84 97
25 83 97
25 83 97
25 83 96
25 83 96
25 82 96
25 82 96
25 82 95
25 82 95
12 12 15
12 12 15
12 12 15
12 12 15
12 12 15
12 12 15
12 12 15
12 12 15
12 12 15
12 12 15
37 38 42
37 38 42
37 37 42
37 37 42
37 37 42
37 37 42
37 37 42
37 37 42
37 37 42
37 37 42
37 37 42
36 37 41
36 37 41
36 37 41
36 37 41
36 37 41
36 36 41
36 36 41
36 36 41
36 36 41
36 36 41
36 36 41
36 36 41
36 36 40
35 36 40
35 36 40
35 36 40
35 36 40
35 35 40
35 35 40
35 35 40
35 35 40
35 35 40
35 35 40
35 35 39
35 35 39
34 35 39
34 35 39
34 35 39
34 35 39
34 35 39
34 34 39
34 34 39
34 34 39
34 34 39
34 34 39
34 34 38
34 34 38
33 34 38
33 34 38
33 34 38
33 34 38
33 34 38
33 33 38
33 33 38
33 33 38
33 33 38
33 33 37
33 33 37
33 33 37
33 33 37
32 33 37
32 33 37
32 33 37
32 33 37
32 33 37
32 32 37
32 32 37
32 32 37
32 32 36
32 32 36
37 37 42
37 37 42
37 37 42
37 37 42
37 37 42
37 38 42
37 38 42
37 38 42
37 38 43
38 38 43
38 38 43
38 38 43
38 38 43
38 38 43
38 38 43
38 38 43
38 38 43
38 38 43
38 39 43
38 39 43
38 39 43
38 39 44
38 39 44
39 39 44
39 39 44
39 39 44
39 39 44
39 39 44
39 39 44
39 39 44
39 39 44
39 39 44
39 39 44
39 40 44
39 40 44
39 40 45
39 40 45
39 40 45
39 40 45
40 40 45
40 40 45
40 40 45
40 40 45
40 40 45
40 40 45
40 40 45
40 40 45
40 40 45
40 40 45
40 40 45
40 40 45
40 40 45
40 40 45
40 40 45
40 40 45
40 41 46
40 41 46
40 41 46
40 41 46
40 41 46
40 41 46
40 41 46
40 41 46
40 41 46
40 41 46
40 41 46
40 41 46
40 41 46
40 41 46
40 41 46
40 41 46
41 41 46
41 41 46
41 41 46
41 41 46
41 41 46
41 41 46
40 41 46
40 41 46
40 41 46
40 41 46
40 41 46
40 41 46
40 41 46
40 41 46
40 41 46
40 41 46
26 87 101
26 87 101
26 87 101
26 87 101
26 87 101
26 87 100
26 86 100
26 86 100
26 86 100
26 86 100
26 86 100
26 86 99
26 85 99
26 85 99
26 85 99
26 85 98
26 85 98
25 84 98
25 84 98
25 84 98
25 84 97
25 84 97
25 83 97
25 83 97
25 83 96
25 83 96
25 83 96
25 82 96
25 82 95
25 82 95
25 82 95
24 81 95
12 12 15
12 12 15
12 12 15
12 12 15
12 12 15
12 12 15
12 12 15
12 12 15
12 12 15
12 12 15
12 12 15
38 38 43
38 38 43
38 38 43
38 38 43
38 38 43
38 38 43
38 38 43
38 38 43
38 38 43
37 38 43
37 38 42
37 38 42
37 38 42
37 37 42
37 37 42
37 37 42
37 37 42
37 37 42
37 37 42
37 37 42
37 37 42
36 37 41
36 37 41
36 37 41
36 37 41
36 36 41
36 36 41
36 36 41
36 36 41
36 36 41
36 36 41
36 36 41
36 36 40
35 36 40
35 36 40
35 36 40
35 36 40
35 35 40
35 35 40
35 35 40
35 35 40
35 35 40
35 35 40
35 35 39
34 35 39
34 35 39
34 35 39
34 35 39
34 35 39
34 34 39
34 34 39
34 34 39
34 34 39
34 34 39
34 34 38
34 34 38
33 34 38
33 34 38
33 34 38
33 34 38
33 34 38
33 33 38
33 33 38
33 33 38
33 33 38
33 33 37
33 33 37
33 33 37
33 33 37
32 33 37
38 38 43
38 38 43
38 38 43
38 38 43
38 38 43
38 39 43
38 39 43
38 39 44
38 39 44
39 39 44
39 39 44
39 39 44
39 39 44
39 39 44
39 39 44
39 39 44
39 39 44
39 40 44
39 40 44
39 40 45
39 40 45
39 40 45
40 40 45
40 40 45
40 40 45
40 40 45
40 40 45
40 40 45
40 40 45
40 40 45
40 40 45
40 40 45
40 41 46
40 41 46
40 41 46
40 41 46
40 41 46
41 41 46
41 41 46
41 41 46
41 41 46
41 41 46
41 41 46
41 41 46
41 41 46
41 41 46
41 41 46
41 41 46
41 41 46
41 41 46
41 41 47
41 41 47
41 42 47
41 42 47
41 42 47
41 42 47
41 42 47
41 42 47
41 42 47
41 42 47
41 42 47
41 42 47
41 42 47
42 42 47
42 42 47
42 42 47
42 42 47
42 42 47
42 42 47
42 42 47
42 42 47
42 42 47
42 42 47
42 42 47
42 42 47
42 42 47
42 42 47
42 42 47
42 42 47
42 42 47
42 42 47
42 42 47
42 42 47
42 42 47
41 42 47
41 42 47
41 42 47
26 87 101
26 87 101
26 87 101
26 87 100
26 86 100
26 86 100
26 86 100
26 86 100
26 86 99
26 86 99
26 85 99
26 85 99
26 85 99
26 85 98
26 85 98
25 84 98
25 84 98
25 84 98
25 84 97
25 84 97
25 84 97
25 83 97
25 83 97
25 83 96
25 83 96
25 82 96
25 82 96
25 82 95
25 82 95
25 82 95
24 81 95
24 81 94
12 12 15
12 12 15
12 12 15
12 12 15
12 12 15
12 12 15
12 12 15
12 12 15
12 12 15
12 12 15
12 12 15
12 12 15
12 12 15
39 39 44
39 39 44
39 39 44
39 39 44
39 39 44
38 39 44
38 39 44
38 39 43
38 39 43
38 38 43
38 38 43
38 38 43
38 38 43
38 38 43
38 38 43
38 38 43
38 38 43
37 38 43
37 38 42
37 38 42
37 38 42
37 37 42
37 37 42
37 37 42
37 37 42
37 37 42
37 37 42
37 37 42
37 37 42
36 37 41
36 37 41
36 37 41
36 37 41
36 36 41
36 36 41
36 36 41
36 36 41
36 36 41
36 36 41
36 36 40
35 36 40
35 36 40
35 36 40
35 36 40
35 35 40
35 35 40
35 35 40
35 35 40
35 35 40
35 35 40
35 35 39
34 35 39
34 35 39
34 35 39
34 35 39
34 35 39
34 34 39
34 34 39
34 34 39
34 34 39
34 34 39
34 34 38
34 34 38
33 34 38
33 34 38
33 34 38
33 34 38
33 34 38
39 39 44
39 39 44
39 39 44
39 39 44
39 39 44
39 40 44
39 40 45
39 40 45
40 40 45
40 40 45
40 40 45
40 40 45
40 40 45
40 40 45
40 40 45
40 40 45
40 40 45
40 41 46
40 41 46
40 41 46
40 41 46
41 41 46
41 41 46
41 41 46
41 41 46
41 41 46
41 41 46
41 41 46
41 41 46
41 41 46
41 41 47
41 42 47
41 42 47
41 42 47
41 42 47
42 42 47
42 42 47
42 42 47
42 42 47
42 42 47
42 42 47
42 42 47
42 42 47
42 42 47
42 42 47
42 42 47
42 42 48
42 42 48
42 42 48
42 42 48
42 43 48
42 43 48
42 43 48
42 43 48
42 43 48
42 43 48
42 43 48
42 43 48
43 43 48
43 43 48
43 43 48
43 43 48
43 43 48
43 43 48
43 43 48
43 43 48
43 43 48
43 43 48
43 43 48
43 43 48
43 43 48
43 43 48
43 43 48
43 43 48
43 43 48
43 43 48
43 43 48
43 43 48
43 43 48
43 43 48
43 43 48
43 43 48
43 43 48
43 43 48
43 43 48
43 43 48
42 43 48
26 87 100
26 86 100
26 86 100
26 86 100
26 86 100
26 86 100
26 86 99
26 86 99
26 85 99
26 85 99
26 85 99
26 85 98
26 85 98
25 84 98
25 84 98
25 84 98
25 84 97
25 84 97
25 84 97
25 83 97
25 83 97
25 83 96
25 83 96
25 83 96
25 82 96
25 82 95
25 82 95
25 82 95
25 82 95
24 81 95
24 81 94
24 81 94
12 12 15
12 12 15
12 12 15
12 12 15
12 12 15
12 12 15
12 12 15
12 12 15
12 12 15
12 12 15
12 12 15
12 12 15
12 12 15
12 12 15
40 40 45
40 40 45
40 40 45
39 40 45
39 40 45
39 40 44
39 40 44
39 39 44
39 39 44
39 39 44
39 39 44
39 39 44
39 39 44
39 39 44
38 39 44
38 39 44
38 39 43
38 39 43
38 38 43
38 38 43
38 38 43
38 38 43
38 38 43
38 38 43
38 38 43
37 38 43
37 38 42
37 38 42
37 38 42
37 37 42
37 37 42
37 37 42
37 37 42
37 37 42
37 37 42
37 37 42
36 37 41
36 37 41
36 37 41
36 37 41
36 36 41
36 36 41
36 36 41
36 36 41
36 36 41
36 36 41
36 36 41
35 36 40
35 36 40
35 36 40
35 36 40
35 35 40
35 35 40
35 35 40
35 35 40
35 35 40
35 35 40
35 35 39
34 35 39
34 35 39
34 35 39
34 35 39
34 35 39
34 34 39
34 34 39
34 34 39
34 34 39
40 40 45
40 40 45
40 40 45
40 40 45
40 40 45
40 41 46
40 41 46
40 41 46
41 41 46
41 41 46
41 41 46
41 41 46
41 41 46
41 41 46
41 41 46
41 41 46
41 42 47
41 42 47
41 42 47
41 42 47
42 42 47
42 42 47
42 42 47
42 42 47
42 42 47
42 42 47
42 42 47
42 42 47
42 42 48
42 42 48
42 43 48
42 43 48
42 43 48
42 43 48
43 43 48
43 43 48
43 43 48
43 43 48
43 43 48
43 43 48
43 43 48
43 43 48
43 43 48
43 43 49
43 43 49
43 43 49
43 43 49
43 43 49
43 44 49
43 44 49
43 44 49
43 44 49
43 44 49
43 44 49
43 44 49
44 44 49
44 44 49
44 44 49
44 44 49
44 44 49
44 44 49
44 44 49
44 44 49
44 44 49
44 44 49
44 44 49
44 44 49
44 44 49
44 44 49
44 44 49
44 44 49
44 44 49
44 44 49
44 44 49
44 44 49
44 44 49
44 44 49
44 44 49
44 44 49
44 44 49
44 44 49
44 44 49
44 44 49
44 44 49
44 44 49
44 44 49
44 44 49
26 86 100
26 86 100
26 86 100
26 86 100
26 86 99
26 85 99
26 85 99
26 85 99
26 85 99
26 85 98
26 85 98
25 84 98
25 84 98
25 84 98
25 84 97
25 84 97
25 84 97
25 83 97
25 83 97
25 83 96
25 83 96
25 83 96
25 82 96
25 82 96
25 82 95
25 82 95
25 82 95
24 81 95
24 81 94
24 81 94
24 81 94
24 81 94
12 12 15
12 12 15
12 12 15
12 12 15
12 12 15
12 12 15
12 12 15
12 12 15
12 12 15
12 12 15
12 12 15
12 12 15
12 12 15
12 12 15
12 12 15
12 12 15
40 41 46
40 41 46
40 41 46
40 40 45
40 40 45
40 40 45
40 40 45
40 40 45
40 40 45
40 40 45
40 40 45
39 40 45
39 40 45
39 40 44
39 39 44
39 39 44
39 39 44
39 39 44
39 39 44
39 39 44
39 39 44
38 39 44
38 39 44
38 39 43
38 39 43
38 38 43
38 38 43
38 38 43
38 38 43
38 38 43
38 38 43
38 38 43
37 38 43
37 38 42
37 38 42
37 37 42
37 37 42
37 37 42
37 37 42
37 37 42
37 37 42
37 37 42
36 37 41
36 37 41
36 37 41
36 37 41
36 36 41
36 36 41
36 36 41
36 36 41
36 36 41
36 36 41
36 36 40
35 36 40
35 36 40
35 36 40
35 36 40
35 35 40
35 35 40
35 35 40
35 35 40
35 35 40
35 35 40
35 35 39
34 35 39
41 41 46
41 41 46
41 41 46
41 41 46
41 42 47
41 42 47
41 42 47
41 42 47
42 42 47
42 42 47
42 42 47
42 42 47
42 42 47
42 42 47
42 42 48
42 42 48
42 43 48
42 43 48
42 43 48
43 43 48
43 43 48
43 43 48
43 43 48
43 43 48
43 43 48
43 43 48
43 43 49
43 43 49
43 43 49
43 44 49
43 44 49
43 44 49
43 44 49
44 44 49
44 44 49
44 44 49
44 44 49
44 44 49
44 44 49
44 44 49
44 44 50
44 44 50
44 44 50
44 44 50
44 44 50
44 44 50
44 44 50
44 45 50
44 45 50
44 45 50
44 45 50
44 45 50
44 45 50
45 45 50
45 45 50
45 45 50
45 45 50
45 45 50
45 45 50
45 45 50
45 45 50
45 45 50
45 45 50
45 45 50
45 45 50
45 45 50
45 45 50
45 45 50
45 45 50
45 45 50
45 45 50
45 45 50
45 45 50
45 45 50
45 45 50
45 45 50
45 45 50
45 45 50
45 45 50
45 45 50
45 45 50
45 45 50
45 45 50
45 45 50
45 45 50
45 45 50
45 45 50
26 86 100
26 86 99
26 86 99
26 85 99
26 85 99
26 85 99
26 85 99
26 85 98
26 85 98
25 84 98
25 84 98
25 84 98
25 84 97
25 84 97
25 84 97
25 83 97
25 83 97
25 83 96
25 83 96
25 83 96
25 83 96
25 82 96
25 82 95
25 82 95
25 82 95
25 82 95
24 81 95
24 81 94
24 81 94
24 81 94
24 81 94
24 80 93
12 12 15
12 12 15
12 12 15
12 12 15
12 12 15
12 12 15
12 12 15
12 12 15
12 12 15
12 12 15
12 12 15
12 12 15
12 12 15
12 12 15
12 12 15
12 12 15
12 12 15
41 41 47
41 41 46
41 41 46
41 41 46
41 41 46
41 41 46
41 41 46
41 41 46
40 41 46
40 41 46
40 41 46
40 40 45
40 40 45
40 40 45
40 40 45
40 40 45
40 40 45
40 40 45
39 40 45
39 40 45
39 40 44
39 39 44
39 39 44
39 39 44
39 39 44
39 39 44
39 39 44
39 39 44
38 39 44
38 39 44
38 39 43
38 39 43
38 38 43
38 38 43
38 38 43
38 38 43
38 38 43
38 38 43
37 38 43
37 38 42
37 38 42
37 38 42
37 37 42
37 37 42
37 37 42
37 37 42
37 37 42
37 37 42
37 37 42
36 37 41
36 37 41
36 37 41
36 37 41
36 36 41
36 36 41
36 36 41
36 36 41
36 36 41
36 36 41
35 36 40
35 36 40
35 36 40
35 36 40
35 35 40
42 42 47
42 42 47
42 42 47
42 42 48
42 42 48
42 43 48
42 43 48
42 43 48
43 43 48
43 43 48
43 43 48
43 43 48
43 43 48
43 43 49
43 43 49
43 43 49
43 44 49
43 44 49
43 44 49
44 44 49
44 44 49
44 44 49
44 44 49
44 44 49
44 44 50
44 44 50
44 44 50
44 44 50
44 44 50
44 45 50
44 45 50
44 45 50
45 45 50
45 45 50
45 45 50
45 45 50
45 45 50
45 45 50
45 45 51
45 45 51
45 45 51
45 45 51
45 45 51
45 45 51
45 45 51
45 45 51
45 46 51
45 46 51
45 46 51
45 46 51
45 46 51
45 46 51
46 46 51
46 46 51
46 46 51
46 46 51
46 46 51
46 46 51
46 46 51
46 46 51
46 46 51
46 46 51
46 46 51
46 46 51
46 46 51
46 46 52
46 46 52
46 46 52
46 46 52
46 46 52
46 46 52
46 46 52
46 46 52
46 46 52
46 46 51
46 46 51
46 46 51
46 46 51
46 46 51
46 46 51
46 46 51
46 46 51
46 46 51
46 46 51
46 46 51
46 46 51
46 46 51
26 85 99
26 85 99
26 85 99
26 85 99
26 85 99
26 85 98
25 85 98
25 84 98
25 84 98
25 84 98
25 84 97
25 84 97
25 84 97
25 83 97
25 83 97
25 83 96
25 83 96
25 83 96
25 83 96
25 82 96
25 82 95
25 82 95
25 82 95
25 82 95
24 81 95
24 81 94
24 81 94
24 81 94
24 81 94
24 80 93
24 80 93
24 80 93
12 12 15
12 12 15
12 12 15
12 12 15
12 12 15
12 12 15
12 12 15
12 12 15
12 12 15
12 12 15
12 12 15
12 12 15
12 12 15
12 12 15
12 12 15
42 42 48
42 42 48
42 42 47
42 42 47
42 42 47
42 42 47
42 42 47
42 42 47
41 42 47
41 42 47
41 42 47
41 41 46
41 41 46
41 41 46
41 41 46
41 41 46
41 41 46
41 41 46
40 41 46
40 41 46
40 41 46
40 40 45
40 40 45
40 40 45
40 40 45
40 40 45
40 40 45
40 40 45
39 40 45
39 40 45
39 40 44
39 39 44
39 39 44
39 39 44
39 39 44
39 39 44
39 39 44
38 39 44
38 39 44
38 39 43
38 39 43
38 38 43
38 38 43
38 38 43
38 38 43
38 38 43
38 38 43
38 38 43
37 38 42
37 38 42
37 38 42
37 37 42
37 37 42
37 37 42
37 37 42
37 37 42
37 37 42
37 37 42
36 37 41
36 37 41
36 37 41
36 37 41
36 36 41
36 36 41
36 36 41
36 36 41
43 43 48
43 43 48
43 43 49
43 43 49
43 43 49
43 44 49
43 44 49
43 44 49
44 44 49
44 44 49
44 44 49
44 44 49
44 44 50
44 44 50
44 44 50
44 44 50
44 45 50
44 45 50
44 45 50
45 45 50
45 45 50
45 45 50
45 45 50
45 45 51
45 45 51
45 45 51
45 45 51
45 45 51
45 46 51
45 46 51
45 46 51
45 46 51
46 46 51
46 46 51
46 46 51
46 46 51
46 46 52
46 46 52
46 46 52
46 46 52
46 46 52
46 46 52
46 46 52
46 46 52
46 46 52
46 47 52
46 47 52
46 47 52
46 47 52
46 47 52
46 47 52
47 47 52
47 47 52
47 47 52
47 47 52
47 47 52
47 47 52
47 47 52
47 47 52
47 47 53
47 47 53
47 47 53
47 47 53
47 47 53
47 47 53
47 47 53
47 47 53
47 47 53
47 47 53
47 47 53
47 47 53
47 47 53
47 47 53
47 47 53
47 47 53
47 47 53
47 47 53
47 47 53
47 47 52
47 47 52
47 47 52
47 47 52
47 47 52
47 47 52
47 47 52
47 47 52
46 47 52
26 85 99
26 85 99
26 85 98
25 85 98
25 84 98
25 84 98
25 84 98
25 84 98
25 84 97
25 84 97
25 84 97
25 83 97
25 83 97
25 83 96
25 83 96
25 83 96
25 83 96
25 82 96
25 82 95
25 82 95
25 82 95
25 82 95
24 81 95
24 81 94
24 81 94
24 81 94
24 81 94
24 81 94
24 80 93
24 80 93
24 80 93
24 80 93
12 12 15
12 12 15
12 12 15
12 12 15
12 12 15
12 12 15
12 12 15
12 12 15
12 12 15
12 12 15
12 12 15
12 12 15
12 12 15
43 43 49
43 43 49
43 43 48
43 43 48
43 43 48
43 43 48
43 43 48
43 43 48
42 43 48
42 43 48
42 42 48
42 42 48
42 42 47
42 42 47
42 42 47
42 42 47
42 42 47
41 42 47
41 42 47
41 42 47
41 41 47
41 41 46
41 41 46
41 41 46
41 41 46
41 41 46
41 41 46
40 41 46
40 41 46
40 41 46
40 40 45
40 40 45
40 40 45
40 40 45
40 40 45
40 40 45
40 40 45
39 40 45
39 40 45
39 40 44
39 39 44
39 39 44
39 39 44
39 39 44
39 39 44
39 39 44
38 39 44
38 39 44
38 39 43
38 39 43
38 38 43
38 38 43
38 38 43
38 38 43
38 38 43
38 38 43
37 38 43
37 38 42
37 38 42
37 38 42
37 37 42
37 37 42
37 37 42
37 37 42
37 37 42
37 37 42
37 37 42
36 37 41
44 44 49
44 44 49
44 44 50
44 44 50
44 44 50
44 45 50
44 45 50
44 45 50
45 45 50
45 45 50
45 45 50
45 45 51
45 45 51
45 45 51
45 45 51
45 45 51
45 46 51
45 46 51
45 46 51
46 46 51
46 46 51
46 46 51
46 46 52
46 46 52
46 46 52
46 46 52
46 46 52
46 46 52
46 47 52
46 47 52
46 47 52
46 47 52
47 47 52
47 47 52
47 47 52
47 47 53
47 47 53
47 47 53
47 47 53
47 47 53
47 47 53
47 47 53
47 47 53
47 47 53
47 47 53
47 48 53
47 48 53
47 48 53
47 48 53
47 48 53
47 48 53
48 48 53
48 48 53
48 48 53
48 48 53
48 48 53
48 48 54
48 48 54
48 48 54
48 48 54
48 48 54
48 48 54
48 48 54
48 48 54
48 48 54
48 48 54
48 48 54
48 48 54
48 48 54
48 48 54
48 48 54
48 48 54
48 48 54
48 48 54
48 48 54
48 48 54
48 48 54
48 48 54
48 48 54
48 48 53
48 48 53
48 48 53
48 48 53
48 48 53
47 48 53
47 48 53
47 48 53
25 85 98
25 85 98
25 84 98
25 84 98
25 84 98
25 84 97
25 84 97
25 84 97
25 84 97
25 83 97
25 83 97
25 83 96
25 83 96
25 83 96
25 83 96
25 82 96
25 82 96
25 82 95
25 82 95
25 82 95
24 81 95
24 81 94
24 81 94
24 81 94
24 81 94
24 81 94
24 80 93
24 80 93
24 80 93
24 80 93
24 80 93
24 79 92
12 12 15
12 12 15
12 12 15
12 12 15
12 12 15
12 12 15
12 12 15
12 12 15
12 12 15
12 12 15
12 12 15
44 44 50
44 44 50
44 44 50
44 44 49
44 44 49
44 44 49
44 44 49
43 44 49
43 44 49
43 44 49
43 43 49
43 43 49
43 43 48
43 43 48
43 43 48
43 43 48
43 43 48
42 43 48
42 43 48
42 43 48
42 42 48
42 42 47
42 42 47
42 42 47
42 42 47
42 42 47
41 42 47
41 42 47
41 42 47
41 41 47
41 41 46
41 41 46
41 41 46
41 41 46
41 41 46
41 41 46
40 41 46
40 41 46
40 41 46
40 40 45
40 40 45
40 40 45
40 40 45
40 40 45
40 40 45
39 40 45
39 40 45
39 40 44
39 39 44
39 39 44
39 39 44
39 39 44
39 39 44
39 39 44
39 39 44
38 39 44
38 39 43
38 39 43
38 38 43
38 38 43
38 38 43
38 38 43
38 38 43
38 38 43
38 38 43
37 38 43
37 38 42
37 38 42
37 37 42
37 37 42
45 45 50
45 45 51
45 45 51
45 45 51
45 45 51
45 46 51
45 46 51
45 46 51
46 46 51
46 46 51
46 46 51
46 46 52
46 46 52
46 46 52
46 46 52
46 46 52
46 47 52
46 47 52
46 47 52
47 47 52
47 47 52
47 47 53
47 47 53
47 47 53
47 47 53
47 47 53
47 47 53
47 47 53
47 47 53
47 48 53
47 48 53
47 48 53
48 48 53
48 48 53
48 48 54
48 48 54
48 48 54
48 48 54
48 48 54
48 48 54
48 48 54
48 48 54
48 48 54
48 48 54
48 48 54
48 48 54
48 49 54
48 49 54
48 49 54
48 49 54
48 49 54
49 49 54
49 49 54
49 49 54
49 49 55
49 49 55
49 49 55
49 49 55
49 49 55
49 49 55
49 49 55
49 49 55
49 49 55
49 49 55
49 49 55
49 49 55
49 49 55
49 49 55
49 49 55
49 49 55
49 49 55
49 49 55
49 49 55
49 49 55
49 49 55
49 49 55
49 49 55
49 49 55
49 49 55
49 49 54
49 49 54
49 49 54
48 49 54
48 49 54
48 49 54
48 49 54
48 49 54
25 84 98
25 84 98
25 84 98
25 84 97
25 84 97
25 84 97
25 83 97
25 83 97
25 83 97
25 83 96
25 83 96
25 83 96
25 83 96
25 82 96
25 82 95
25 82 95
25 82 95
25 82 95
24 82 95
24 81 95
24 81 94
24 81 94
24 81 94
24 81 94
24 80 93
24 80 93
24 80 93
24 80 93
24 80 93
24 79 92
24 79 92
24 79 92
12 12 15
12 12 15
12 12 15
12 12 15
12 12 15
12 12 15
12 12 15
12 12 15
12 12 15
45 45 51
45 45 51
45 45 51
45 45 51
45 45 50
45 45 50
45 45 50
44 45 50
44 45 50
44 45 50
44 44 50
44 44 50
44 44 50
44 44 49
44 44 49
44 44 49
44 44 49
43 44 49
43 44 49
43 43 49
43 43 49
43 43 48
43 43 48
43 43 48
43 43 48
43 43 48
42 43 48
42 43 48
42 42 48
42 42 48
42 42 47
42 42 47
42 42 47
42 42 47
42 42 47
41 42 47
41 42 47
41 42 47
41 41 46
41 41 46
41 41 46
41 41 46
41 41 46
41 41 46
40 41 46
40 41 46
40 41 46
40 40 45
40 40 45
40 40 45
40 40 45
40 40 45
40 40 45
39 40 45
39 40 45
39 40 45
39 39 44
39 39 44
39 39 44
39 39 44
39 39 44
39 39 44
39 39 44
38 39 44
38 39 44
38 39 43
38 38 43
38 38 43
38 38 43
38 38 43
38 38 43
38 38 43
46 46 51
46 46 52
46 46 52
46 46 52
46 46 52
46 46 52
46 47 52
46 47 52
47 47 52
47 47 52
47 47 52
47 47 53
47 47 53
47 47 53
47 47 53
47 47 53
47 47 53
47 48 53
47 48 53
48 48 53
48 48 53
48 48 54
48 48 54
48 48 54
48 48 54
48 48 54
48 48 54
48 48 54
48 48 54
48 49 54
48 49 54
48 49 54
49 49 54
49 49 55
49 49 55
49 49 55
49 49 55
49 49 55
49 49 55
49 49 55
49 49 55
49 49 55
49 49 55
49 49 55
49 49 55
49 49 55
49 49 55
49 50 55
49 50 55
49 50 55
49 50 55
49 50 55
49 50 55
50 50 56
50 50 56
50 50 56
50 50 56
50 50 56
50 50 56
50 50 56
50 50 56
50 50 56
50 50 56
50 50 56
50 50 56
50 50 56
50 50 56
50 50 56
50 50 56
50 50 56
50 50 56
50 50 56
50 50 56
50 50 56
50 50 56
50 50 56
50 50 56
50 50 56
50 50 55
49 50 55
49 50 55
49 50 55
49 50 55
49 50 55
49 49 55
49 49 55
49 49 55
25 84 97
25 84 97
25 84 97
25 83 97
25 83 97
25 83 97
25 83 96
25 83 96
25 83 96
25 83 96
25 82 96
25 82 96
25 82 95
25 82 95
25 82 95
25 82 95
24 82 95
24 81 95
24 81 94
24 81 94
24 81 94
24 81 94
24 80 94
24 80 93
24 80 93
24 80 93
24 80 93
24 80 93
24 79 92
24 79 92
24 79 92
24 79 92
12 12 15
12 12 15
12 12 15
12 12 15
12 12 15
12 12 15
12 12 15
46 46 52
46 46 52
46 46 52
46 46 52
46 46 51
46 46 51
46 46 51
45 46 51
45 46 51
45 45 51
45 45 51
45 45 51
45 45 51
45 45 50
45 45 50
45 45 50
44 45 50
44 45 50
44 44 50
44 44 50
44 44 50
44 44 49
44 44 49
44 44 49
44 44 49
43 44 49
43 44 49
43 44 49
43 43 49
43 43 49
43 43 48
43 43 48
43 43 48
43 43 48
42 43 48
42 43 48
42 43 48
42 42 48
42 42 47
42 42 47
42 42 47
42 42 47
42 42 47
41 42 47
41 42 47
41 42 47
41 41 46
41 41 46
41 41 46
41 41 46
41 41 46
41 41 46
40 41 46
40 41 46
40 41 46
40 40 45
40 40 45
40 40 45
40 40 45
40 40 45
40 40 45
39 40 45
39 40 45
39 40 44
39 39 44
39 39 44
39 39 44
39 39 44
39 39 44
39 39 44
39 39 44
38 39 44
38 39 43
38 39 43
47 47 52
47 47 53
47 47 53
47 47 53
47 47 53
47 47 53
47 47 53
47 48 53
47 48 53
48 48 53
48 48 54
48 48 54
48 48 54
48 48 54
48 48 54
48 48 54
48 48 54
48 49 54
48 49 54
48 49 54
49 49 54
49 49 55
49 49 55
49 49 55
49 49 55
49 49 55
49 49 55
49 49 55
49 49 55
49 49 55
49 50 55
49 50 55
49 50 55
50 50 56
50 50 56
50 50 56
50 50 56
50 50 56
50 50 56
50 50 56
50 50 56
50 50 56
50 50 56
50 50 56
50 50 56
50 50 56
50 50 56
50 50 56
50 50 56
50 51 56
50 51 56
50 51 56
50 51 56
50 51 57
50 51 57
50 51 57
51 51 57
51 51 57
51 51 57
51 51 57
51 51 57
51 51 57
51 51 57
51 51 57
51 51 57
51 51 57
51 51 57
51 51 57
51 51 57
51 51 57
51 51 57
51 51 57
51 51 57
51 51 57
50 51 57
50 51 57
50 51 56
50 51 56
50 51 56
50 51 56
50 50 56
50 50 56
50 50 56
50 50 56
50 50 56
50 50 56
50 50 56
25 83 97
25 83 97
25 83 97
25 83 97
25 83 96
25 83 96
25 83 96
25 83 96
25 82 96
25 82 96
25 82 95
25 82 95
25 82 95
25 82 95
24 81 95
24 81 95
24 81 94
24 81 94
24 81 94
24 81 94
24 80 94
24 80 93
24 80 93
24 80 93
24 80 93
24 80 93
24 79 92
24 79 92
24 79 92
24 79 92
24 79 92
24 78 91
12 12 15
12 12 15
12 12 15
12 12 15
12 12 15
47 47 53
47 47 53
47 47 53
47 47 53
47 47 52
47 47 52
46 47 52
46 47 52
46 46 52
46 46 52
46 46 52
46 46 52
46 46 52
46 46 51
46 46 51
45 46 51
45 46 51
45 46 51
45 45 51
45 45 51
45 45 51
45 45 50
45 45 50
45 45 50
44 45 50
44 45 50
44 45 50
44 44 50
44 44 50
44 44 49
44 44 49
44 44 49
44 44 49
43 44 49
43 44 49
43 43 49
43 43 49
43 43 49
43 43 48
43 43 48
43 43 48
43 43 48
42 43 48
42 43 48
42 42 48
42 42 48
42 42 47
42 42 47
42 42 47
42 42 47
42 42 47
41 42 47
41 42 47
41 41 47
41 41 46
41 41 46
41 41 46
41 41 46
41 41 46
41 41 46
40 41 46
40 41 46
40 41 45
40 40 45
40 40 45
40 40 45
40 40 45
40 40 45
40 40 45
39 40 45
39 40 45
39 40 44
39 39 44
39 39 44
39 39 44
39 39 44
48 48 53
48 48 54
48 48 54
48 48 54
48 48 54
48 48 54
48 48 54
48 48 54
48 49 54
48 49 54
49 49 54
49 49 55
49 49 55
49 49 55
49 49 55
49 49 55
49 49 55
49 49 55
49 50 55
49 50 55
49 50 55
50 50 56
50 50 56
50 50 56
50 50 56
50 50 56
50 50 56
50 50 56
50 50 56
50 50 56
50 50 56
50 51 56
50 51 56
50 51 57
51 51 57
51 51 57
51 51 57
51 51 57
51 51 57
51 51 57
51 51 57
51 51 57
51 51 57
51 51 57
51 51 57
51 51 57
51 51 57
51 51 57
51 51 57
51 51 57
51 51 57
51 51 57
51 51 57
51 52 57
51 52 58
51 52 58
51 52 58
51 52 58
51 52 58
51 52 58
51 52 58
51 52 58
51 52 58
51 52 58
51 52 58
51 52 58
51 52 58
51 52 58
51 52 58
51 52 58
51 52 58
51 52 58
51 52 58
51 52 57
51 52 57
51 51 57
51 51 57
51 51 57
51 51 57
51 51 57
51 51 57
51 51 57
51 51 57
51 51 57
51 51 57
51 51 57
51 51 57
25 83 97
25 83 96
25 83 96
25 83 96
25 83 96
25 82 96
25 82 96
25 82 95
25 82 95
25 82 95
25 82 95
24 82 95
24 81 95
24 81 94
24 81 94
24 81 94
24 81 94
24 81 94
24 81 94
24 80 93
24 80 93
24 80 93
24 80 93
24 80 93
24 79 92
24 79 92
24 79 92
24 79 92
24 79 92
24 79 91
23 78 91
23 78 91
12 12 15
12 12 15
12 12 15
48 48 54
48 48 54
48 48 54
48 48 54
48 48 53
48 48 53
47 48 53
47 48 53
47 47 53
47 47 53
47 47 53
47 47 53
47 47 53
47 47 52
47 47 52
46 47 52
46 47 52
46 46 52
46 46 52
46 46 52
46 46 52
46 46 51
46 46 51
45 46 51
45 46 51
45 46 51
45 45 51
45 45 51
45 45 51
45 45 50
45 45 50
45 45 50
44 45 50
44 45 50
44 44 50
44 44 50
44 44 50
44 44 49
44 44 49
44 44 49
44 44 49
43 44 49
43 44 49
43 43 49
43 43 49
43 43 48
43 43 48
43 43 48
43 43 48
42 43 48
42 43 48
42 43 48
42 42 48
42 42 47
42 42 47
42 42 47
42 42 47
42 42 47
41 42 47
41 42 47
41 42 47
41 41 46
41 41 46
41 41 46
41 41 46
41 41 46
41 41 46
40 41 46
40 41 46
40 41 46
40 40 45
40 40 45
40 40 45
40 40 45
40 40 45
40 40 45
39 40 45
39 40 45
48 49 54
49 49 54
49 49 55
49 49 55
49 49 55
49 49 55
49 49 55
49 49 55
49 49 55
49 50 55
49 50 55
50 50 56
50 50 56
50 50 56
50 50 56
50 50 56
50 50 56
50 50 56
50 50 56
50 50 56
50 51 56
50 51 57
51 51 57
51 51 57
51 51 57
51 51 57
51 51 57
51 51 57
51 51 57
51 51 57
51 51 57
51 51 57
51 51 57
51 52 57
51 52 58
51 52 58
52 52 58
52 52 58
52 52 58
52 52 58
52 52 58
52 52 58
52 52 58
52 52 58
52 52 58
52 52 58
52 52 58
52 52 58
52 52 58
52 52 58
52 52 58
52 52 58
52 52 58
52 52 58
52 52 58
52 52 58
52 52 58
52 52 58
52 52 59
52 52 59
52 52 59
52 52 59
52 52 59
52 52 59
52 52 59
52 52 59
52 52 59
52 52 59
52 52 58
52 52 58
52 52 58
52 52 58
52 52 58
52 52 58
52 52 58
52 52 58
52 52 58
52 52 58
52 52 58
52 52 58
52 52 58
52 52 58
52 52 58
52 52 58
52 52 58
52 52 58
52 52 58
25 83 96
25 83 96
25 82 96
25 82 96
25 82 96
25 82 95
25 82 95
25 82 95
24 82 95
24 82 95
24 81 95
24 81 94
24 81 94
24 81 94
24 81 94
24 81 94
24 80 94
24 80 93
24 80 93
24 80 93
24 80 93
24 80 93
24 79 92
24 79 92
24 79 92
24 79 92
24 79 92
24 79 91
23 78 91
23 78 91
23 78 91
23 78 91
12 12 15
49 49 55
49 49 55
49 49 55
49 49 55
49 49 54
48 49 54
48 49 54
48 48 54
48 48 54
48 48 54
48 48 54
48 48 54
48 48 54
48 48 53
47 48 53
47 48 53
47 47 53
47 47 53
47 47 53
47 47 53
47 47 53
47 47 52
47 47 52
46 47 52
46 47 52
46 46 52
46 46 52
46 46 52
46 46 52
46 46 51
46 46 51
45 46 51
45 46 51
45 45 51
45 45 51
45 45 51
45 45 51
45 45 50
45 45 50
45 45 50
44 45 50
44 45 50
44 44 50
44 44 50
44 44 49
44 44 49
44 44 49
44 44 49
43 44 49
43 44 49
43 43 49
43 43 49
43 43 48
43 43 48
43 43 48
43 43 48
43 43 48
42 43 48
42 43 48
42 42 48
42 42 47
42 42 47
42 42 47
42 42 47
42 42 47
41 42 47
41 42 47
41 42 47
41 41 47
41 41 46
41 41 46
41 41 46
41 41 46
41 41 46
40 41 46
40 41 46
40 41 46
40 40 45
40 40 45
40 40 45
49 50 55
49 50 55
50 50 56
50 50 56
50 50 56
50 50 56
50 50 56
50 50 56
50 50 56
50 50 56
50 51 56
50 51 57
51 51 57
51 51 57
51 51 57
51 51 57
51 51 57
51 51 57
51 51 57
51 51 57
51 51 57
51 52 57
51 52 58
52 52 58
52 52 58
52 52 58
52 52 58
52 52 58
52 52 58
52 52 58
52 52 58
52 52 58
52 52 58
52 52 58
52 52 58
52 53 59
52 53 59
52 53 59
53 53 59
53 53 59
53 53 59
53 53 59
53 53 59
53 53 59
53 53 59
53 53 59
53 53 59
53 53 59
53 53 59
53 53 59
53 53 59
53 53 59
53 53 59
53 53 59
53 53 59
53 53 59
53 53 59
53 53 59
53 53 59
53 53 59
53 53 59
53 53 59
53 53 59
53 53 59
53 53 59
53 53 59
53 53 59
53 53 59
53 53 59
53 53 59
53 53 59
53 53 59
53 53 59
53 53 59
53 53 59
53 53 59
53 53 59
53 53 59
53 53 59
53 53 59
53 53 59
53 53 59
53 53 59
53 53 59
53 53 59
53 53 59
52 53 59
52 53 59
52 53 59
52 53 59
52 53 59
52 53 58
52 52 58
52 52 58
51 52 58
51 52 58
51 52 58
51 52 58
51 52 58
51 52 58
51 52 58
51 52 58
51 52 58
51 52 57
51 52 57
51 51 57
51 51 57
50 51 57
50 51 57
50 51 57
50 51 57
50 51 57
50 51 57
50 51 56
50 51 56
50 50 56
50 50 56
49 50 56
49 50 56
50 50 56
50 50 56
50 50 56
49 50 55
49 49 55
49 49 55
49 49 55
49 49 55
49 49 55
49 49 55
49 49 55
49 49 54
48 49 54
48 49 54
48 48 54
48 48 54
48 48 54
48 48 54
48 48 54
48 48 53
47 48 53
47 48 53
47 47 53
47 47 53
47 47 53
47 47 53
47 47 53
47 47 52
47 47 52
46 47 52
46 47 52
46 46 52
46 46 52
46 46 52
46 46 52
46 46 51
46 46 51
45 46 51
45 46 51
45 45 51
45 45 51
45 45 51
45 45 51
45 45 50
45 45 50
45 45 50
44 45 50
44 45 50
44 44 50
44 44 50
44 44 49
44 44 49
44 44 49
44 44 49
43 44 49
43 44 49
43 43 49
43 43 49
43 43 48
43 43 48
43 43 48
43 43 48
43 43 48
42 43 48
42 43 48
42 42 48
42 42 47
42 42 47
42 42 47
42 42 47
42 42 47
41 42 47
41 42 47
41 42 47
41 41 47
41 41 46
41 41 46
41 41 46
41 41 46
41 41 46
40 41 46
50 50 56
50 50 56
50 51 56
51 51 57
51 51 57
51 51 57
51 51 57
51 51 57
51 51 57
51 51 57
51 51 57
51 51 57
51 52 58
52 52 58
52 52 58
52 52 58
52 52 58
52 52 58
52 52 58
52 52 58
52 52 58
52 52 58
52 52 58
52 53 59
52 53 59
53 53 59
53 53 59
53 53 59
53 53 59
53 53 59
53 53 59
53 53 59
53 53 59
53 53 59
53 53 59
53 53 59
53 53 60
53 53 60
53 53 60
53 54 60
53 54 60
53 54 60
54 54 60
54 54 60
54 54 60
54 54 60
54 54 60
54 54 60
54 54 60
54 54 60
54 54 60
54 54 60
54 54 60
54 54 60
54 54 60
54 54 60
54 54 60
54 54 60
54 54 60
54 54 60
54 54 60
54 54 60
54 54 60
54 54 60
54 54 60
54 54 60
54 54 60
54 54 60
54 54 60
54 54 60
54 54 60
54 54 60
54 54 60
54 54 60
54 54 60
54 54 60
54 54 60
54 54 60
54 54 60
54 54 60
53 54 60
53 54 60
53 54 60
53 53 60
53 53 60
53 53 60
53 53 59
53 54 60
53 53 59
53 53 59
52 53 59
52 53 59
52 53 59
52 53 59
52 53 59
52 53 59
52 53 59
52 53 59
52 53 59
52 53 59
52 53 58
52 52 58
52 52 58
51 52 58
51 52 58
51 52 58
51 52 58
51 52 58
51 52 58
51 52 58
51 52 58
51 52 57
51 51 57
51 51 57
50 51 57
50 51 57
50 51 57
50 51 57
50 51 57
50 51 56
50 50 56
50 50 56
50 50 56
50 50 56
50 50 56
50 50 56
50 50 56
50 50 56
49 50 55
49 49 55
49 49 55
49 49 55
49 49 55
49 49 55
49 49 55
49 49 55
48 49 54
48 49 54
48 48 54
48 48 54
48 48 54
48 48 54
48 48 54
48 48 53
48 48 53
47 48 53
47 47 53
47 47 53
47 47 53
47 47 53
47 47 53
47 47 52
47 47 52
46 47 52
46 47 52
46 46 52
46 46 52
46 46 52
46 46 52
46 46 51
46 46 51
45 46 51
45 46 51
45 45 51
45 45 51
45 45 51
45 45 50
45 45 50
45 45 50
44 45 50
44 45 50
44 45 50
44 44 50
44 44 50
44 44 49
44 44 49
44 44 49
44 44 49
43 44 49
43 44 49
43 43 49
43 43 49
43 43 48
43 43 48
43 43 48
43 43 48
42 43 48
42 43 48
42 43 48
42 42 48
42 42 47
42 42 47
42 42 47
42 42 47
42 42 47
41 42 47
41 42 47
41 42 47
41 41 46
41 41 46
51 51 57
51 51 57
51 51 57
51 52 57
51 52 58
52 52 58
52 52 58
52 52 58
52 52 58
52 52 58
52 52 58
52 52 58
52 52 58
52 52 59
52 53 59
53 53 59
53 53 59
53 53 59
53 53 59
53 53 59
53 53 59
53 53 59
53 53 59
53 53 59
53 53 60
53 53 60
53 54 60
53 54 60
54 54 60
54 54 60
54 54 60
54 54 60
54 54 60
54 54 60
54 54 60
54 54 60
54 54 60
54 54 60
54 54 61
54 54 61
54 54 61
54 54 61
54 54 61
54 55 61
54 55 61
54 55 61
54 55 61
55 55 61
55 55 61
55 55 61
55 55 61
55 55 61
55 55 61
55 55 61
55 55 61
55 55 61
55 55 61
55 55 61
55 55 61
55 55 61
55 55 61
55 55 61
55 55 61
55 55 61
55 55 61
55 55 61
55 55 61
55 55 61
55 55 61
55 55 61
55 55 61
55 55 61
55 55 61
54 55 61
54 55 61
54 55 61
54 55 61
54 54 61
54 54 61
54 54 61
54 54 61
54 54 61
54 54 60
54 54 60
54 54 60
54 54 60
54 54 60
53 54 60
53 54 60
53 54 60
53 54 60
53 54 60
53 54 60
53 54 60
53 54 60
53 54 60
53 54 60
53 53 59
53 53 59
52 53 59
52 53 59
52 53 59
52 53 59
52 53 59
52 53 59
52 53 59
52 53 59
52 53 59
52 53 58
52 52 58
51 52 58
51 52 58
51 52 58
51 52 58
51 52 58
51 52 58
51 52 58
51 52 57
51 51 57
51 51 57
51 51 57
51 51 57
51 51 57
51 51 57
50 51 57
50 51 56
50 50 56
50 50 56
50 50 56
50 50 56
50 50 56
50 50 56
50 50 56
49 50 55
49 50 55
49 49 55
49 49 55
49 49 55
49 49 55
49 49 55
49 49 55
48 49 54
48 49 54
48 48 54
48 48 54
48 48 54
48 48 54
48 48 54
48 48 53
48 48 53
47 48 53
47 47 53
47 47 53
47 47 53
47 47 53
47 47 53
47 47 52
47 47 52
46 47 52
46 47 52
46 46 52
46 46 52
46 46 52
46 46 51
46 46 51
46 46 51
45 46 51
45 46 51
45 45 51
45 45 51
45 45 51
45 45 50
45 45 50
45 45 50
44 45 50
44 45 50
44 44 50
44 44 50
44 44 50
44 44 49
44 44 49
44 44 49
43 44 49
43 44 49
43 44 49
43 43 49
43 43 49
43 43 48
43 43 48
43 43 48
43 43 48
42 43 48
42 43 48
42 42 48
42 42 48
42 42 47
42 42 47
42 42 47
42 42 47
42 42 47
52 52 58
52 52 58
52 52 58
52 52 58
52 52 58
52 53 59
52 53 59
53 53 59
53 53 59
53 53 59
53 53 59
53 53 59
53 53 59
53 53 59
53 53 60
53 53 60
53 54 60
54 54 60
54 54 60
54 54 60
54 54 60
54 54 60
54 54 60
54 54 60
54 54 60
54 54 60
54 54 61
54 54 61
54 54 61
54 55 61
54 55 61
55 55 61
55 55 61
55 55 61
55 55 61
55 55 61
55 55 61
55 55 61
55 55 61
55 55 61
55 55 61
55 55 61
55 55 62
55 55 62
55 55 62
55 55 62
55 55 62
55 55 62
55 55 62
55 55 62
55 55 62
55 55 62
55 55 62
55 56 62
55 56 62
55 56 62
55 56 62
55 56 62
55 56 62
55 56 62
55 56 62
55 56 62
55 56 62
55 56 62
55 56 62
55 55 62
55 55 62
55 55 62
55 55 62
55 55 62
55 55 62
55 55 62
55 55 62
55 55 62
55 55 62
55 55 62
55 55 61
55 55 61
55 55 61
55 55 61
55 55 61
55 55 61
55 55 61
55 55 61
55 55 61
55 55 61
55 55 61
54 55 61
54 55 61
54 55 61
54 55 61
54 55 61
54 55 61
54 54 61
54 54 60
53 54 60
53 54 60
53 54 60
53 54 60
53 54 60
53 54 60
53 54 60
53 54 60
53 54 60
53 54 60
53 53 59
52 53 59
52 53 59
52 53 59
52 53 59
52 53 59
52 53 59
52 53 59
52 53 59
52 53 58
52 52 58
51 52 58
51 52 58
51 52 58
52 52 58
52 52 58
51 52 58
51 51 57
51 51 57
51 51 57
51 51 57
51 51 57
51 51 57
51 51 57
50 51 57
50 51 56
50 50 56
50 50 56
50 50 56
50 50 56
50 50 56
50 50 56
50 50 56
49 50 55
49 49 55
49 49 55
49 49 55
49 49 55
49 49 55
49 49 55
49 49 54
48 49 54
48 49 54
48 48 54
48 48 54
48 48 54
48 48 54
48 48 54
48 48 53
47 48 53
47 48 53
47 47 53
47 47 53
47 47 53
47 47 53
47 47 52
47 47 52
46 47 52
46 47 52
46 46 52
46 46 52
46 46 52
46 46 52
46 46 51
46 46 51
45 46 51
45 46 51
45 45 51
45 45 51
45 45 51
45 45 50
45 45 50
45 45 50
44 45 50
44 45 50
44 45 50
44 44 50
44 44 50
44 44 49
44 44 49
44 44 49
44 44 49
43 44 49
43 44 49
43 43 49
43 43 49
43 43 48
43 43 48
43 43 48
43 43 48
42 43 48
42 43 48
42 43 48
42 42 48
42 42 47
53 53 59
53 53 59
53 53 59
53 53 59
53 53 59
53 53 59
53 53 60
53 53 60
53 54 60
54 54 60
54 54 60
54 54 60
54 54 60
54 54 60
54 54 60
54 54 60
54 54 61
54 54 61
54 54 61
54 55 61
55 55 61
55 55 61
55 55 61
55 55 61
55 55 61
55 55 61
55 55 61
55 55 61
55 55 62
55 55 62
55 55 62
55 55 62
55 55 62
55 56 62
55 56 62
56 56 62
56 56 62
56 56 62
56 56 62
56 56 62
56 56 62
56 56 62
56 56 62
56 56 62
56 56 62
56 56 62
56 56 62
56 56 62
56 56 63
56 56 63
56 56 63
56 56 63
56 56 63
56 56 63
56 56 63
56 56 63
56 56 63
56 56 63
56 56 63
56 56 63
56 56 63
56 56 63
56 56 63
56 56 63
56 56 63
56 56 63
56 56 63
56 56 63
56 56 62
56 56 62
56 56 62
56 56 62
56 56 62
56 56 62
56 56 62
56 56 62
56 56 62
56 56 62
56 56 62
56 56 62
56 56 62
55 56 62
55 56 62
55 56 62
55 55 62
55 55 62
55 55 62
55 55 62
55 55 62
55 55 62
54 55 61
54 55 61
54 55 61
54 55 61
54 55 61
54 55 61
54 55 61
54 55 61
54 55 61
54 55 61
54 54 61
54 54 60
53 54 60
53 54 60
53 54 60
53 54 60
53 54 60
53 54 60
53 54 60
53 54 60
53 54 60
53 53 59
52 53 59
52 53 59
52 53 59
52 53 59
52 53 59
52 53 59
52 53 59
52 52 58
52 52 58
52 52 58
52 52 58
52 52 58
52 52 58
52 52 58
51 52 58
51 51 57
51 51 57
51 51 57
51 51 57
51 51 57
51 51 57
51 51 57
50 51 57
50 51 56
50 50 56
50 50 56
50 50 56
50 50 56
50 50 56
50 50 56
49 50 55
49 50 55
49 49 55
49 49 55
49 49 55
49 49 55
49 49 55
49 49 55
48 49 54
48 49 54
48 48 54
48 48 54
48 48 54
48 48 54
48 48 54
48 48 53
47 48 53
47 48 53
47 47 53
47 47 53
47 47 53
47 47 53
47 47 53
47 47 52
46 47 52
46 47 52
46 46 52
46 46 52
46 46 52
46 46 52
46 46 51
46 46 51
45 46 51
45 46 51
45 45 51
45 45 51
45 45 51
45 45 51
45 45 50
45 45 50
45 45 50
44 45 50
44 45 50
44 44 50
44 44 50
44 44 49
44 44 49
44 44 49
44 44 49
43 44 49
43 44 49
43 43 49
43 43 49
43 43 48
43 43 48
43 43 48
43 43 48
43 43 48
53 54 60
53 54 60
54 54 60
54 54 60
54 54 60
54 54 60
54 54 60
54 54 60
54 54 61
54 54 61
54 55 61
55 55 61
55 55 61
55 55 61
55 55 61
55 55 61
55 55 61
55 55 61
55 55 62
55 55 62
55 55 62
55 55 62
55 56 62
56 56 62
56 56 62
56 56 62
56 56 62
56 56 62
56 56 62
56 56 62
56 56 62
56 56 63
56 56 63
56 56 63
56 56 63
56 56 63
56 56 63
56 56 63
56 56 63
56 57 63
56 57 63
57 57 63
57 57 63
57 57 63
57 57 63
57 57 63
57 57 63
57 57 63
57 57 63
57 57 63
57 57 63
57 57 63
57 57 63
57 57 63
57 57 63
57 57 63
57 57 63
57 57 63
57 57 63
57 57 63
57 57 63
57 57 63
57 57 63
57 57 63
57 57 63
57 57 63
57 57 63
57 57 63
57 57 63
57 57 63
57 57 63
57 57 63
57 57 63
56 57 63
56 57 63
56 57 63
56 56 63
56 56 63
56 56 63
56 56 63
56 56 63
56 56 63
56 56 63
56 56 62
56 56 62
56 56 62
56 56 62
55 56 62
55 56 62
55 56 62
55 56 62
55 56 62
55 56 62
55 56 62
55 56 62
55 55 62
55 55 62
55 55 62
54 55 61
54 55 61
54 55 61
54 55 61
54 55 61
54 55 61
54 55 61
54 55 61
54 54 61
54 54 60
53 54 60
53 54 60
53 54 60
53 54 60
53 54 60
53 54 60
53 54 60
53 54 60
53 53 59
53 53 59
52 53 59
53 53 59
53 53 59
53 53 59
52 53 59
52 52 59
52 52 58
52 52 58
52 52 58
52 52 58
52 52 58
52 52 58
51 52 58
51 52 58
51 51 57
51 51 57
51 51 57
51 51 57
51 51 57
51 51 57
51 51 57
50 51 56
50 50 56
50 50 56
50 50 56
50 50 56
50 50 56
50 50 56
50 50 56
49 50 55
49 49 55
49 49 55
49 49 55
49 49 55
49 49 55
49 49 55
49 49 54
48 49 54
48 48 54
48 48 54
48 48 54
48 48 54
48 48 54
48 48 53
47 48 53
47 48 53
47 47 53
47 47 53
47 47 53
47 47 53
47 47 53
47 47 52
46 47 52
46 47 52
46 46 52
46 46 52
46 46 52
46 46 52
46 46 51
46 46 51
45 46 51
45 46 51
45 45 51
45 45 51
45 45 51
45 45 51
45 45 50
45 45 50
45 45 50
44 45 50
44 45 50
44 44 50
44 44 50
44 44 50
44 44 49
44 44 49
44 44 49
43 44 49
43 44 49
43 44 49
43 43 49
43 43 49
54 54 60
54 54 61
54 54 61
54 55 61
55 55 61
55 55 61
55 55 61
55 55 61
55 55 61
55 55 61
55 55 62
55 55 62
55 55 62
55 56 62
55 56 62
56 56 62
56 56 62
56 56 62
56 56 62
56 56 62
56 56 62
56 56 63
56 56 63
56 56 63
56 56 63
56 56 63
56 57 63
56 57 63
57 57 63
57 57 63
57 57 63
57 57 63
57 57 63
57 57 63
57 57 63
57 57 63
57 57 64
57 57 64
57 57 64
57 57 64
57 57 64
57 57 64
57 57 64
57 57 64
57 57 64
57 57 64
57 57 64
57 57 64
57 57 64
57 57 64
57 58 64
57 58 64
57 58 64
57 58 64
57 58 64
57 58 64
57 58 64
57 58 64
57 58 64
57 58 64
57 58 64
57 58 64
57 57 64
57 57 64
57 57 64
57 57 64
57 57 64
57 57 64
57 57 64
57 57 64
57 57 64
57 57 64
57 57 64
57 57 64
57 57 64
57 57 64
57 57 64
57 57 63
57 57 63
57 57 63
57 57 63
57 57 63
57 57 63
57 57 63
57 57 63
56 57 63
56 56 63
56 57 63
56 57 63
56 57 63
56 56 63
56 56 63
55 56 63
55 56 62
55 56 62
55 56 62
55 56 62
55 56 62
55 56 62
55 56 62
55 56 62
55 56 62
55 55 62
55 55 62
54 55 61
54 55 61
54 55 61
54 55 61
54 55 61
54 55 61
54 55 61
54 55 61
54 54 60
53 54 60
53 54 60
53 54 60
53 54 60
53 54 60
53 54 60
53 53 60
53 53 59
53 53 59
53 53 59
53 53 59
53 53 59
53 53 59
52 53 59
52 53 59
52 52 58
52 52 58
52 52 58
52 52 58
52 52 58
52 52 58
52 52 58
51 52 58
51 51 57
51 51 57
51 51 57
51 51 57
51 51 57
51 51 57
51 51 57
50 51 56
50 50 56
50 50 56
50 50 56
50 50 56
50 50 56
50 50 56
50 50 56
49 50 55
49 49 55
49 49 55
49 49 55
49 49 55
49 49 55
49 49 55
48 49 54
48 49 54
48 48 54
48 48 54
48 48 54
48 48 54
48 48 54
48 48 53
47 48 53
47 48 53
47 47 53
47 47 53
47 47 53
47 47 53
47 47 53
47 47 52
46 47 52
46 47 52
46 46 52
46 46 52
46 46 52
46 46 52
46 46 51
46 46 51
45 46 51
45 46 51
45 45 51
45 45 51
45 45 51
45 45 51
45 45 50
45 45 50
45 45 50
44 45 50
44 45 50
44 44 50
44 44 50
44 44 50
44 44 49
44 44 49
44 44 49
43 44 49
55 55 61
55 55 61
55 55 61
55 55 62
55 55 62
55 55 62
55 56 62
56 56 62
56 56 62
56 56 62
56 56 62
56 56 62
56 56 63
56 56 63
56 56 63
56 56 63
56 56 63
56 57 63
57 57 63
57 57 63
57 57 63
57 57 63
57 57 63
57 57 63
57 57 64
57 57 64
57 57 64
57 57 64
57 57 64
57 57 64
57 57 64
57 57 64
57 58 64
58 58 64
58 58 64
58 58 64
58 58 64
58 58 64
58 58 64
58 58 64
58 58 64
58 58 64
58 58 64
58 58 65
58 58 65
58 58 65
58 58 65
58 58 65
58 58 65
58 58 65
58 58 65
58 58 65
58 58 65
58 58 65
58 58 65
58 58 65
58 58 65
58 58 65
58 58 65
58 58 65
58 58 65
58 58 65
58 58 65
58 58 65
58 58 65
58 58 65
58 58 65
58 58 65
58 58 64
58 58 64
58 58 64
58 58 64
58 58 64
58 58 64
58 58 64
58 58 64
58 58 64
57 58 64
57 58 64
57 57 64
57 57 64
57 57 64
57 57 64
57 57 64
57 57 64
57 57 64
57 57 64
56 57 64
56 57 63
56 57 63
56 57 63
56 57 63
56 57 63
56 57 63
56 57 63
56 57 63
56 57 63
56 56 63
56 56 63
55 56 62
55 56 62
55 56 62
55 56 62
55 56 62
55 56 62
55 56 62
55 56 62
55 55 62
55 55 62
54 55 61
54 55 61
54 55 61
54 55 61
54 55 61
54 55 61
54 55 61
54 54 61
54 54 60
53 54 60
54 54 60
54 54 60
54 54 60
53 54 60
53 53 60
53 53 60
53 53 59
53 53 59
53 53 59
53 53 59
53 53 59
53 53 59
52 53 59
52 52 58
52 52 58
52 52 58
52 52 58
52 52 58
52 52 58
52 52 58
51 52 58
51 51 57
51 51 57
51 51 57
51 51 57
51 51 57
51 51 57
51 51 57
50 51 56
50 50 56
50 50 56
50 50 56
50 50 56
50 50 56
50 50 56
49 50 55
49 50 55
49 49 55
49 49 55
49 49 55
49 49 55
49 49 55
49 49 55
48 49 54
48 49 54
48 48 54
48 48 54
48 48 54
48 48 54
48 48 54
48 48 53
47 48 53
47 48 53
47 47 53
47 47 53
47 47 53
47 47 53
47 47 52
47 47 52
46 47 52
46 47 52
46 46 52
46 46 52
46 46 52
46 46 52
46 46 51
46 46 51
45 46 51
45 46 51
45 45 51
45 45 51
45 45 51
45 45 51
45 45 50
45 45 50
45 45 50
44 45 50
44 45 50
44 44 50
44 44 50
44 44 49
56 56 62
56 56 62
56 56 62
56 56 62
56 56 62
56 56 63
56 56 63
56 56 63
56 56 63
56 57 63
57 57 63
57 57 63
57 57 63
57 57 63
57 57 63
57 57 64
57 57 64
57 57 64
57 57 64
57 57 64
57 57 64
57 58 64
57 58 64
58 58 64
58 58 64
58 58 64
58 58 64
58 58 64
58 58 64
58 58 65
58 58 65
58 58 65
58 58 65
58 58 65
58 58 65
58 58 65
58 58 65
58 58 65
58 58 65
58 58 65
58 58 65
58 59 65
58 59 65
59 59 65
59 59 65
59 59 65
59 59 65
59 59 65
59 59 65
59 59 65
59 59 65
59 59 65
59 59 65
59 59 65
59 59 65
59 59 65
59 59 65
59 59 65
59 59 65
59 59 65
59 59 65
59 59 65
59 59 65
59 59 65
59 59 65
59 59 65
58 59 65
58 59 65
58 58 65
58 58 65
58 58 65
58 58 65
58 58 65
58 58 65
58 58 65
58 58 65
58 58 65
58 58 65
58 58 65
58 58 65
58 58 64
58 58 64
58 58 64
58 58 64
58 58 64
58 58 64
57 58 64
57 58 64
57 58 64
57 58 64
57 58 64
57 57 64
57 57 64
56 57 64
56 57 64
56 57 63
56 57 63
56 57 63
56 57 63
56 57 63
56 57 63
56 57 63
56 56 63
56 56 63
55 56 63
55 56 62
55 56 62
55 56 62
55 56 62
55 56 62
55 56 62
55 56 62
55 55 62
54 55 61
54 55 61
54 55 61
54 55 61
54 55 61
54 55 61
54 54 61
54 54 61
54 54 60
54 54 60
54 54 60
54 54 60
54 54 60
53 54 60
53 53 60
53 53 60
53 53 59
53 53 59
53 53 59
53 53 59
53 53 59
52 53 59
52 53 59
52 52 58
52 52 58
52 52 58
52 52 58
52 52 58
52 52 58
51 52 58
51 52 57
51 51 57
51 51 57
51 51 57
51 51 57
51 51 57
51 51 57
50 51 57
50 51 56
50 50 56
50 50 56
50 50 56
50 50 56
50 50 56
50 50 56
49 50 55
49 49 55
49 49 55
49 49 55
49 49 55
49 49 55
49 49 55
49 49 54
48 49 54
48 48 54
48 48 54
48 48 54
48 48 54
48 48 54
48 48 53
48 48 53
47 48 53
47 47 53
47 47 53
47 47 53
47 47 53
47 47 53
47 47 52
47 47 52
46 47 52
46 47 52
46 46 52
46 46 52
46 46 52
46 46 51
46 46 51
46 46 51
45 46 51
45 46 51
45 45 51
45 45 51
45 45 51
45 45 50
45 45 50
45 45 50
44 45 50
44 45 50
56 56 63
56 56 63
56 57 63
57 57 63
57 57 63
57 57 63
57 57 63
57 57 63
57 57 64
57 57 64
57 57 64
57 57 64
57 57 64
57 58 64
58 58 64
58 58 64
58 58 64
58 58 64
58 58 64
58 58 65
58 58 65
58 58 65
58 58 65
58 58 65
58 58 65
58 58 65
58 58 65
58 59 65
58 59 65
59 59 65
59 59 65
59 59 65
59 59 65
59 59 65
59 59 65
59 59 66
59 59 66
59 59 66
59 59 66
59 59 66
59 59 66
59 59 66
59 59 66
59 59 66
59 59 66
59 59 66
59 59 66
59 59 66
59 59 66
59 59 66
59 59 66
59 59 66
59 59 66
59 59 66
59 59 66
59 59 66
59 59 66
59 59 66
59 59 66
59 59 66
59 59 66
59 59 66
59 59 66
59 59 66
59 59 66
59 59 66
59 59 66
59 59 66
59 59 66
59 59 66
59 59 66
59 59 66
59 59 65
59 59 65
59 59 65
59 59 65
59 59 65
59 59 65
58 59 65
58 58 65
58 58 65
58 58 65
58 58 65
58 58 65
58 58 65
58 58 65
58 58 65
57 58 65
57 58 65
57 58 65
57 58 64
57 58 64
57 58 64
57 58 64
57 58 64
57 58 64
57 57 64
57 57 64
56 57 64
56 57 64
56 57 63
56 57 63
56 57 63
56 57 63
56 57 63
56 57 63
56 57 63
56 56 63
56 56 63
55 56 62
55 56 62
55 56 62
55 56 62
55 56 62
55 56 62
55 56 62
55 55 62
55 55 61
54 55 61
55 55 61
55 55 61
55 55 61
54 55 61
54 54 61
54 54 61
54 54 60
54 54 60
54 54 60
54 54 60
54 54 60
53 54 60
53 53 60
53 53 59
53 53 59
53 53 59
53 53 59
53 53 59
53 53 59
52 53 59
52 52 59
52 52 58
52 52 58
52 52 58
52 52 58
52 52 58
52 52 58
51 52 58
51 51 57
51 51 57
51 51 57
51 51 57
51 51 57
51 51 57
51 51 57
50 51 56
50 50 56
50 50 56
50 50 56
50 50 56
50 50 56
50 50 56
49 50 55
49 50 55
49 49 55
49 49 55
49 49 55
49 49 55
49 49 55
49 49 55
48 49 54
48 49 54
48 48 54
48 48 54
48 48 54
48 48 54
48 48 54
48 48 53
47 48 53
47 48 53
47 47 53
47 47 53
47 47 53
47 47 53
47 47 52
47 47 52
46 47 52
46 47 52
46 46 52
46 46 52
46 46 52
46 46 52
46 46 51
46 46 51
45 46 51
45 46 51
45 45 51
45 45 51
45 45 51
45 45 51
45 45 50
57 57 63
57 57 63
57 57 64
57 57 64
57 57 64
57 57 64
57 58 64
58 58 64
58 58 64
58 58 64
58 58 64
58 58 64
58 58 65
58 58 65
58 58 65
58 58 65
58 58 65
58 58 65
58 59 65
58 59 65
59 59 65
59 59 65
59 59 65
59 59 65
59 59 66
59 59 66
59 59 66
59 59 66
59 59 66
59 59 66
59 59 66
59 59 66
59 59 66
59 59 66
59 59 66
59 59 66
59 59 66
59 60 66
59 60 66
60 60 66
60 60 66
60 60 66
60 60 66
60 60 66
60 60 66
60 60 66
60 60 66
60 60 66
60 60 66
60 60 66
60 60 66
60 60 66
60 60 66
60 60 66
60 60 66
60 60 66
60 60 66
60 60 66
60 60 66
60 60 66
60 60 66
60 60 66
60 60 66
60 60 66
60 60 66
60 60 66
60 60 66
59 60 66
59 59 66
59 59 66
59 59 66
59 59 66
59 59 66
59 59 66
59 59 66
59 59 66
59 59 66
59 59 66
59 59 66
59 59 66
59 59 66
59 59 65
59 59 65
59 59 65
59 59 65
59 59 65
58 59 65
58 59 65
58 59 65
58 59 65
58 58 65
58 58 65
57 58 65
57 58 65
57 58 65
57 58 64
57 58 64
57 58 64
57 58 64
57 58 64
57 58 64
57 57 64
57 57 64
56 57 64
56 57 64
56 57 63
56 57 63
56 57 63
56 57 63
56 57 63
56 57 63
56 56 63
56 56 63
55 56 62
55 56 62
55 56 62
55 56 62
55 56 62
55 56 62
55 55 62
55 55 62
55 55 61
55 55 61
55 55 61
55 55 61
54 55 61
54 54 61
54 54 61
54 54 60
54 54 60
54 54 60
54 54 60
54 54 60
54 54 60
53 54 60
53 53 60
53 53 59
53 53 59
53 53 59
53 53 59
53 53 59
52 53 59
52 53 59
52 52 58
52 52 58
52 52 58
52 52 58
52 52 58
52 52 58
51 52 58
51 51 57
51 51 57
51 51 57
51 51 57
51 51 57
51 51 57
51 51 57
50 51 56
50 50 56
50 50 56
50 50 56
50 50 56
50 50 56
50 50 56
50 50 56
49 50 55
49 49 55
49 49 55
49 49 55
49 49 55
49 49 55
49 49 55
48 49 54
48 49 54
48 48 54
48 48 54
48 48 54
48 48 54
48 48 54
48 48 53
47 48 53
47 48 53
47 47 53
47 47 53
47 47 53
47 47 53
47 47 53
47 47 52
47 47 52
46 47 52
46 46 52
46 46 52
46 46 52
46 46 52
46 46 51
46 46 51
46 46 51
45 46 51
45 46 51
45 45 51
57 58 64
58 58 64
58 58 64
58 58 64
58 58 64
58 58 65
58 58 65
58 58 65
58 58 65
58 58 65
58 58 65
58 59 65
59 59 65
59 59 65
59 59 65
59 59 65
59 59 66
59 59 66
59 59 66
59 59 66
59 59 66
59 59 66
59 59 66
59 59 66
59 59 66
59 60 66
60 60 66
60 60 66
60 60 66
60 60 66
60 60 66
60 60 67
60 60 67
60 60 67
60 60 67
60 60 67
60 60 67
60 60 67
60 60 67
60 60 67
60 60 67
60 60 67
60 60 67
60 60 67
60 60 67
60 60 67
60 60 67
60 60 67
60 60 67
60 60 67
60 60 67
60 60 67
60 60 67
60 60 67
60 60 67
60 60 67
60 60 67
60 60 67
60 60 67
60 60 67
60 60 67
60 60 67
60 60 67
60 60 67
60 60 67
60 60 67
60 60 67
60 60 67
60 60 67
60 60 67
60 60 67
60 60 67
60 60 66
60 60 66
60 60 66
60 60 66
60 60 66
59 60 66
59 59 66
59 59 66
59 59 66
59 59 66
59 59 66
59 59 66
59 59 66
59 59 66
59 59 66
58 59 66
58 59 66
58 59 65
58 59 65
58 59 65
58 59 65
58 59 65
58 59 65
58 58 65
58 58 65
57 58 65
57 58 65
57 58 65
57 58 64
57 58 64
57 58 64
57 58 64
57 58 64
57 57 64
57 57 64
56 57 64
56 57 63
56 57 63
56 57 63
56 57 63
56 57 63
56 57 63
56 56 63
56 56 63
55 56 63
55 56 62
55 56 62
56 56 62
55 56 62
55 55 62
55 55 62
55 55 62
55 55 61
55 55 61
55 55 61
55 55 61
55 55 61
54 55 61
54 54 61
54 54 61
54 54 60
54 54 60
54 54 60
54 54 60
54 54 60
53 54 60
53 53 60
53 53 59
53 53 59
53 53 59
53 53 59
53 53 59
53 53 59
52 53 59
52 52 58
52 52 58
52 52 58
52 52 58
52 52 58
52 52 58
51 52 58
51 52 57
51 51 57
51 51 57
51 51 57
51 51 57
51 51 57
51 51 57
50 51 57
50 50 56
50 50 56
50 50 56
50 50 56
50 50 56
50 50 56
50 50 56
49 50 55
49 49 55
49 49 55
49 49 55
49 49 55
49 49 55
49 49 55
49 49 54
48 49 54
48 48 54
48 48 54
48 48 54
48 48 54
48 48 54
48 48 54
48 48 53
47 48 53
47 47 53
47 47 53
47 47 53
47 47 53
47 47 53
47 47 52
47 47 52
46 47 52
46 47 52
46 46 52
46 46 52
46 46 52
46 46 52
46 46 51
46 46 51
58 58 65
58 58 65
58 58 65
58 58 65
58 58 65
59 59 65
59 59 65
59 59 65
59 59 65
59 59 66
59 59 66
59 59 66
59 59 66
59 59 66
59 59 66
59 59 66
59 59 66
59 60 66
60 60 66
60 60 66
60 60 66
60 60 67
60 60 67
60 60 67
60 60 67
60 60 67
60 60 67
60 60 67
60 60 67
60 60 67
60 60 67
60 60 67
60 60 67
60 60 67
60 60 67
60 60 67
60 61 67
61 61 67
61 61 67
61 61 67
61 61 67
61 61 67
61 61 67
61 61 67
61 61 67
61 61 68
61 61 68
61 61 68
61 61 68
61 61 68
61 61 68
61 61 68
61 61 68
61 61 68
61 61 68
61 61 68
61 61 67
61 61 67
61 61 67
61 61 67
61 61 67
61 61 67
61 61 67
61 61 67
60 61 67
60 61 67
60 60 67
60 60 67
60 60 67
60 60 67
60 60 67
60 60 67
60 60 67
60 60 67
60 60 67
60 60 67
60 60 67
60 60 67
60 60 67
60 60 67
60 60 66
60 60 66
60 60 66
60 60 66
59 59 66
59 59 66
59 59 66
59 60 66
59 59 66
59 59 66
58 59 66
58 59 66
58 59 66
58 59 66
58 59 65
58 59 65
58 59 65
58 59 65
58 59 65
58 58 65
58 58 65
57 58 65
57 58 65
57 58 65
57 58 64
57 58 64
57 58 64
57 58 64
57 58 64
57 57 64
57 57 64
56 57 64
56 57 63
56 57 63
56 57 63
56 57 63
56 57 63
56 57 63
56 56 63
56 56 62
56 56 62
56 56 62
56 56 62
56 56 62
55 56 62
55 55 62
55 55 62
55 55 61
55 55 61
55 55 61
55 55 61
55 55 61
54 55 61
54 54 61
54 54 61
54 54 60
54 54 60
54 54 60
54 54 60
54 54 60
53 54 60
53 53 60
53 53 59
53 53 59
53 53 59
53 53 59
53 53 59
53 53 59
52 53 59
52 52 58
52 52 58
52 52 58
52 52 58
52 52 58
52 52 58
51 52 58
51 52 57
51 51 57
51 51 57
51 51 57
51 51 57
51 51 57
51 51 57
50 51 57
50 50 56
50 50 56
50 50 56
50 50 56
50 50 56
50 50 56
50 50 56
49 50 55
49 49 55
49 49 55
49 49 55
49 49 55
49 49 55
49 49 55
49 49 54
48 49 54
48 48 54
48 48 54
48 48 54
48 48 54
48 48 54
48 48 54
48 48 53
47 48 53
47 48 53
47 47 53
47 47 53
47 47 53
47 47 53
47 47 52
47 47 52
46 47 52
46 47 52
46 46 52
46 46 52
46 46 52
59 59 65
59 59 65
59 59 65
59 59 66
59 59 66
59 59 66
59 59 66
59 59 66
59 59 66
59 59 66
59 60 66
60 60 66
60 60 66
60 60 66
60 60 67
60 60 67
60 60 67
60 60 67
60 60 67
60 60 67
60 60 67
60 60 67
60 60 67
60 60 67
60 60 67
60 61 67
61 61 67
61 61 67
61 61 67
61 61 68
61 61 68
61 61 68
61 61 68
61 61 68
61 61 68
61 61 68
61 61 68
61 61 68
61 61 68
61 61 68
61 61 68
61 61 68
61 61 68
61 61 68
61 61 68
61 61 68
61 61 68
61 61 68
61 61 68
61 61 68
61 61 68
61 61 68
61 61 68
61 61 68
61 61 68
61 61 68
61 61 68
61 61 68
61 61 68
61 61 68
61 61 68
61 61 68
61 61 68
61 61 68
61 61 68
61 61 68
61 61 68
61 61 68
61 61 68
61 61 68
61 61 67
61 61 67
61 61 67
61 61 67
60 61 67
60 60 67
60 60 67
60 60 67
60 60 67
60 60 67
60 60 67
60 60 67
60 60 67
60 60 67
60 60 67
60 60 67
60 60 66
59 60 67
59 60 66
59 60 66
59 60 66
59 60 66
59 60 66
59 59 66
59 59 66
58 59 66
58 59 66
58 59 66
58 59 65
58 59 65
58 59 65
58 59 65
58 59 65
58 58 65
58 58 65
57 58 65
57 58 65
57 58 64
57 58 64
57 58 64
57 58 64
57 58 64
57 57 64
57 57 64
56 57 64
56 57 63
56 57 63
56 57 63
56 57 63
56 56 63
56 56 63
56 56 63
56 56 63
56 56 62
56 56 62
56 56 62
56 56 62
55 56 62
55 55 62
55 55 62
55 55 61
55 55 61
55 55 61
55 55 61
55 55 61
54 55 61
54 54 61
54 54 61
54 54 60
54 54 60
54 54 60
54 54 60
54 54 60
53 54 60
53 53 60
53 53 59
53 53 59
53 53 59
53 53 59
53 53 59
52 53 59
52 53 59
52 52 58
52 52 58
52 52 58
52 52 58
52 52 58
52 52 58
51 52 58
51 52 57
51 51 57
51 51 57
51 51 57
51 51 57
51 51 57
51 51 57
50 51 57
50 50 56
50 50 56
50 50 56
50 50 56
50 50 56
50 50 56
50 50 56
49 50 55
49 49 55
49 49 55
49 49 55
49 49 55
49 49 55
49 49 55
49 49 54
48 49 54
48 48 54
48 48 54
48 48 54
48 48 54
48 48 54
48 48 54
48 48 53
47 48 53
47 48 53
47 47 53
47 47 53
47 47 53
47 47 53
47 47 52
47 47 52
46 47 52
46 47 52
59 59 66
59 59 66
59 59 66
59 59 66
59 60 66
60 60 66
60 60 66
60 60 67
60 60 67
60 60 67
60 60 67
60 60 67
60 60 67
60 60 67
60 60 67
60 60 67
60 60 67
60 61 67
61 61 67
61 61 67
61 61 68
61 61 68
61 61 68
61 61 68
61 61 68
61 61 68
61 61 68
61 61 68
61 61 68
61 61 68
61 61 68
61 61 68
61 61 68
61 61 68
61 61 68
61 61 68
61 61 68
61 61 68
61 61 68
61 62 68
61 62 68
62 62 68
62 62 68
62 62 68
62 62 68
62 62 68
62 62 68
62 62 68
62 62 68
62 62 68
62 62 68
62 62 68
62 62 68
62 62 68
62 62 68
62 62 68
61 62 68
61 62 68
61 61 68
61 61 68
61 61 68
61 61 68
61 61 68
61 61 68
61 61 68
61 61 68
61 61 68
61 61 68
61 61 68
61 61 68
61 61 68
61 61 68
61 61 68
61 61 68
61 61 68
61 61 68
61 61 68
61 61 68
61 61 67
61 61 67
60 61 67
60 60 67
60 60 67
60 60 67
60 60 67
60 60 67
60 60 67
59 60 67
59 60 67
59 60 67
59 60 67
59 60 67
59 60 66
59 60 66
59 60 66
59 60 66
59 60 66
59 59 66
59 59 66
58 59 66
58 59 66
58 59 66
58 59 65
58 59 65
58 59 65
58 59 65
58 58 65
58 58 65
57 58 65
57 58 65
57 58 64
57 58 64
57 58 64
57 58 64
57 58 64
57 57 64
57 57 64
56 57 64
56 57 63
57 57 63
57 57 63
56 57 63
56 56 63
56 56 63
56 56 63
56 56 63
56 56 62
56 56 62
56 56 62
56 56 62
55 56 62
55 55 62
55 55 62
55 55 61
55 55 61
55 55 61
55 55 61
55 55 61
54 55 61
54 54 61
54 54 60
54 54 60
54 54 60
54 54 60
54 54 60
54 54 60
53 54 60
53 53 60
53 53 59
53 53 59
53 53 59
53 53 59
53 53 59
52 53 59
52 52 59
52 52 58
52 52 58
52 52 58
52 52 58
52 52 58
52 52 58
51 52 58
51 51 57
51 51 57
51 51 57
51 51 57
51 51 57
51 51 57
51 51 57
50 51 56
50 50 56
50 50 56
50 50 56
50 50 56
50 50 56
50 50 56
50 50 56
49 50 55
49 49 55
49 49 55
49 49 55
49 49 55
49 49 55
49 49 55
49 49 54
48 49 54
48 48 54
48 48 54
48 48 54
48 48 54
48 48 54
48 48 54
48 48 53
47 48 53
47 48 53
47 47 53
47 47 53
47 47 53
47 47 53
47 47 52
60 60 66
60 60 66
60 60 67
60 60 67
60 60 67
60 60 67
60 60 67
60 60 67
60 60 67
60 60 67
60 61 67
61 61 67
61 61 67
61 61 68
61 61 68
61 61 68
61 61 68
61 61 68
61 61 68
61 61 68
61 61 68
61 61 68
61 61 68
61 61 68
61 61 68
61 61 68
61 61 68
62 62 68
62 62 68
62 62 68
62 62 69
62 62 69
62 62 69
62 62 69
62 62 69
62 62 69
62 62 69
62 62 69
62 62 69
62 62 69
62 62 69
62 62 69
62 62 69
62 62 69
62 62 69
62 62 69
62 62 69
62 62 69
62 62 69
62 62 69
62 62 69
62 62 69
62 62 69
62 62 69
62 62 69
62 62 69
62 62 69
62 62 69
62 62 69
62 62 69
62 62 69
62 62 69
62 62 69
62 62 69
62 62 69
62 62 69
62 62 68
62 62 68
61 62 68
61 61 68
61 61 68
61 61 68
61 61 68
61 61 68
61 61 68
61 61 68
61 61 68
61 61 68
61 61 68
61 61 68
61 61 68
61 61 68
61 61 68
61 61 67
61 61 67
60 61 67
60 60 67
60 61 67
60 61 67
60 60 67
60 60 67
59 60 67
59 60 67
59 60 67
59 60 67
59 60 67
59 60 66
59 60 66
59 60 66
59 60 66
59 59 66
59 59 66
58 59 66
58 59 66
58 59 66
58 59 65
58 59 65
58 59 65
58 59 65
58 59 65
58 58 65
57 58 65
57 58 65
57 58 64
57 58 64
57 58 64
57 58 64
57 58 64
57 57 64
57 57 64
57 57 64
57 57 63
57 57 63
57 57 63
56 57 63
56 56 63
56 56 63
56 56 63
56 56 62
56 56 62
56 56 62
56 56 62
55 56 62
55 55 62
55 55 62
55 55 62
55 55 61
55 55 61
55 55 61
55 55 61
54 55 61
54 54 61
54 54 61
54 54 60
54 54 60
54 54 60
54 54 60
54 54 60
53 54 60
53 53 60
53 53 59
53 53 59
53 53 59
53 53 59
53 53 59
53 53 59
52 53 59
52 52 59
52 52 58
52 52 58
52 52 58
52 52 58
52 52 58
52 52 58
51 52 58
51 51 57
51 51 57
51 51 57
51 51 57
51 51 57
51 51 57
51 51 57
50 51 56
50 50 56
50 50 56
50 50 56
50 50 56
50 50 56
50 50 56
49 50 55
49 50 55
49 49 55
49 49 55
49 49 55
49 49 55
49 49 55
49 49 55
49 49 54
48 49 54
48 48 54
48 48 54
48 48 54
48 48 54
48 48 54
48 48 54
48 48 53
47 48 53
47 48 53
47 47 53
47 47 53
60 60 67
60 60 67
60 60 67
60 60 67
60 61 67
61 61 67
61 61 67
61 61 68
61 61 68
61 61 68
61 61 68
61 61 68
61 61 68
61 61 68
61 61 68
61 61 68
61 61 68
61 61 68
61 62 68
62 62 68
62 62 68
62 62 69
62 62 69
62 62 69
62 62 69
62 62 69
62 62 69
62 62 69
62 62 69
62 62 69
62 62 69
62 62 69
62 62 69
62 62 69
62 62 69
62 62 69
62 62 69
62 62 69
62 62 69
62 62 69
62 62 69
62 62 69
62 62 69
62 62 69
62 62 69
62 62 69
62 62 69
62 62 69
62 62 69
62 62 69
62 62 69
62 62 69
62 62 69
62 62 69
62 62 69
62 62 69
62 62 69
62 62 69
62 62 69
62 62 69
62 62 69
62 62 69
62 62 69
62 62 69
62 62 69
62 62 69
62 62 69
62 62 69
62 62 69
62 62 69
62 62 69
62 62 69
62 62 69
62 62 68
62 62 68
61 61 68
61 61 68
61 61 68
61 61 68
61 61 68
61 61 68
61 61 68
61 61 68
61 61 68
61 61 68
61 61 68
61 61 68
60 61 68
60 61 68
60 61 67
60 61 67
60 61 67
60 61 67
60 60 67
60 60 67
59 60 67
59 60 67
59 60 67
59 60 67
59 60 66
59 60 66
59 60 66
59 60 66
59 59 66
59 59 66
58 59 66
58 59 66
58 59 66
58 59 65
58 59 65
58 59 65
58 59 65
58 58 65
58 58 65
57 58 65
57 58 65
57 58 64
57 58 64
57 58 64
57 57 64
57 57 64
57 57 64
57 57 64
57 57 63
57 57 63
57 57 63
57 57 63
56 57 63
56 56 63
56 56 63
56 56 63
56 56 62
56 56 62
56 56 62
56 56 62
55 56 62
55 55 62
55 55 62
55 55 61
55 55 61
55 55 61
55 55 61
55 55 61
54 55 61
54 54 61
54 54 61
54 54 60
54 54 60
54 54 60
54 54 60
54 54 60
53 54 60
53 53 60
53 53 59
53 53 59
53 53 59
53 53 59
53 53 59
52 53 59
52 53 59
52 52 58
52 52 58
52 52 58
52 52 58
52 52 58
52 52 58
51 52 58
51 52 57
51 51 57
51 51 57
51 51 57
51 51 57
51 51 57
51 51 57
50 51 57
50 51 56
50 50 56
50 50 56
50 50 56
50 50 56
50 50 56
50 50 56
49 50 55
49 50 55
49 49 55
49 49 55
49 49 55
49 49 55
49 49 55
49 49 55
48 49 54
48 49 54
48 48 54
48 48 54
48 48 54
48 48 54
48 48 54
48 48 53
48 48 53
47 48 53
61 61 67
61 61 67
61 61 68
61 61 68
61 61 68
61 61 68
61 61 68
61 61 68
61 61 68
61 61 68
61 61 68
61 61 68
62 62 68
62 62 68
62 62 69
62 62 69
62 62 69
62 62 69
62 62 69
62 62 69
62 62 69
62 62 69
62 62 69
62 62 69
62 62 69
62 62 69
62 62 69
62 62 69
62 62 69
62 62 69
62 62 69
62 62 69
62 63 69
63 63 69
63 63 70
63 63 70
63 63 70
63 63 70
63 63 70
63 63 70
63 63 70
63 63 70
63 63 70
63 63 70
63 63 70
63 63 70
63 63 70
63 63 70
63 63 70
63 63 70
63 63 70
63 63 70
63 63 70
63 63 70
63 63 70
63 63 70
63 63 70
63 63 70
63 63 69
62 63 69
62 62 69
62 62 69
62 62 69
62 62 69
62 62 69
62 62 69
62 62 69
62 62 69
62 62 69
62 62 69
62 62 69
62 62 69
62 62 69
62 62 69
62 62 69
62 62 69
62 62 69
62 62 69
62 62 68
62 62 68
61 61 68
61 61 68
61 61 68
61 61 68
61 61 68
61 61 68
61 61 68
60 61 68
60 61 68
60 61 68
60 61 68
60 61 68
60 61 67
60 61 67
60 61 67
60 61 67
60 60 67
60 60 67
59 60 67
59 60 67
59 60 67
59 60 67
59 60 66
59 60 66
59 60 66
59 60 66
59 59 66
59 59 66
58 59 66
58 59 66
58 59 65
58 59 65
58 59 65
58 59 65
58 59 65
58 58 65
58 58 65
57 58 65
57 58 65
58 58 64
58 58 64
57 58 64
57 57 64
57 57 64
57 57 64
57 57 64
57 57 63
57 57 63
57 57 63
56 57 63
56 56 63
56 56 63
56 56 63
56 56 62
56 56 62
56 56 62
56 56 62
55 56 62
55 55 62
55 55 62
55 55 62
55 55 61
55 55 61
55 55 61
55 55 61
54 55 61
54 54 61
54 54 61
54 54 60
54 54 60
54 54 60
54 54 60
54 54 60
53 54 60
53 53 60
53 53 59
53 53 59
53 53 59
53 53 59
53 53 59
53 53 59
52 53 59
52 52 59
52 52 58
52 52 58
52 52 58
52 52 58
52 52 58
52 52 58
51 52 58
51 51 57
51 51 57
51 51 57
51 51 57
51 51 57
51 51 57
51 51 57
50 51 56
50 50 56
50 50 56
50 50 56
50 50 56
50 50 56
50 50 56
50 50 56
49 50 55
49 49 55
49 49 55
49 49 55
49 49 55
49 49 55
49 49 55
49 49 54
48 49 54
48 49 54
48 48 54
48 48 54
48 48 54
48 48 54
48 48 54
61 61 68
61 61 68
61 61 68
61 61 68
61 61 68
61 61 68
61 62 68
62 62 68
62 62 69
62 62 69
62 62 69
62 62 69
62 62 69
62 62 69
62 62 69
62 62 69
62 62 69
62 62 69
62 62 69
62 62 69
62 62 69
62 62 69
62 62 69
63 63 69
63 63 70
63 63 70
63 63 70
63 63 70
63 63 70
63 63 70
63 63 70
63 63 70
63 63 70
63 63 70
63 63 70
63 63 70
63 63 70
63 63 70
63 63 70
63 63 70
63 63 70
63 63 70
63 63 70
63 63 70
63 63 70
63 63 70
63 63 70
63 63 70
63 63 70
63 63 70
63 63 70
63 63 70
63 63 70
63 63 70
63 63 70
63 63 70
63 63 70
63 63 70
63 63 70
63 63 70
63 63 70
63 63 70
63 63 70
63 63 70
63 63 70
63 63 70
63 63 70
62 63 69
62 62 69
62 62 69
62 62 69
62 62 69
62 62 69
62 62 69
62 62 69
62 62 69
62 62 69
62 62 69
62 62 69
62 62 69
62 62 69
62 62 69
62 62 68
62 62 68
61 61 68
61 61 68
61 61 68
61 62 68
61 61 68
61 61 68
60 61 68
60 61 68
60 61 68
60 61 68
60 61 68
60 61 67
60 61 67
60 61 67
60 61 67
60 60 67
60 60 67
59 60 67
59 60 67
59 60 67
59 60 67
59 60 66
59 60 66
59 60 66
59 59 66
59 59 66
58 59 66
58 59 66
58 59 66
58 59 65
58 59 65
58 59 65
58 59 65
58 58 65
58 58 65
58 58 65
58 58 64
58 58 64
58 58 64
57 58 64
57 57 64
57 57 64
57 57 64
57 57 64
57 57 63
57 57 63
57 57 63
57 57 63
56 57 63
56 56 63
56 56 63
56 56 63
56 56 62
56 56 62
56 56 62
56 56 62
55 56 62
55 55 62
55 55 62
55 55 61
55 55 61
55 55 61
55 55 61
55 55 61
54 55 61
54 54 61
54 54 60
54 54 60
54 54 60
54 54 60
54 54 60
53 54 60
53 54 60
53 53 60
53 53 59
53 53 59
53 53 59
53 53 59
53 53 59
52 53 59
52 53 59
52 52 58
52 52 58
52 52 58
52 52 58
52 52 58
52 52 58
51 52 58
51 52 57
51 51 57
51 51 57
51 51 57
51 51 57
51 51 57
51 51 57
50 51 57
50 51 56
50 50 56
50 50 56
50 50 56
50 50 56
50 50 56
50 50 56
49 50 55
49 50 55
49 49 55
49 49 55
49 49 55
49 49 55
49 49 55
49 49 55
49 49 54
48 49 54
48 48 54
48 48 54
48 48 54
61 61 68
62 62 68
62 62 68
62 62 69
62 62 69
62 62 69
62 62 69
62 62 69
62 62 69
62 62 69
62 62 69
62 62 69
62 62 69
62 62 69
62 62 69
62 62 69
63 63 70
63 63 70
63 63 70
63 63 70
63 63 70
63 63 70
63 63 70
63 63 70
63 63 70
63 63 70
63 63 70
63 63 70
63 63 70
63 63 70
63 63 70
63 63 70
63 63 70
63 63 70
63 63 70
63 63 70
63 63 70
63 63 70
63 63 70
63 63 70
63 63 70
63 63 70
63 63 70
63 63 70
63 63 70
63 63 70
63 63 70
63 63 70
63 63 70
63 63 70
63 63 70
63 63 70
63 63 70
63 63 70
63 63 70
63 63 70
63 63 70
63 63 70
63 63 70
63 63 70
63 63 70
63 63 70
63 63 70
63 63 70
63 63 70
63 63 70
63 63 70
63 63 70
63 63 70
63 63 70
63 63 70
63 63 70
62 63 69
62 62 69
62 62 69
62 62 69
62 62 69
62 62 69
62 62 69
62 62 69
62 62 69
62 62 69
62 62 69
62 62 69
62 62 69
62 62 69
62 62 68
61 62 69
61 62 68
61 62 68
61 62 68
61 61 68
61 61 68
60 61 68
60 61 68
60 61 68
60 61 68
60 61 68
60 61 67
60 61 67
60 61 67
60 60 67
60 60 67
59 60 67
59 60 67
59 60 67
59 60 67
59 60 66
59 60 66
59 60 66
59 60 66
59 59 66
59 59 66
58 59 66
58 59 66
58 59 65
58 59 65
58 59 65
58 59 65
58 58 65
58 58 65
58 58 65
58 58 65
58 58 64
58 58 64
58 58 64
57 57 64
57 57 64
57 57 64
57 57 64
57 57 63
57 57 63
57 57 63
57 57 63
56 57 63
56 56 63
56 56 63
56 56 63
56 56 62
56 56 62
56 56 62
56 56 62
55 56 62
55 55 62
55 55 62
55 55 61
55 55 61
55 55 61
55 55 61
55 55 61
54 55 61
54 54 61
54 54 61
54 54 60
54 54 60
54 54 60
54 54 60
54 54 60
53 54 60
53 53 60
53 53 59
53 53 59
53 53 59
53 53 59
53 53 59
53 53 59
52 53 59
52 52 58
52 52 58
52 52 58
52 52 58
52 52 58
52 52 58
52 52 58
51 52 58
51 51 57
51 51 57
51 51 57
51 51 57
51 51 57
51 51 57
51 51 57
50 51 56
50 50 56
50 50 56
50 50 56
50 50 56
50 50 56
50 50 56
50 50 56
49 50 55
49 49 55
49 49 55
49 49 55
49 49 55
49 49 55
49 49 55
49 49 55
48 49 54
48 49 54
62 62 69
62 62 69
62 62 69
62 62 69
62 62 69
62 62 69
62 62 69
62 62 69
62 62 69
62 62 69
63 63 70
63 63 70
63 63 70
63 63 70
63 63 70
63 63 70
63 63 70
63 63 70
63 63 70
63 63 70
63 63 70
63 63 70
63 63 70
63 63 70
63 63 70
63 63 70
63 63 70
63 63 70
63 63 70
63 63 70
63 63 70
63 63 71
63 63 71
64 64 71
64 64 71
64 64 71
64 64 71
64 64 71
64 64 71
64 64 71
64 64 71
64 64 71
64 64 71
64 64 71
64 64 71
64 64 71
64 64 71
64 64 71
64 64 71
64 64 71
64 64 71
64 64 71
64 64 71
63 64 71
63 63 71
63 63 70
63 63 70
63 63 70
63 63 70
63 63 70
63 63 70
63 63 70
63 63 70
63 63 70
63 63 70
63 63 70
63 63 70
63 63 70
63 63 70
63 63 70
63 63 70
63 63 70
63 63 70
63 63 70
63 63 70
63 63 70
62 63 69
62 62 69
62 62 69
62 62 69
62 62 69
62 62 69
62 62 69
62 62 69
62 62 69
62 62 69
62 62 69
61 62 69
61 62 69
61 62 69
61 62 69
61 62 68
61 62 68
61 62 68
61 61 68
61 61 68
60 61 68
60 61 68
60 61 68
60 61 68
60 61 67
60 61 67
60 61 67
60 61 67
60 60 67
60 60 67
59 60 67
59 60 67
59 60 67
59 60 66
59 60 66
59 60 66
59 60 66
59 59 66
59 59 66
58 59 66
58 59 66
58 59 65
58 59 65
58 59 65
58 58 65
58 58 65
58 58 65
58 58 65
58 58 65
58 58 64
58 58 64
58 58 64
57 57 64
57 57 64
57 57 64
57 57 64
57 57 63
57 57 63
57 57 63
57 57 63
56 57 63
56 56 63
56 56 63
56 56 63
56 56 62
56 56 62
56 56 62
56 56 62
55 56 62
55 55 62
55 55 62
55 55 61
55 55 61
55 55 61
55 55 61
55 55 61
54 55 61
54 54 61
54 54 61
54 54 60
54 54 60
54 54 60
54 54 60
54 54 60
53 54 60
53 53 60
53 53 59
53 53 59
53 53 59
53 53 59
53 53 59
53 53 59
52 53 59
52 52 58
52 52 58
52 52 58
52 52 58
52 52 58
52 52 58
52 52 58
51 52 58
51 51 57
51 51 57
51 51 57
51 51 57
51 51 57
51 51 57
51 51 57
50 51 57
50 50 56
50 50 56
50 50 56
50 50 56
50 50 56
50 50 56
50 50 56
49 50 55
49 50 55
49 49 55
49 49 55
49 49 55
49 49 55
49 49 55
49 49 55
62 62 69
62 62 69
62 62 69
62 62 69
62 62 69
63 63 70
63 63 70
63 63 70
63 63 70
63 63 70
63 63 70
63 63 70
63 63 70
63 63 70
63 63 70
63 63 70
63 63 70
63 63 70
63 63 70
63 63 70
63 63 70
63 63 70
63 63 71
64 64 71
64 64 71
64 64 71
64 64 71
64 64 71
64 64 71
64 64 71
64 64 71
64 64 71
64 64 71
64 64 71
64 64 71
64 64 71
64 64 71
64 64 71
64 64 71
64 64 71
64 64 71
64 64 71
64 64 71
64 64 71
64 64 71
64 64 71
64 64 71
64 64 71
64 64 71
64 64 71
64 64 71
64 64 71
64 64 71
64 64 71
64 64 71
64 64 71
64 64 71
64 64 71
64 64 71
64 64 71
64 64 71
63 64 71
63 63 71
63 63 70
63 63 70
63 63 70
63 63 70
63 63 70
63 63 70
63 63 70
63 63 70
63 63 70
63 63 70
63 63 70
63 63 70
63 63 70
63 63 70
63 63 70
63 63 70
63 63 69
62 62 69
62 62 69
62 62 69
62 62 69
62 62 69
62 62 69
62 62 69
61 62 69
61 62 69
61 62 69
61 62 69
61 62 69
61 62 69
61 62 68
61 62 68
61 62 68
61 61 68
61 61 68
60 61 68
60 61 68
60 61 68
60 61 68
60 61 68
60 61 67
60 61 67
60 61 67
60 60 67
60 60 67
59 60 67
59 60 67
59 60 67
59 60 66
59 60 66
59 60 66
59 60 66
59 59 66
59 59 66
58 59 66
58 59 66
59 59 65
59 59 65
58 59 65
58 58 65
58 58 65
58 58 65
58 58 65
58 58 65
58 58 64
58 58 64
58 58 64
57 57 64
57 57 64
57 57 64
57 57 64
57 57 63
57 57 63
57 57 63
57 57 63
56 57 63
56 56 63
56 56 63
56 56 63
56 56 62
56 56 62
56 56 62
56 56 62
55 56 62
55 55 62
55 55 62
55 55 61
55 55 61
55 55 61
55 55 61
55 55 61
54 55 61
54 54 61
54 54 61
54 54 60
54 54 60
54 54 60
54 54 60
54 54 60
53 54 60
53 53 60
53 53 59
53 53 59
53 53 59
53 53 59
53 53 59
53 53 59
52 53 59
52 52 59
52 52 58
52 52 58
52 52 58
52 52 58
52 52 58
52 52 58
51 52 58
51 51 57
51 51 57
51 51 57
51 51 57
51 51 57
51 51 57
51 51 57
50 51 57
50 51 56
50 50 56
50 50 56
50 50 56
50 50 56
50 50 56
50 50 56
50 50 56
49 50 55
49 49 55
49 49 55
49 49 55
49 49 55
63 63 69
63 63 70
63 63 70
63 63 70
63 63 70
63 63 70
63 63 70
63 63 70
63 63 70
63 63 70
63 63 70
63 63 70
63 63 70
63 63 70
63 63 70
63 63 71
64 64 71
64 64 71
64 64 71
64 64 71
64 64 71
64 64 71
64 64 71
64 64 71
64 64 71
64 64 71
64 64 71
64 64 71
64 64 71
64 64 71
64 64 71
64 64 71
64 64 71
64 64 71
64 64 71
64 64 71
64 64 71
64 64 71
64 64 71
64 64 71
64 64 71
64 64 71
64 64 71
64 64 71
64 64 71
64 64 71
64 64 71
64 64 71
64 64 71
64 64 71
64 64 71
64 64 71
64 64 71
64 64 71
64 64 71
64 64 71
64 64 71
64 64 71
64 64 71
64 64 71
64 64 71
64 64 71
64 64 71
64 64 71
64 64 71
64 64 71
63 64 71
63 63 70
63 63 70
63 63 70
63 63 70
63 63 70
63 63 70
63 63 70
63 63 70
63 63 70
63 63 70
63 63 70
63 63 70
63 63 70
63 63 70
63 63 70
63 63 69
62 62 69
62 62 69
62 62 69
62 62 69
62 62 69
62 62 69
61 62 69
61 62 69
61 62 69
61 62 69
61 62 69
61 62 69
61 62 68
61 62 68
61 62 68
61 61 68
61 61 68
60 61 68
60 61 68
60 61 68
60 61 68
60 61 68
60 61 67
60 61 67
60 61 67
60 60 67
60 60 67
59 60 67
59 60 67
59 60 67
59 60 66
59 60 66
59 60 66
59 60 66
59 59 66
59 59 66
59 59 66
59 59 66
59 59 65
59 59 65
58 59 65
58 58 65
58 58 65
58 58 65
58 58 65
58 58 65
58 58 64
58 58 64
58 58 64
57 57 64
57 57 64
57 57 64
57 57 64
57 57 63
57 57 63
57 57 63
57 57 63
56 57 63
56 56 63
56 56 63
56 56 63
56 56 62
56 56 62
56 56 62
56 56 62
55 56 62
55 55 62
55 55 62
55 55 61
55 55 61
55 55 61
55 55 61
55 55 61
54 55 61
54 54 61
54 54 61
54 54 60
54 54 60
54 54 60
54 54 60
54 54 60
53 54 60
53 53 60
53 53 59
53 53 59
53 53 59
53 53 59
53 53 59
53 53 59
52 53 59
52 52 59
52 52 58
52 52 58
52 52 58
52 52 58
52 52 58
52 52 58
51 52 58
51 52 57
51 51 57
51 51 57
51 51 57
51 51 57
51 51 57
51 51 57
51 51 57
50 51 56
50 50 56
50 50 56
50 50 56
50 50 56
50 50 56
50 50 56
50 50 56
49 50 55
49 50 55
49 49 55
63 63 70
63 63 70
63 63 70
63 63 70
63 63 70
63 63 70
63 63 70
63 63 70
63 63 70
63 63 70
63 63 71
64 64 71
64 64 71
64 64 71
64 64 71
64 64 71
64 64 71
64 64 71
64 64 71
64 64 71
64 64 71
64 64 71
64 64 71
64 64 71
64 64 71
64 64 71
64 64 71
64 64 71
64 64 71
64 64 71
64 64 71
64 64 71
64 64 71
64 64 71
64 64 71
64 64 71
64 64 71
64 64 71
64 64 71
64 64 71
64 64 71
64 64 71
64 64 71
64 64 71
64 64 71
64 64 71
64 64 71
64 64 71
64 64 71
64 64 71
64 64 71
64 64 71
64 64 71
64 64 71
64 64 71
64 64 71
64 64 71
64 64 71
64 64 71
64 64 71
64 64 71
64 64 71
64 64 71
64 64 71
64 64 71
64 64 71
64 64 71
64 64 71
64 64 71
64 64 71
63 63 71
63 63 70
63 63 70
63 63 70
63 63 70
63 63 70
63 63 70
63 63 70
63 63 70
63 63 70
63 63 70
63 63 70
63 63 70
63 63 70
63 63 70
62 62 69
62 62 69
62 63 69
62 63 69
62 62 69
62 62 69
62 62 69
61 62 69
61 62 69
61 62 69
61 62 69
61 62 69
61 62 68
61 62 68
61 62 68
61 61 68
61 61 68
60 61 68
60 61 68
60 61 68
60 61 68
60 61 68
60 61 67
60 61 67
60 61 67
60 60 67
60 60 67
59 60 67
59 60 67
59 60 67
59 60 66
59 60 66
59 60 66
59 60 66
59 59 66
59 59 66
59 59 66
59 59 65
59 59 65
59 59 65
58 59 65
58 58 65
58 58 65
58 58 65
58 58 65
58 58 64
58 58 64
58 58 64
57 58 64
57 57 64
57 57 64
57 57 64
57 57 64
57 57 63
57 57 63
57 57 63
57 57 63
56 56 63
56 56 63
56 56 63
56 56 63
56 56 62
56 56 62
56 56 62
56 56 62
55 56 62
55 55 62
55 55 62
55 55 61
55 55 61
55 55 61
55 55 61
55 55 61
54 55 61
54 54 61
54 54 61
54 54 60
54 54 60
54 54 60
54 54 60
54 54 60
53 54 60
53 53 60
53 53 59
53 53 59
53 53 59
53 53 59
53 53 59
53 53 59
52 53 59
52 52 59
52 52 58
52 52 58
52 52 58
52 52 58
52 52 58
52 52 58
51 52 58
51 52 58
51 51 57
51 51 57
51 51 57
51 51 57
51 51 57
51 51 57
51 51 57
50 51 56
50 50 56
50 50 56
50 50 56
50 50 56
50 50 56
50 50 56
50 50 56
49 50 55
63 63 70
63 63 70
63 63 70
63 63 70
63 63 70
63 63 71
64 64 71
64 64 71
64 64 71
64 64 71
64 64 71
64 64 71
64 64 71
64 64 71
64 64 71
64 64 71
64 64 71
64 64 71
64 64 71
64 64 71
64 64 71
64 64 71
64 64 71
64 64 71
64 64 71
64 64 71
64 64 72
64 64 72
64 64 72
64 64 72
64 64 72
64 64 72
65 65 72
65 65 72
65 65 72
65 65 72
65 65 72
65 65 72
65 65 72
65 65 72
65 65 72
65 65 72
65 65 72
65 65 72
65 65 72
65 65 72
65 65 72
64 64 72
64 64 72
64 64 72
64 64 72
64 64 72
64 64 72
64 64 71
64 64 71
64 64 71
64 64 71
64 64 71
64 64 71
64 64 71
64 64 71
64 64 71
64 64 71
64 64 71
64 64 71
64 64 71
64 64 71
64 64 71
64 64 71
64 64 71
64 64 71
64 64 71
64 64 71
63 63 71
63 63 70
63 63 70
63 63 70
63 63 70
63 63 70
63 63 70
63 63 70
63 63 70
63 63 70
63 63 70
63 63 70
63 63 70
63 63 70
62 63 69
62 63 70
62 63 70
62 63 69
62 62 69
62 62 69
61 62 69
61 62 69
61 62 69
61 62 69
61 62 69
61 62 69
61 62 68
61 62 68
61 62 68
61 61 68
61 61 68
60 61 68
60 61 68
60 61 68
60 61 68
60 61 67
60 61 67
60 61 67
60 60 67
60 60 67
59 60 67
59 60 67
59 60 67
59 60 67
59 60 66
59 60 66
59 59 66
59 59 66
59 59 66
59 59 66
59 59 66
59 59 65
59 59 65
59 59 65
58 58 65
58 58 65
58 58 65
58 58 65
58 58 65
58 58 64
58 58 64
58 58 64
57 58 64
57 57 64
57 57 64
57 57 64
57 57 64
57 57 63
57 57 63
57 57 63
56 57 63
56 56 63
56 56 63
56 56 63
56 56 62
56 56 62
56 56 62
56 56 62
56 56 62
55 56 62
55 55 62
55 55 62
55 55 61
55 55 61
55 55 61
55 55 61
55 55 61
54 55 61
54 54 61
54 54 61
54 54 60
54 54 60
54 54 60
54 54 60
54 54 60
53 54 60
53 53 60
53 53 59
53 53 59
53 53 59
53 53 59
53 53 59
53 53 59
52 53 59
52 52 59
52 52 58
52 52 58
52 52 58
52 52 58
52 52 58
52 52 58
51 52 58
51 52 58
51 51 57
51 51 57
51 51 57
51 51 57
51 51 57
51 51 57
51 51 57
50 51 56
50 50 56
50 50 56
50 50 56
50 50 56
50 50 56
50 50 56
63 63 70
64 64 71
64 64 71
64 64 71
64 64 71
64 64 71
64 64 71
64 64 71
64 64 71
64 64 71
64 64 71
64 64 71
64 64 71
64 64 71
64 64 71
64 64 71
64 64 71
64 64 71
64 64 71
64 64 72
64 64 72
64 64 72
65 65 72
65 65 72
65 65 72
65 65 72
65 65 72
65 65 72
65 65 72
65 65 72
65 65 72
65 65 72
65 65 72
65 65 72
65 65 72
65 65 72
65 65 72
65 65 72
65 65 72
65 65 72
65 65 72
65 65 72
65 65 72
65 65 72
65 65 72
65 65 72
65 65 72
65 65 72
65 65 72
65 65 72
65 65 72
65 65 72
65 65 72
65 65 72
65 65 72
64 64 72
64 64 72
64 64 72
64 64 72
64 64 71
64 64 71
64 64 71
64 64 71
64 64 71
64 64 71
64 64 71
64 64 71
64 64 71
64 64 71
64 64 71
64 64 71
64 64 71
64 64 71
64 64 71
64 64 71
64 64 71
63 63 71
63 63 70
63 63 70
63 63 70
63 63 70
63 63 70
63 63 70
63 63 70
63 63 70
63 63 70
63 63 70
63 63 70
62 63 70
62 63 70
62 63 70
62 63 69
62 63 69
62 62 69
62 62 69
61 62 69
61 62 69
61 62 69
61 62 69
61 62 69
61 62 69
61 62 68
61 62 68
61 61 68
61 61 68
60 61 68
60 61 68
60 61 68
60 61 68
60 61 68
60 61 67
60 61 67
60 61 67
60 60 67
60 60 67
59 60 67
59 60 67
59 60 67
59 60 66
59 60 66
59 59 66
59 59 66
59 59 66
59 59 66
59 59 66
59 59 66
59 59 65
59 59 65
58 59 65
58 58 65
58 58 65
58 58 65
58 58 65
58 58 65
58 58 64
58 58 64
58 58 64
57 57 64
57 57 64
57 57 64
57 57 64
57 57 63
57 57 63
57 57 63
57 57 63
56 57 63
56 56 63
56 56 63
56 56 63
56 56 62
56 56 62
56 56 62
56 56 62
55 56 62
55 55 62
55 55 62
55 55 62
55 55 61
55 55 61
55 55 61
55 55 61
54 55 61
54 55 61
54 54 61
54 54 60
54 54 60
54 54 60
54 54 60
54 54 60
54 54 60
53 54 60
53 53 60
53 53 59
53 53 59
53 53 59
53 53 59
53 53 59
53 53 59
52 53 59
52 52 59
52 52 58
52 52 58
52 52 58
52 52 58
52 52 58
52 52 58
51 52 58
51 52 58
51 51 57
51 51 57
51 51 57
51 51 57
51 51 57
51 51 57
51 51 57
50 51 57
50 51 56
50 50 56
50 50 56
50 50 56
64 64 71
64 64 71
64 64 71
64 64 71
64 64 71
64 64 71
64 64 71
64 64 71
64 64 71
64 64 71
64 64 71
64 64 71
64 64 71
64 64 72
64 64 72
64 64 72
65 65 72
65 65 72
65 65 72
65 65 72
65 65 72
65 65 72
65 65 72
65 65 72
65 65 72
65 65 72
65 65 72
65 65 72
65 65 72
65 65 72
65 65 72
65 65 72
65 65 72
65 65 72
65 65 72
65 65 72
65 65 72
65 65 72
65 65 72
65 65 72
65 65 72
65 65 72
65 65 72
65 65 72
65 65 72
65 65 72
65 65 72
65 65 72
65 65 72
65 65 72
65 65 72
65 65 72
65 65 72
65 65 72
65 65 72
65 65 72
65 65 72
65 65 72
65 65 72
64 65 72
64 64 72
64 64 72
64 64 71
64 64 71
64 64 71
64 64 71
64 64 71
64 64 71
64 64 71
64 64 71
64 64 71
64 64 71
64 64 71
64 64 71
64 64 71
64 64 71
64 64 71
64 64 71
63 63 71
63 63 70
63 63 70
63 63 70
63 63 70
63 63 70
63 63 70
63 63 70
63 63 70
63 63 70
62 63 70
62 63 70
62 63 70
62 63 70
62 63 70
62 63 69
62 63 69
62 62 69
62 62 69
61 62 69
61 62 69
61 62 69
61 62 69
61 62 69
61 62 69
61 62 68
61 62 68
61 61 68
61 61 68
60 61 68
60 61 68
60 61 68
60 61 68
60 61 67
60 61 67
60 61 67
60 60 67
60 60 67
59 60 67
59 60 67
59 60 67
60 60 66
60 60 66
59 60 66
59 59 66
59 59 66
59 59 66
59 59 66
59 59 66
59 59 65
59 59 65
59 59 65
58 58 65
58 58 65
58 58 65
58 58 65
58 58 65
58 58 64
58 58 64
58 58 64
57 58 64
57 57 64
57 57 64
57 57 64
57 57 64
57 57 63
57 57 63
57 57 63
57 57 63
56 57 63
56 56 63
56 56 63
56 56 63
56 56 62
56 56 62
56 56 62
56 56 62
55 56 62
55 55 62
55 55 62
55 55 61
55 55 61
55 55 61
55 55 61
55 55 61
54 55 61
54 54 61
54 54 61
54 54 60
54 54 60
54 54 60
54 54 60
54 54 60
54 54 60
53 54 60
53 53 60
53 53 59
53 53 59
53 53 59
53 53 59
53 53 59
53 53 59
52 53 59
52 52 59
52 52 58
52 52 58
52 52 58
52 52 58
52 52 58
52 52 58
51 52 58
51 52 58
51 51 57
51 51 57
51 51 57
51 51 57
51 51 57
51 51 57
51 51 57
50 51 57
50 51 56
50 50 56
64 64 71
64 64 71
64 64 71
64 64 71
64 64 71
64 64 71
64 64 71
64 64 71
64 64 72
64 64 72
64 64 72
65 65 72
65 65 72
65 65 72
65 65 72
65 65 72
65 65 72
65 65 72
65 65 72
65 65 72
65 65 72
65 65 72
65 65 72
65 65 72
65 65 72
65 65 72
65 65 72
65 65 72
65 65 72
65 65 72
65 65 72
65 65 72
65 65 72
65 65 72
65 65 72
65 65 72
65 65 72
65 65 72
65 65 72
65 65 72
65 65 72
65 65 72
65 65 72
65 65 72
65 65 72
65 65 72
65 65 72
65 65 72
65 65 72
65 65 72
65 65 72
65 65 72
65 65 72
65 65 72
65 65 72
65 65 72
65 65 72
65 65 72
65 65 72
65 65 72
65 65 72
65 65 72
65 65 72
64 64 72
64 64 72
64 64 71
64 64 71
64 64 71
64 64 71
64 64 71
64 64 71
64 64 71
64 64 71
64 64 71
64 64 71
64 64 71
64 64 71
64 64 71
64 64 71
64 64 71
63 63 71
63 63 70
63 63 70
63 63 70
63 63 70
63 63 70
63 63 70
63 63 70
62 63 70
62 63 70
62 63 70
62 63 70
62 63 70
62 63 70
62 63 70
62 63 69
62 62 69
62 62 69
61 62 69
61 62 69
61 62 69
61 62 69
61 62 69
61 62 69
61 62 68
61 62 68
61 61 68
61 61 68
60 61 68
60 61 68
60 61 68
60 61 68
60 61 68
60 61 67
60 61 67
60 61 67
60 60 67
60 60 67
59 60 67
60 60 67
60 60 66
60 60 66
59 60 66
59 59 66
59 59 66
59 59 66
59 59 66
59 59 66
59 59 66
59 59 65
59 59 65
58 59 65
58 58 65
58 58 65
58 58 65
58 58 65
58 58 65
58 58 64
58 58 64
58 58 64
57 58 64
57 57 64
57 57 64
57 57 64
57 57 64
57 57 63
57 57 63
57 57 63
56 57 63
56 56 63
56 56 63
56 56 63
56 56 62
56 56 62
56 56 62
56 56 62
56 56 62
55 56 62
55 55 62
55 55 62
55 55 61
55 55 61
55 55 61
55 55 61
55 55 61
54 55 61
54 54 61
54 54 61
54 54 60
54 54 60
54 54 60
54 54 60
54 54 60
53 54 60
53 54 60
53 53 60
53 53 59
53 53 59
53 53 59
53 53 59
53 53 59
53 53 59
52 53 59
52 52 59
52 52 58
52 52 58
52 52 58
52 52 58
52 52 58
52 52 58
51 52 58
51 52 58
51 51 57
51 51 57
51 51 57
51 51 57
51 51 57
51 51 57
51 51 57
50 51 57
64 64 71
64 64 71
64 64 71
64 64 71
64 64 72
64 64 72
65 65 72
65 65 72
65 65 72
65 65 72
65 65 72
65 65 72
65 65 72
65 65 72
65 65 72
65 65 72
65 65 72
65 65 72
65 65 72
65 65 72
65 65 72
65 65 72
65 65 72
65 65 72
65 65 72
65 65 72
65 65 72
65 65 72
65 65 72
65 65 72
65 65 72
65 65 72
65 65 72
65 65 72
65 65 72
65 65 72
65 65 72
65 65 72
65 65 72
65 65 72
65 65 72
65 65 72
65 65 72
65 65 72
65 65 72
65 65 72
65 65 72
65 65 72
65 65 72
65 65 72
65 65 72
65 65 72
65 65 72
65 65 72
65 65 72
65 65 72
65 65 72
65 65 72
65 65 72
65 65 72
65 65 72
65 65 72
65 65 72
65 65 72
65 65 72
64 64 72
64 64 72
64 64 72
64 64 71
64 64 71
64 64 71
64 64 71
64 64 71
64 64 71
64 64 71
64 64 71
64 64 71
64 64 71
64 64 71
64 64 71
64 64 71
63 64 71
63 63 70
63 63 70
63 63 70
63 63 70
63 63 70
63 63 70
63 63 70
62 63 70
62 63 70
62 63 70
62 63 70
62 63 70
62 63 70
62 63 70
62 63 69
62 63 69
62 62 69
62 62 69
61 62 69
61 62 69
61 62 69
61 62 69
61 62 69
61 62 68
61 62 68
61 62 68
61 61 68
61 61 68
60 61 68
60 61 68
60 61 68
60 61 68
60 61 67
60 61 67
60 61 67
60 60 67
60 60 67
60 60 67
60 60 67
60 60 67
60 60 66
60 60 66
59 59 66
59 59 66
59 59 66
59 59 66
59 59 66
59 59 66
59 59 65
59 59 65
59 59 65
58 58 65
58 58 65
58 58 65
58 58 65
58 58 65
58 58 64
58 58 64
58 58 64
57 58 64
57 57 64
57 57 64
57 57 64
57 57 64
57 57 63
57 57 63
57 57 63
57 57 63
56 57 63
56 56 63
56 56 63
56 56 63
56 56 62
56 56 62
56 56 62
56 56 62
55 56 62
55 55 62
55 55 62
55 55 62
55 55 61
55 55 61
55 55 61
55 55 61
55 55 61
54 55 61
54 54 61
54 54 61
54 54 60
54 54 60
54 54 60
54 54 60
54 54 60
53 54 60
53 53 60
53 53 59
53 53 59
53 53 59
53 53 59
53 53 59
53 53 59
53 53 59
52 53 59
52 52 58
52 52 58
52 52 58
52 52 58
52 52 58
52 52 58
52 52 58
51 52 58
51 52 57
51 51 57
51 51 57
51 51 57
51 51 57
51 51 57
51 51 57
64 64 72
64 64 72
65 65 72
65 65 72
65 65 72
65 65 72
65 65 72
65 65 72
65 65 72
65 65 72
65 65 72
65 65 72
65 65 72
65 65 72
65 65 72
65 65 72
65 65 72
65 65 72
65 65 72
65 65 72
65 65 72
65 65 72
65 65 72
65 65 72
65 65 72
65 65 73
65 65 73
65 65 73
65 65 73
65 65 73
65 65 73
65 65 73
65 65 73
65 65 73
65 65 73
65 65 73
65 65 73
65 65 73
65 65 73
65 65 73
65 65 73
65 65 73
65 65 73
65 65 73
65 65 73
65 65 72
65 65 72
65 65 72
65 65 72
65 65 72
65 65 72
65 65 72
65 65 72
65 65 72
65 65 72
65 65 72
65 65 72
65 65 72
65 65 72
65 65 72
65 65 72
65 65 72
65 65 72
65 65 72
65 65 72
65 65 72
65 65 72
64 64 72
64 64 72
64 64 72
64 64 71
64 64 71
64 64 71
64 64 71
64 64 71
64 64 71
64 64 71
64 64 71
64 64 71
64 64 71
64 64 71
64 64 71
64 64 71
63 63 71
63 63 70
63 63 70
63 63 70
63 63 70
63 63 70
63 63 70
62 63 70
62 63 70
62 63 70
62 63 70
62 63 70
62 63 70
62 63 70
62 63 69
62 63 69
62 62 69
62 62 69
61 62 69
61 62 69
61 62 69
61 62 69
61 62 69
61 62 68
61 62 68
61 62 68
61 61 68
61 61 68
60 61 68
60 61 68
60 61 68
60 61 68
60 61 67
60 61 67
60 61 67
60 60 67
60 60 67
60 60 67
60 60 67
60 60 67
60 60 66
60 60 66
59 60 66
59 59 66
59 59 66
59 59 66
59 59 66
59 59 66
59 59 65
59 59 65
59 59 65
58 59 65
58 58 65
58 58 65
58 58 65
58 58 65
58 58 64
58 58 64
58 58 64
58 58 64
57 57 64
57 57 64
57 57 64
57 57 64
57 57 63
57 57 63
57 57 63
57 57 63
56 57 63
56 56 63
56 56 63
56 56 63
56 56 62
56 56 62
56 56 62
56 56 62
56 56 62
55 56 62
55 55 62
55 55 62
55 55 61
55 55 61
55 55 61
55 55 61
55 55 61
54 55 61
54 54 61
54 54 61
54 54 60
54 54 60
54 54 60
54 54 60
54 54 60
54 54 60
53 54 60
53 53 60
53 53 59
53 53 59
53 53 59
53 53 59
53 53 59
53 53 59
52 53 59
52 53 59
52 52 58
52 52 58
52 52 58
52 52 58
52 52 58
52 52 58
52 52 58
51 52 58
51 52 57
51 51 57
51 51 57
51 51 57
51 51 57
65 65 72
65 65 72
65 65 72
65 65 72
65 65 72
65 65 72
65 65 72
65 65 72
65 65 72
65 65 72
65 65 72
65 65 72
65 65 72
65 65 72
65 65 72
65 65 72
65 65 72
65 65 72
65 65 73
65 65 73
65 65 73
65 65 73
65 65 73
65 65 73
65 65 73
65 65 73
65 65 73
65 65 73
65 65 73
66 65 73
66 66 73
66 66 73
66 66 73
66 66 73
66 66 73
66 66 73
66 66 73
66 66 73
66 65 73
65 65 73
65 65 73
65 65 73
65 65 73
65 65 73
65 65 73
65 65 73
65 65 73
65 65 73
65 65 73
65 65 73
65 65 72
65 65 72
65 65 72
65 65 72
65 65 72
65 65 72
65 65 72
65 65 72
65 65 72
65 65 72
65 65 72
65 65 72
65 65 72
65 65 72
65 65 72
65 65 72
65 65 72
65 65 72
65 65 72
64 64 72
64 64 72
64 64 71
64 64 71
64 64 71
64 64 71
64 64 71
64 64 71
64 64 71
64 64 71
64 64 71
64 64 71
64 64 71
64 64 71
64 64 71
63 63 71
63 63 70
63 63 70
63 63 70
63 64 70
63 63 70
63 63 70
62 63 70
62 63 70
62 63 70
62 63 70
62 63 70
62 63 70
62 63 70
62 63 69
62 63 69
62 62 69
62 62 69
62 62 69
62 62 69
62 62 69
62 62 69
62 62 68
61 61 68
61 61 68
61 61 68
61 61 68
61 61 68
61 61 68
61 61 68
61 61 68
61 61 67
61 61 67
60 60 67
60 60 67
60 60 67
60 60 67
60 60 67
60 60 67
60 60 67
60 60 66
60 60 66
59 60 66
59 59 66
59 59 66
59 59 66
59 59 66
59 59 66
59 59 65
59 59 65
59 59 65
58 59 65
58 58 65
58 58 65
58 58 65
58 58 65
58 58 65
58 58 64
58 58 64
58 58 64
57 58 64
57 57 64
57 57 64
57 57 64
57 57 64
57 57 63
57 57 63
57 57 63
56 57 63
56 56 63
56 56 63
56 56 63
56 56 63
56 56 62
56 56 62
56 56 62
56 56 62
55 56 62
55 55 62
55 55 62
55 55 62
55 55 61
55 55 61
55 55 61
55 55 61
55 55 61
54 55 61
54 54 61
54 54 61
54 54 60
54 54 60
54 54 60
54 54 60
54 54 60
53 54 60
53 54 60
53 53 60
53 53 59
53 53 59
53 53 59
53 53 59
53 53 59
53 53 59
52 53 59
52 52 59
52 52 58
52 52 58
52 52 58
52 52 58
52 52 58
52 52 58
52 52 58
51 52 58
51 51 57
51 51 57
51 51 57
65 65 72
65 65 72
65 65 72
65 65 72
65 65 72
65 65 72
65 65 72
65 65 72
65 65 72
65 65 72
65 65 72
65 65 72
65 65 72
65 65 73
65 65 73
65 65 73
65 65 73
65 65 73
65 65 73
65 65 73
66 66 73
66 66 73
66 66 73
66 66 73
66 66 73
66 66 73
66 66 73
66 66 73
66 66 73
66 66 73
66 66 73
66 66 73
66 66 73
66 66 73
66 66 73
66 66 73
66 66 73
66 66 73
66 66 73
66 66 73
66 66 73
66 66 73
66 66 73
66 66 73
66 66 73
66 66 73
65 65 73
65 65 73
65 65 73
65 65 73
65 65 73
65 65 73
65 65 73
65 65 72
65 65 72
65 65 72
65 65 72
65 65 72
65 65 72
65 65 72
65 65 72
65 65 72
65 65 72
65 65 72
65 65 72
65 65 72
65 65 72
65 65 72
65 65 72
65 65 72
65 65 72
64 64 72
64 64 72
64 64 71
64 64 71
64 64 71
64 64 71
64 64 71
64 64 71
64 64 71
64 64 71
64 64 71
64 64 71
64 64 71
64 64 71
63 64 71
63 63 70
63 63 70
63 63 70
63 63 70
63 63 70
63 63 70
63 63 70
63 63 70
63 63 70
63 63 70
63 63 70
62 63 69
62 62 69
62 62 69
62 62 69
62 62 69
62 62 69
62 62 69
62 62 69
62 62 69
62 62 69
62 62 68
61 61 68
61 61 68
61 61 68
61 61 68
61 61 68
61 61 68
61 61 68
61 61 68
61 61 67
61 61 67
60 60 67
60 60 67
60 60 67
60 60 67
60 60 67
60 60 67
60 60 67
60 60 66
60 60 66
59 60 66
59 59 66
59 59 66
59 59 66
59 59 66
59 59 66
59 59 66
59 59 65
59 59 65
58 59 65
58 58 65
58 58 65
58 58 65
58 58 65
58 58 65
58 58 64
58 58 64
58 58 64
57 58 64
57 57 64
57 57 64
57 57 64
57 57 64
57 57 63
57 57 63
57 57 63
57 57 63
56 57 63
56 56 63
56 56 63
56 56 63
56 56 62
56 56 62
56 56 62
56 56 62
55 56 62
55 56 62
55 55 62
55 55 62
55 55 61
55 55 61
55 55 61
55 55 61
55 55 61
54 55 61
54 54 61
54 54 61
54 54 60
54 54 60
54 54 60
54 54 60
54 54 60
54 54 60
53 54 60
53 53 60
53 53 59
53 53 59
53 53 59
53 53 59
53 53 59
53 53 59
53 53 59
52 53 59
52 52 59
52 52 58
52 52 58
52 52 58
52 52 58
52 52 58
52 52 58
52 52 58
51 52 58
51 51 57
65 65 72
65 65 72
65 65 72
65 65 72
65 65 72
65 65 72
65 65 72
65 65 72
65 65 72
65 65 73
65 65 73
65 65 73
65 65 73
65 65 73
65 65 73
66 66 73
66 66 73
66 66 73
66 66 73
66 66 73
66 66 73
66 66 73
66 66 73
66 66 73
66 66 73
66 66 73
66 66 73
66 66 73
66 66 73
66 66 73
66 66 73
66 66 73
66 66 73
66 66 73
66 66 73
66 66 73
66 66 73
66 66 73
66 66 73
66 66 73
66 66 73
66 66 73
66 66 73
66 66 73
66 66 73
66 66 73
66 66 73
66 66 73
66 66 73
66 65 73
65 65 73
65 65 73
65 65 73
65 65 73
65 65 73
65 65 73
65 65 72
65 65 72
65 65 72
65 65 72
65 65 72
65 65 72
65 65 72
65 65 72
65 65 72
65 65 72
65 65 72
65 65 72
65 65 72
65 65 72
65 65 72
65 65 72
64 64 72
64 64 72
64 64 71
64 64 71
64 64 71
64 64 71
64 64 71
64 64 71
64 64 71
64 64 71
64 64 71
64 64 71
64 64 71
64 64 71
63 64 71
63 63 70
63 63 70
63 63 70
63 63 70
63 63 70
63 63 70
63 63 70
63 63 70
63 63 70
63 63 70
63 63 70
62 63 69
62 62 69
62 62 69
62 62 69
62 62 69
62 62 69
62 62 69
62 62 69
62 62 69
62 62 69
62 62 68
61 61 68
61 61 68
61 61 68
61 61 68
61 61 68
61 61 68
61 61 68
61 61 68
61 61 67
61 61 67
60 60 67
60 60 67
60 60 67
60 60 67
60 60 67
60 60 67
60 60 67
60 60 66
60 60 66
59 60 66
59 59 66
59 59 66
59 59 66
59 59 66
59 59 66
59 59 66
59 59 65
59 59 65
58 59 65
58 58 65
58 58 65
58 58 65
58 58 65
58 58 65
58 58 64
58 58 64
58 58 64
57 58 64
57 57 64
57 57 64
57 57 64
57 57 64
57 57 63
57 57 63
57 57 63
57 57 63
56 57 63
56 56 63
56 56 63
56 56 63
56 56 62
56 56 62
56 56 62
56 56 62
56 56 62
55 56 62
55 55 62
55 55 62
55 55 62
55 55 61
55 55 61
55 55 61
55 55 61
55 55 61
54 55 61
54 54 61
54 54 61
54 54 60
54 54 60
54 54 60
54 54 60
54 54 60
53 54 60
53 54 60
53 53 60
53 53 59
53 53 59
53 53 59
53 53 59
53 53 59
53 53 59
52 53 59
52 53 59
52 52 58
52 52 58
52 52 58
52 52 58
52 52 58
52 52 58
52 52 58
51 52 58
65 65 72
65 65 72
65 65 72
65 65 72
65 65 72
65 65 73
65 65 73
65 65 73
65 65 73
65 65 73
66 65 73
66 66 73
66 66 73
66 66 73
66 66 73
66 66 73
66 66 73
66 66 73
66 66 73
66 66 73
66 66 73
66 66 73
66 66 73
66 66 73
66 66 73
66 66 73
66 66 73
66 66 73
66 66 73
66 66 73
66 66 73
66 66 73
66 66 73
66 66 73
66 66 73
66 66 73
66 66 73
66 66 73
66 66 73
66 66 73
66 66 73
66 66 73
66 66 73
66 66 73
66 66 73
66 66 73
66 66 73
66 66 73
66 66 73
66 66 73
66 66 73
66 66 73
65 65 73
65 65 73
65 65 73
65 65 73
65 65 73
65 65 72
65 65 72
65 65 72
65 65 72
65 65 72
65 65 72
65 65 72
65 65 72
65 65 72
65 65 72
65 65 72
65 65 72
65 65 72
65 65 72
65 65 72
65 65 72
64 64 72
64 64 72
64 64 71
64 64 71
64 64 71
64 64 71
64 64 71
64 64 71
64 64 71
64 64 71
64 64 71
64 64 71
64 64 71
64 64 71
63 64 71
63 63 70
63 63 70
63 63 70
63 63 70
63 63 70
63 63 70
63 63 70
63 63 70
63 63 70
63 63 70
63 63 70
62 63 69
62 62 69
62 62 69
62 62 69
62 62 69
62 62 69
62 62 69
62 62 69
62 62 69
62 62 69
62 62 68
61 61 68
61 61 68
61 61 68
61 61 68
61 61 68
61 61 68
61 61 68
61 61 68
61 61 67
61 61 67
60 60 67
60 60 67
60 60 67
60 60 67
60 60 67
60 60 67
60 60 67
60 60 66
60 60 66
59 60 66
59 59 66
59 59 66
59 59 66
59 59 66
59 59 66
59 59 66
59 59 65
59 59 65
58 59 65
58 58 65
58 58 65
58 58 65
58 58 65
58 58 65
58 58 64
58 58 64
58 58 64
57 58 64
57 57 64
57 57 64
57 57 64
57 57 64
57 57 64
57 57 63
57 57 63
57 57 63
56 57 63
56 56 63
56 56 63
56 56 63
56 56 63
56 56 62
56 56 62
56 56 62
56 56 62
55 56 62
55 55 62
55 55 62
55 55 62
55 55 61
55 55 61
55 55 61
55 55 61
55 55 61
54 55 61
54 54 61
54 54 61
54 54 60
54 54 60
54 54 60
54 54 60
54 54 60
54 54 60
53 54 60
53 53 60
53 53 60
53 53 59
53 53 59
53 53 59
53 53 59
53 53 59
53 53 59
52 53 59
52 52 59
52 52 58
52 52 58
52 52 58
52 52 58
52 52 58
52 52 58
65 65 72
65 65 72
65 65 73
65 65 73
65 65 73
65 65 73
65 65 73
66 66 73
66 66 73
66 66 73
66 66 73
66 66 73
66 66 73
66 66 73
66 66 73
66 66 73
66 66 73
66 66 73
66 66 73
66 66 73
66 66 73
66 66 73
66 66 73
66 66 73
66 66 73
66 66 73
66 66 73
66 66 73
66 66 73
66 66 73
66 66 73
66 66 73
66 66 73
66 66 73
66 66 73
66 66 73
66 66 73
66 66 73
66 66 73
66 66 73
66 66 73
66 66 73
66 66 73
66 66 73
66 66 73
66 66 73
66 66 73
66 66 73
66 66 73
66 66 73
66 66 73
66 66 73
66 66 73
66 66 73
65 65 73
65 65 73
65 65 73
65 65 73
65 65 73
65 65 72
65 65 72
65 65 72
65 65 72
65 65 72
65 65 72
65 65 72
65 65 72
65 65 72
65 65 72
65 65 72
65 65 72
65 65 72
65 65 72
65 65 72
64 64 72
64 64 72
64 64 71
64 64 71
64 64 71
64 64 71
64 64 71
64 64 71
64 64 71
64 64 71
64 64 71
64 64 71
64 64 71
64 64 71
63 63 71
63 63 70
63 63 70
63 63 70
63 63 70
63 63 70
63 63 70
63 63 70
63 63 70
63 63 70
63 63 70
63 63 70
62 62 69
62 62 69
62 62 69
62 62 69
62 62 69
62 62 69
62 62 69
62 62 69
62 62 69
62 62 69
62 62 68
61 61 68
61 61 68
61 61 68
61 61 68
61 61 68
61 61 68
61 61 68
61 61 68
61 61 67
61 61 67
60 60 67
60 60 67
60 60 67
60 60 67
60 60 67
60 60 67
60 60 67
60 60 66
60 60 66
59 60 66
59 59 66
59 59 66
59 59 66
59 59 66
59 59 66
59 59 66
59 59 65
59 59 65
59 59 65
58 58 65
58 58 65
58 58 65
58 58 65
58 58 65
58 58 64
58 58 64
58 58 64
58 58 64
57 57 64
57 57 64
57 57 64
57 57 64
57 57 64
57 57 63
57 57 63
57 57 63
57 57 63
56 57 63
56 56 63
56 56 63
56 56 63
56 56 62
56 56 62
56 56 62
56 56 62
55 56 62
55 56 62
55 55 62
55 55 62
55 55 61
55 55 61
55 55 61
55 55 61
55 55 61
54 55 61
54 55 61
54 54 61
54 54 61
54 54 60
54 54 60
54 54 60
54 54 60
54 54 60
53 54 60
53 54 60
53 53 60
53 53 59
53 53 59
53 53 59
53 53 59
53 53 59
53 53 59
53 53 59
52 53 59
52 52 59
52 52 58
52 52 58
52 52 58
52 52 58
65 65 73
65 65 73
65 65 73
66 65 73
66 66 73
66 66 73
66 66 73
66 66 73
66 66 73
66 66 73
66 66 73
66 66 73
66 66 73
66 66 73
66 66 73
66 66 73
66 66 73
66 66 73
66 66 73
66 66 73
66 66 73
66 66 73
66 66 73
66 66 73
66 66 73
66 66 73
66 66 73
66 66 73
66 66 73
66 66 73
66 66 73
66 66 73
66 66 73
66 66 73
66 66 73
66 66 73
66 66 73
66 66 73
66 66 73
66 66 73
66 66 73
66 66 73
66 66 73
66 66 73
66 66 73
66 66 73
66 66 73
66 66 73
66 66 73
66 66 73
66 66 73
66 66 73
66 66 73
66 66 73
66 66 73
65 65 73
65 65 73
65 65 73
65 65 73
65 65 73
65 65 72
65 65 72
65 65 72
65 65 72
65 65 72
65 65 72
65 65 72
65 65 72
65 65 72
65 65 72
65 65 72
65 65 72
65 65 72
65 65 72
65 65 72
64 64 72
64 64 72
64 64 71
64 64 71
64 64 71
64 64 71
64 64 71
64 64 71
64 64 71
64 64 71
64 64 71
64 64 71
64 64 71
64 64 71
63 63 71
63 63 70
63 63 70
63 63 70
63 63 70
63 63 70
63 63 70
63 63 70
63 63 70
63 63 70
63 63 70
63 63 70
62 62 69
62 62 69
62 62 69
62 62 69
62 62 69
62 62 69
62 62 69
62 62 69
62 62 69
62 62 69
61 62 68
61 61 68
61 61 68
61 61 68
61 61 68
61 61 68
61 61 68
61 61 68
61 61 68
61 61 67
61 61 67
60 60 67
60 60 67
60 60 67
60 60 67
60 60 67
60 60 67
60 60 67
60 60 66
60 60 66
59 60 66
59 59 66
59 59 66
59 59 66
59 59 66
59 59 66
59 59 66
59 59 65
59 59 65
59 59 65
58 58 65
58 58 65
58 58 65
58 58 65
58 58 65
58 58 64
58 58 64
58 58 64
58 58 64
57 58 64
57 57 64
57 57 64
57 57 64
57 57 64
57 57 63
57 57 63
57 57 63
57 57 63
56 57 63
56 56 63
56 56 63
56 56 63
56 56 62
56 56 62
56 56 62
56 56 62
56 56 62
55 56 62
55 55 62
55 55 62
55 55 62
55 55 61
55 55 61
55 55 61
55 55 61
55 55 61
54 55 61
54 54 61
54 54 61
54 54 60
54 54 60
54 54 60
54 54 60
54 54 60
54 54 60
53 54 60
53 53 60
53 53 60
53 53 59
53 53 59
53 53 59
53 53 59
53 53 59
53 53 59
52 53 59
52 53 59
52 52 58
52 52 58
52 52 58
66 65 73
66 66 73
66 66 73
66 66 73
66 66 73
66 66 73
66 66 73
66 66 73
66 66 73
66 66 73
66 66 73
66 66 73
66 66 73
66 66 73
66 66 73
66 66 73
66 66 73
66 66 73
66 66 73
66 66 73
66 66 73
66 66 73
66 66 73
66 66 73
66 66 73
66 66 73
66 66 73
66 66 73
66 66 73
66 66 73
66 66 73
66 66 73
66 66 73
66 66 73
66 66 73
66 66 73
66 66 73
66 66 73
66 66 73
66 66 73
66 66 73
66 66 73
66 66 73
66 66 73
66 66 73
66 66 73
66 66 73
66 66 73
66 66 73
66 66 73
66 66 73
66 66 73
66 66 73
66 66 73
66 66 73
66 66 73
65 65 73
65 65 73
65 65 73
65 65 73
65 65 73
65 65 72
65 65 72
65 65 72
65 65 72
65 65 72
65 65 72
65 65 72
65 65 72
65 65 72
65 65 72
65 65 72
65 65 72
65 65 72
65 65 72
64 65 72
64 64 72
64 64 71
64 64 71
64 64 71
64 64 71
64 64 71
64 64 71
64 64 71
64 64 71
64 64 71
64 64 71
64 64 71
64 64 71
63 64 71
63 63 70
63 63 70
63 63 70
63 63 70
63 63 70
63 63 70
63 63 70
63 63 70
63 63 70
63 63 70
63 63 70
62 63 69
62 62 69
62 62 69
62 62 69
62 62 69
62 62 69
62 62 69
62 62 69
62 62 69
62 62 69
62 62 68
61 62 68
61 61 68
61 61 68
61 61 68
61 61 68
61 61 68
61 61 68
61 61 68
61 61 68
61 61 67
60 61 67
60 60 67
60 60 67
60 60 67
60 60 67
60 60 67
60 60 67
60 60 67
60 60 66
60 60 66
59 60 66
59 59 66
59 59 66
59 59 66
59 59 66
59 59 66
59 59 66
59 59 65
59 59 65
58 59 65
58 58 65
58 58 65
58 58 65
58 58 65
58 58 65
58 58 64
58 58 64
58 58 64
58 58 64
57 58 64
57 57 64
57 57 64
57 57 64
57 57 64
57 57 63
57 57 63
57 57 63
57 57 63
56 57 63
56 56 63
56 56 63
56 56 63
56 56 62
56 56 62
56 56 62
56 56 62
56 56 62
55 56 62
55 55 62
55 55 62
55 55 62
55 55 61
55 55 61
55 55 61
55 55 61
55 55 61
54 55 61
54 54 61
54 54 61
54 54 60
54 54 60
54 54 60
54 54 60
54 54 60
54 54 60
53 54 60
53 54 60
53 53 60
53 53 59
53 53 59
53 53 59
53 53 59
53 53 59
53 53 59
53 53 59
52 53 59
52 52 59
52 52 58
66 66 73
66 66 73
66 66 73
66 66 73
66 66 73
66 66 73
66 66 73
66 66 73
66 66 73
66 66 73
66 66 73
66 66 73
66 66 73
66 66 73
66 66 73
66 66 73
66 66 73
66 66 73
66 66 73
66 66 73
66 66 73
66 66 73
66 66 73
66 66 73
66 66 73
66 66 73
66 66 73
66 66 73
66 66 73
66 66 73
66 66 73
66 66 73
66 66 73
66 66 73
66 66 73
66 66 73
66 66 73
66 66 73
66 66 73
66 66 73
66 66 73
66 66 73
66 66 73
66 66 73
66 66 73
66 66 73
66 66 73
66 66 73
66 66 73
66 66 73
66 66 73
66 66 73
66 66 73
66 66 73
66 66 73
66 66 73
66 66 73
65 65 73
65 65 73
65 65 73
65 65 73
65 65 73
65 65 72
65 65 72
65 65 72
65 65 72
65 65 72
65 65 72
65 65 72
65 65 72
65 65 72
65 65 72
65 65 72
65 65 72
65 65 72
65 65 72
64 64 72
64 64 72
64 64 71
64 64 71
64 64 71
64 64 71
64 64 71
64 64 71
64 64 71
64 64 71
64 64 71
64 64 71
64 64 71
64 64 71
63 63 71
63 63 70
63 63 70
63 63 70
63 63 70
63 63 70
63 63 70
63 63 70
63 63 70
63 63 70
63 63 70
63 63 70
62 62 69
62 62 69
62 62 69
62 62 69
62 62 69
62 62 69
62 62 69
62 62 69
62 62 69
62 62 69
62 62 68
61 61 68
61 61 68
61 61 68
61 61 68
61 61 68
61 61 68
61 61 68
61 61 68
61 61 68
61 61 67
60 61 67
60 60 67
60 60 67
60 60 67
60 60 67
60 60 67
60 60 67
60 60 67
60 60 66
60 60 66
59 60 66
59 59 66
59 59 66
59 59 66
59 59 66
59 59 66
59 59 66
59 59 65
59 59 65
58 59 65
58 58 65
58 58 65
58 58 65
58 58 65
58 58 65
58 58 64
58 58 64
58 58 64
58 58 64
57 58 64
57 57 64
57 57 64
57 57 64
57 57 64
57 57 63
57 57 63
57 57 63
57 57 63
56 57 63
56 56 63
56 56 63
56 56 63
56 56 63
56 56 62
56 56 62
56 56 62
56 56 62
55 56 62
55 55 62
55 55 62
55 55 62
55 55 61
55 55 61
55 55 61
55 55 61
55 55 61
54 55 61
54 55 61
54 54 61
54 54 61
54 54 60
54 54 60
54 54 60
54 54 60
54 54 60
54 54 60
53 54 60
53 53 60
53 53 59
53 53 59
53 53 59
53 53 59
53 53 59
53 53 59
53 53 59
52 53 59
52 53 59
66 66 73
66 66 73
66 66 73
66 66 73
66 66 73
66 66 73
66 66 73
66 66 73
66 66 73
66 66 73
66 66 73
66 66 73
66 66 73
66 66 73
66 66 73
66 66 73
66 66 73
66 66 73
66 66 73
66 66 73
66 66 73
66 66 73
66 66 73
66 66 73
66 66 73
66 66 73
66 66 73
66 66 73
66 66 73
66 66 73
66 66 73
66 66 73
66 66 73
66 66 73
66 66 73
66 66 73
66 66 73
66 66 73
66 66 73
66 66 73
66 66 73
66 66 73
66 66 73
66 66 73
66 66 73
66 66 73
66 66 73
66 66 73
66 66 73
66 66 73
66 66 73
66 66 73
66 66 73
66 66 73
66 66 73
66 66 73
66 66 73
66 66 73
65 65 73
65 65 73
65 65 73
65 65 73
65 65 72
65 65 72
65 65 72
65 65 72
65 65 72
65 65 72
65 65 72
65 65 72
65 65 72
65 65 72
65 65 72
65 65 72
65 65 72
65 65 72
64 65 72
64 64 72
64 64 71
64 64 71
64 64 71
64 64 71
64 64 71
64 64 71
64 64 71
64 64 71
64 64 71
64 64 71
64 64 71
64 64 71
63 64 71
63 63 70
63 63 70
63 63 70
63 63 70
63 63 70
63 63 70
63 63 70
63 63 70
63 63 70
63 63 70
63 63 70
62 63 69
62 62 69
62 62 69
62 62 69
62 62 69
62 62 69
62 62 69
62 62 69
62 62 69
62 62 69
62 62 69
61 62 68
61 61 68
61 61 68
61 61 68
61 61 68
61 61 68
61 61 68
61 61 68
61 61 68
61 61 67
61 61 67
60 60 67
60 60 67
60 60 67
60 60 67
60 60 67
60 60 67
60 60 67
60 60 67
60 60 66
60 60 66
59 59 66
59 59 66
59 59 66
59 59 66
59 59 66
59 59 66
59 59 65
59 59 65
59 59 65
58 59 65
58 58 65
58 58 65
58 58 65
58 58 65
58 58 65
58 58 64
58 58 64
58 58 64
58 58 64
57 58 64
57 57 64
57 57 64
57 57 64
57 57 64
57 57 63
57 57 63
57 57 63
57 57 63
56 57 63
56 56 63
56 56 63
56 56 63
56 56 63
56 56 62
56 56 62
56 56 62
56 56 62
55 56 62
55 55 62
55 55 62
55 55 62
55 55 61
55 55 61
55 55 61
55 55 61
55 55 61
55 55 61
54 55 61
54 54 61
54 54 61
54 54 60
54 54 60
54 54 60
54 54 60
54 54 60
54 54 60
53 54 60
53 54 60
53 53 60
53 53 59
53 53 59
53 53 59
53 53 59
53 53 59
53 53 59
53 53 59
66 66 73
66 66 73
66 66 73
66 66 73
66 66 73
66 66 73
66 66 73
66 66 73
66 66 73
66 66 73
66 66 73
66 66 73
66 66 73
66 66 73
66 66 73
66 66 73
66 66 73
66 66 73
66 66 73
66 66 73
66 66 73
66 66 73
66 66 73
66 66 73
66 66 74
66 66 74
66 66 74
66 66 74
66 66 73
66 66 73
66 66 73
66 66 73
66 66 73
66 66 73
66 66 73
66 66 73
66 66 73
66 66 73
66 66 73
66 66 73
66 66 73
66 66 73
66 66 73
66 66 73
66 66 73
66 66 73
66 66 73
66 66 73
66 66 73
66 66 73
66 66 73
66 66 73
66 66 73
66 66 73
66 66 73
66 66 73
66 66 73
66 66 73
65 65 73
65 65 73
65 65 73
65 65 73
65 65 73
65 65 72
65 65 72
65 65 72
65 65 72
65 65 72
65 65 72
65 65 72
65 65 72
65 65 72
65 65 72
65 65 72
65 65 72
65 65 72
65 65 72
64 64 72
64 64 72
64 64 71
64 64 71
64 64 71
64 64 71
64 64 71
64 64 71
64 64 71
64 64 71
64 64 71
64 64 71
64 64 71
64 64 71
63 63 71
63 63 70
63 63 70
63 63 70
63 63 70
63 63 70
63 63 70
63 63 70
63 63 70
63 63 70
63 63 70
63 63 70
62 62 69
62 62 69
62 62 69
62 62 69
62 62 69
62 62 69
62 62 69
62 62 69
62 62 69
62 62 69
62 62 68
61 62 68
61 61 68
61 61 68
61 61 68
61 61 68
61 61 68
61 61 68
61 61 68
61 61 68
61 61 67
60 61 67
60 60 67
60 60 67
60 60 67
60 60 67
60 60 67
60 60 67
60 60 67
60 60 66
60 60 66
59 60 66
59 59 66
59 59 66
59 59 66
59 59 66
59 59 66
59 59 66
59 59 65
59 59 65
59 59 65
58 59 65
58 58 65
58 58 65
58 58 65
58 58 65
58 58 65
58 58 64
58 58 64
58 58 64
58 58 64
57 58 64
57 57 64
57 57 64
57 57 64
57 57 64
57 57 63
57 57 63
57 57 63
57 57 63
56 57 63
56 56 63
56 56 63
56 56 63
56 56 63
56 56 62
56 56 62
56 56 62
56 56 62
55 56 62
55 56 62
55 55 62
55 55 62
55 55 62
55 55 61
55 55 61
55 55 61
55 55 61
55 55 61
54 55 61
54 54 61
54 54 61
54 54 60
54 54 60
54 54 60
54 54 60
54 54 60
54 54 60
53 54 60
53 54 60
53 53 60
53 53 59
53 53 59
53 53 59
53 53 59
53 53 59
53 53 59
66 66 73
66 66 73
66 66 73
66 66 73
66 66 73
66 66 73
66 66 73
66 66 73
66 66 73
66 66 73
66 66 73
66 66 73
66 66 73
66 66 73
66 66 73
66 66 73
66 66 73
66 66 74
66 66 74
66 66 74
66 66 74
66 66 74
66 66 74
66 66 74
66 66 74
66 66 74
66 66 74
66 66 74
66 66 74
66 66 74
66 66 74
66 66 74
66 66 74
66 66 73
66 66 73
66 66 73
66 66 73
66 66 73
66 66 73
66 66 73
66 66 73
66 66 73
66 66 73
66 66 73
66 66 73
66 66 73
66 66 73
66 66 73
66 66 73
66 66 73
66 66 73
66 66 73
66 66 73
66 66 73
66 66 73
66 66 73
66 66 73
66 66 73
66 66 73
65 65 73
65 65 73
65 65 73
65 65 73
65 65 72
65 65 72
65 65 72
65 65 72
65 65 72
65 65 72
65 65 72
65 65 72
65 65 72
65 65 72
65 65 72
65 65 72
65 65 72
65 65 72
64 64 72
64 64 72
64 64 71
64 64 71
64 64 71
64 64 71
64 64 71
64 64 71
64 64 71
64 64 71
64 64 71
64 64 71
64 64 71
64 64 71
63 63 71
63 63 70
63 63 70
63 63 70
63 63 70
63 63 70
63 63 70
63 63 70
63 63 70
63 63 70
63 63 70
63 63 70
62 63 69
62 62 69
62 62 69
62 62 69
62 62 69
62 62 69
62 62 69
62 62 69
62 62 69
62 62 69
62 62 69
62 62 68
61 61 68
61 61 68
61 61 68
61 61 68
61 61 68
61 61 68
61 61 68
61 61 68
61 61 67
61 61 67
60 61 67
60 60 67
60 60 67
60 60 67
60 60 67
60 60 67
60 60 67
60 60 67
60 60 66
60 60 66
59 60 66
59 59 66
59 59 66
59 59 66
59 59 66
59 59 66
59 59 66
59 59 65
59 59 65
59 59 65
58 59 65
58 58 65
58 58 65
58 58 65
58 58 65
58 58 65
58 58 64
58 58 64
58 58 64
57 58 64
57 57 64
57 57 64
57 57 64
57 57 64
57 57 64
57 57 63
57 57 63
57 57 63
57 57 63
56 57 63
56 56 63
56 56 63
56 56 63
56 56 63
56 56 62
56 56 62
56 56 62
56 56 62
56 56 62
55 56 62
55 55 62
55 55 62
55 55 62
55 55 61
55 55 61
55 55 61
55 55 61
55 55 61
54 55 61
54 54 61
54 54 61
54 54 61
54 54 60
54 54 60
54 54 60
54 54 60
54 54 60
54 54 60
53 54 60
53 53 60
53 53 60
53 53 59
53 53 59
53 53 59
53 53 59
66 66 73
66 66 73
66 66 73
66 66 73
66 66 73
66 66 73
66 66 73
66 66 73
66 66 73
66 66 73
66 66 73
66 66 73
66 66 73
66 66 74
66 66 74
66 66 74
66 66 74
66 66 74
66 66 74
66 66 74
66 66 74
66 66 74
66 66 74
66 66 74
66 66 74
66 66 74
66 66 74
66 66 74
66 66 74
66 66 74
66 66 74
66 66 74
66 66 74
66 66 74
66 66 74
66 66 73
66 66 73
66 66 73
66 66 73
66 66 73
66 66 73
66 66 73
66 66 73
66 66 73
66 66 73
66 66 73
66 66 73
66 66 73
66 66 73
66 66 73
66 66 73
66 66 73
66 66 73
66 66 73
66 66 73
66 66 73
66 66 73
66 66 73
66 66 73
65 65 73
65 65 73
65 65 73
65 65 73
65 65 72
65 65 72
65 65 72
65 65 72
65 65 72
65 65 72
65 65 72
65 65 72
65 65 72
65 65 72
65 65 72
65 65 72
65 65 72
65 65 72
64 64 72
64 64 72
64 64 71
64 64 71
64 64 71
64 64 71
64 64 71
64 64 71
64 64 71
64 64 71
64 64 71
64 64 71
64 64 71
64 64 71
63 64 71
63 63 70
63 63 70
63 63 70
63 63 70
63 63 70
63 63 70
63 63 70
63 63 70
63 63 70
63 63 70
63 63 70
63 63 70
62 62 69
62 62 69
62 62 69
62 62 69
62 62 69
62 62 69
62 62 69
62 62 69
62 62 69
62 62 69
62 62 68
61 61 68
61 61 68
61 61 68
61 61 68
61 61 68
61 61 68
61 61 68
61 61 68
61 61 68
61 61 67
61 61 67
60 60 67
60 60 67
60 60 67
60 60 67
60 60 67
60 60 67
60 60 67
60 60 67
60 60 66
60 60 66
59 59 66
59 59 66
59 59 66
59 59 66
59 59 66
59 59 66
59 59 66
59 59 65
59 59 65
59 59 65
58 58 65
58 58 65
58 58 65
58 58 65
58 58 65
58 58 65
58 58 64
58 58 64
58 58 64
57 58 64
57 57 64
57 57 64
57 57 64
57 57 64
57 57 64
57 57 63
57 57 63
57 57 63
57 57 63
56 57 63
56 56 63
56 56 63
56 56 63
56 56 63
56 56 62
56 56 62
56 56 62
56 56 62
56 56 62
55 56 62
55 55 62
55 55 62
55 55 62
55 55 61
55 55 61
55 55 61
55 55 61
55 55 61
54 55 61
54 55 61
54 54 61
54 54 61
54 54 60
54 54 60
54 54 60
54 54 60
54 54 60
54 54 60
53 54 60
53 54 60
53 53 60
53 53 59
53 53 59
53 53 59
66 66 73
66 66 73
66 66 73
66 66 73
66 66 73
66 66 73
66 66 73
66 66 73
66 66 73
66 66 73
66 66 74
66 66 74
66 66 74
66 66 74
66 66 74
66 66 74
66 66 74
66 66 74
66 66 74
66 66 74
66 66 74
66 66 74
66 66 74
66 66 74
66 66 74
66 66 74
66 66 74
66 66 74
66 66 74
66 66 74
66 66 74
66 66 74
66 66 74
66 66 74
66 66 74
66 66 74
66 66 73
66 66 73
66 66 73
66 66 73
66 66 73
66 66 73
66 66 73
66 66 73
66 66 73
66 66 73
66 66 73
66 66 73
66 66 73
66 66 73
66 66 73
66 66 73
66 66 73
66 66 73
66 66 73
66 66 73
66 66 73
66 66 73
66 66 73
65 65 73
65 65 73
65 65 73
65 65 73
65 65 72
65 65 72
65 65 72
65 65 72
65 65 72
65 65 72
65 65 72
65 65 72
65 65 72
65 65 72
65 65 72
65 65 72
65 65 72
65 65 72
64 65 72
64 64 72
64 64 71
64 64 71
64 64 71
64 64 71
64 64 71
64 64 71
64 64 71
64 64 71
64 64 71
64 64 71
64 64 71
64 64 71
64 64 71
63 63 70
63 63 70
63 63 70
63 63 70
63 63 70
63 63 70
63 63 70
63 63 70
63 63 70
63 63 70
63 63 70
63 63 70
62 62 69
62 62 69
62 62 69
62 62 69
62 62 69
62 62 69
62 62 69
62 62 69
62 62 69
62 62 69
62 62 69
61 62 68
61 61 68
61 61 68
61 61 68
61 61 68
61 61 68
61 61 68
61 61 68
61 61 68
61 61 68
61 61 67
60 61 67
60 60 67
60 60 67
60 60 67
60 60 67
60 60 67
60 60 67
60 60 67
60 60 66
60 60 66
59 60 66
59 59 66
59 59 66
59 59 66
59 59 66
59 59 66
59 59 66
59 59 66
59 59 65
59 59 65
58 59 65
58 58 65
58 58 65
58 58 65
58 58 65
58 58 65
58 58 65
58 58 64
58 58 64
58 58 64
57 58 64
57 57 64
57 57 64
57 57 64
57 57 64
57 57 64
57 57 63
57 57 63
57 57 63
57 57 63
56 57 63
56 56 63
56 56 63
56 56 63
56 56 63
56 56 62
56 56 62
56 56 62
56 56 62
56 56 62
55 56 62
55 55 62
55 55 62
55 55 62
55 55 61
55 55 61
55 55 61
55 55 61
55 55 61
54 55 61
54 55 61
54 54 61
54 54 61
54 54 60
54 54 60
54 54 60
54 54 60
54 54 60
54 54 60
53 54 60
53 54 60
53 53 60
53 53 59
53 53 59
66 66 73
66 66 73
66 66 73
66 66 73
66 66 73
66 66 73
66 66 73
66 66 73
66 66 74
66 66 74
66 66 74
66 66 74
66 66 74
66 66 74
66 66 74
66 66 74
66 66 74
66 66 74
66 66 74
66 66 74
66 66 74
66 66 74
66 66 74
66 66 74
66 66 74
66 66 74
66 66 74
66 66 74
66 66 74
66 66 74
66 66 74
66 66 74
66 66 74
66 66 74
66 66 74
66 66 74
66 66 73
66 66 73
66 66 73
66 66 73
66 66 73
66 66 73
66 66 73
66 66 73
66 66 73
66 66 73
66 66 73
66 66 73
66 66 73
66 66 73
66 66 73
66 66 73
66 66 73
66 66 73
66 66 73
66 66 73
66 66 73
66 66 73
66 66 73
65 65 73
65 65 73
65 65 73
65 65 73
65 65 72
65 65 72
65 65 72
65 65 72
65 65 72
65 65 72
65 65 72
65 65 72
65 65 72
65 65 72
65 65 72
65 65 72
65 65 72
65 65 72
64 65 72
64 64 72
64 64 71
64 64 71
64 64 71
64 64 71
64 64 71
64 64 71
64 64 71
64 64 71
64 64 71
64 64 71
64 64 71
64 64 71
64 64 71
63 63 71
63 63 70
63 63 70
63 63 70
63 63 70
63 63 70
63 63 70
63 63 70
63 63 70
63 63 70
63 63 70
63 63 70
62 63 69
62 62 69
62 62 69
62 62 69
62 62 69
62 62 69
62 62 69
62 62 69
62 62 69
62 62 69
62 62 69
62 62 68
61 61 68
61 61 68
61 61 68
61 61 68
61 61 68
61 61 68
61 61 68
61 61 68
61 61 68
61 61 67
61 61 67
60 60 67
60 60 67
60 60 67
60 60 67
60 60 67
60 60 67
60 60 67
60 60 67
60 60 66
60 60 66
59 60 66
59 59 66
59 59 66
59 59 66
59 59 66
59 59 66
59 59 66
59 59 65
59 59 65
59 59 65
58 59 65
58 58 65
58 58 65
58 58 65
58 58 65
58 58 65
58 58 64
58 58 64
58 58 64
58 58 64
57 58 64
57 57 64
57 57 64
57 57 64
57 57 64
57 57 64
57 57 63
57 57 63
57 57 63
57 57 63
56 57 63
56 56 63
56 56 63
56 56 63
56 56 63
56 56 62
56 56 62
56 56 62
56 56 62
56 56 62
55 56 62
55 55 62
55 55 62
55 55 62
55 55 61
55 55 61
55 55 61
55 55 61
55 55 61
55 55 61
54 55 61
54 54 61
54 54 61
54 54 60
54 54 60
54 54 60
54 54 60
54 54 60
54 54 60
54 54 60
53 54 60
53 53 60
53 53 60
66 66 73
66 66 73
66 66 73
66 66 73
66 66 73
66 66 73
66 66 74
66 66 74
66 66 74
66 66 74
66 66 74
66 66 74
66 66 74
66 66 74
66 66 74
66 66 74
66 66 74
66 66 74
66 66 74
66 66 74
66 66 74
66 66 74
66 66 74
66 66 74
66 66 74
66 66 74
66 66 74
66 66 74
66 66 74
66 66 74
66 66 74
66 66 74
66 66 74
66 66 74
66 66 74
66 66 74
66 66 73
66 66 73
66 66 73
66 66 73
66 66 73
66 66 73
66 66 73
66 66 73
66 66 73
66 66 73
66 66 73
66 66 73
66 66 73
66 66 73
66 66 73
66 66 73
66 66 73
66 66 73
66 66 73
66 66 73
66 66 73
66 66 73
66 66 73
65 65 73
65 65 73
65 65 73
65 65 73
65 65 72
65 65 72
65 65 72
65 65 72
65 65 72
65 65 72
65 65 72
65 65 72
65 65 72
65 65 72
65 65 72
65 65 72
65 65 72
65 65 72
64 65 72
64 64 72
64 64 71
64 64 71
64 64 71
64 64 71
64 64 71
64 64 71
64 64 71
64 64 71
64 64 71
64 64 71
64 64 71
64 64 71
64 64 71
63 63 71
63 63 70
63 63 70
63 63 70
63 63 70
63 63 70
63 63 70
63 63 70
63 63 70
63 63 70
63 63 70
63 63 70
63 63 69
62 62 69
62 62 69
62 62 69
62 62 69
62 62 69
62 62 69
62 62 69
62 62 69
62 62 69
62 62 69
62 62 68
61 62 68
61 61 68
61 61 68
61 61 68
61 61 68
61 61 68
61 61 68
61 61 68
61 61 68
61 61 67
61 61 67
60 61 67
60 60 67
60 60 67
60 60 67
60 60 67
60 60 67
60 60 67
60 60 67
60 60 66
60 60 66
60 60 66
59 59 66
59 59 66
59 59 66
59 59 66
59 59 66
59 59 66
59 59 66
59 59 65
59 59 65
59 59 65
58 59 65
58 58 65
58 58 65
58 58 65
58 58 65
58 58 65
58 58 64
58 58 64
58 58 64
58 58 64
57 58 64
57 57 64
57 57 64
57 57 64
57 57 64
57 57 64
57 57 63
57 57 63
57 57 63
57 57 63
56 57 63
56 56 63
56 56 63
56 56 63
56 56 63
56 56 62
56 56 62
56 56 62
56 56 62
56 56 62
55 56 62
55 55 62
55 55 62
55 55 62
55 55 61
55 55 61
55 55 61
55 55 61
55 55 61
55 55 61
54 55 61
54 54 61
54 54 61
54 54 60
54 54 60
54 54 60
54 54 60
54 54 60
54 54 60
54 54 60
53 54 60
53 53 60
66 66 73
66 66 73
66 66 73
66 66 73
66 66 74
66 66 74
66 66 74
66 66 74
66 66 74
66 66 74
66 66 74
66 66 74
66 66 74
66 66 74
66 66 74
66 66 74
66 66 74
66 66 74
66 66 74
66 66 74
66 66 74
66 66 74
66 66 74
66 66 74
66 66 74
66 66 74
66 66 74
66 66 74
66 66 74
66 66 74
66 66 74
66 66 74
66 66 74
66 66 74
66 66 74
66 66 74
66 66 73
66 66 73
66 66 73
66 66 73
66 66 73
66 66 73
66 66 73
66 66 73
66 66 73
66 66 73
66 66 73
66 66 73
66 66 73
66 66 73
66 66 73
66 66 73
66 66 73
66 66 73
66 66 73
66 66 73
66 66 73
66 66 73
66 66 73
65 65 73
65 65 73
65 65 73
65 65 73
65 65 72
65 65 72
65 65 72
65 65 72
65 65 72
65 65 72
65 65 72
65 65 72
65 65 72
65 65 72
65 65 72
65 65 72
65 65 72
65 65 72
64 64 72
64 64 72
64 64 71
64 64 71
64 64 71
64 64 71
64 64 71
64 64 71
64 64 71
64 64 71
64 64 71
64 64 71
64 64 71
64 64 71
64 64 71
63 63 71
63 63 70
63 63 70
63 63 70
63 63 70
63 63 70
63 63 70
63 63 70
63 63 70
63 63 70
63 63 70
63 63 70
63 63 70
62 62 69
62 62 69
62 62 69
62 62 69
62 62 69
62 62 69
62 62 69
62 62 69
62 62 69
62 62 69
62 62 69
61 62 68
61 61 68
61 61 68
61 61 68
61 61 68
61 61 68
61 61 68
61 61 68
61 61 68
61 61 68
61 61 67
60 61 67
60 60 67
60 60 67
60 60 67
60 60 67
60 60 67
60 60 67
60 60 67
60 60 67
60 60 66
60 60 66
59 60 66
59 59 66
59 59 66
59 59 66
59 59 66
59 59 66
59 59 66
59 59 65
59 59 65
59 59 65
58 59 65
58 58 65
58 58 65
58 58 65
58 58 65
58 58 65
58 58 65
58 58 64
58 58 64
58 58 64
58 58 64
57 58 64
57 57 64
57 57 64
57 57 64
57 57 64
57 57 63
57 57 63
57 57 63
57 57 63
57 57 63
56 57 63
56 56 63
56 56 63
56 56 63
56 56 63
56 56 62
56 56 62
56 56 62
56 56 62
56 56 62
55 56 62
55 55 62
55 55 62
55 55 62
55 55 61
55 55 61
55 55 61
55 55 61
55 55 61
55 55 61
54 55 61
54 54 61
54 54 61
54 54 61
54 54 60
54 54 60
54 54 60
54 54 60
54 54 60
54 54 60
53 54 60
66 66 73
66 66 73
66 66 73
66 66 74
66 66 74
66 66 74
66 66 74
66 66 74
66 66 74
66 66 74
66 66 74
66 66 74
66 66 74
66 66 74
66 66 74
66 66 74
66 66 74
66 66 74
66 66 74
66 66 74
66 66 74
66 66 74
66 66 74
66 66 74
66 66 74
66 66 74
66 66 74
66 66 74
66 66 74
66 66 74
66 66 74
66 66 74
66 66 74
66 66 74
66 66 74
66 66 74
66 66 73
66 66 73
66 66 73
66 66 73
66 66 73
66 66 73
66 66 73
66 66 73
66 66 73
66 66 73
66 66 73
66 66 73
66 66 73
66 66 73
66 66 73
66 66 73
66 66 73
66 66 73
66 66 73
66 66 73
66 66 73
66 66 73
65 65 73
65 65 73
65 65 73
65 65 73
65 65 73
65 65 72
65 65 72
65 65 72
65 65 72
65 65 72
65 65 72
65 65 72
65 65 72
65 65 72
65 65 72
65 65 72
65 65 72
65 65 72
65 65 72
64 64 72
64 64 72
64 64 71
64 64 71
64 64 71
64 64 71
64 64 71
64 64 71
64 64 71
64 64 71
64 64 71
64 64 71
64 64 71
64 64 71
64 64 71
63 63 71
63 63 70
63 63 70
63 63 70
63 63 70
63 63 70
63 63 70
63 63 70
63 63 70
63 63 70
63 63 70
63 63 70
63 63 70
62 62 69
62 62 69
62 62 69
62 62 69
62 62 69
62 62 69
62 62 69
62 62 69
62 62 69
62 62 69
62 62 69
62 62 68
61 61 68
61 61 68
61 61 68
61 61 68
61 61 68
61 61 68
61 61 68
61 61 68
61 61 68
61 61 67
61 61 67
60 61 67
60 60 67
60 60 67
60 60 67
60 60 67
60 60 67
60 60 67
60 60 67
60 60 66
60 60 66
60 60 66
59 59 66
59 59 66
59 59 66
59 59 66
59 59 66
59 59 66
59 59 66
59 59 65
59 59 65
59 59 65
58 59 65
58 58 65
58 58 65
58 58 65
58 58 65
58 58 65
58 58 65
58 58 64
58 58 64
58 58 64
57 58 64
57 57 64
57 57 64
57 57 64
57 57 64
57 57 64
57 57 63
57 57 63
57 57 63
57 57 63
56 57 63
56 57 63
56 56 63
56 56 63
56 56 63
56 56 63
56 56 62
56 56 62
56 56 62
56 56 62
56 56 62
55 56 62
55 55 62
55 55 62
55 55 62
55 55 61
55 55 61
55 55 61
55 55 61
55 55 61
55 55 61
54 55 61
54 54 61
54 54 61
54 54 61
54 54 60
54 54 60
54 54 60
54 54 60
54 54 60
54 54 60
66 66 73
66 66 74
66 66 74
66 66 74
66 66 74
66 66 74
66 66 74
66 66 74
66 66 74
66 66 74
66 66 74
66 66 74
66 66 74
66 66 74
66 66 74
66 66 74
66 66 74
66 66 74
66 66 74
66 66 74
66 66 74
66 66 74
66 66 74
66 66 74
66 66 74
66 66 74
66 66 74
66 66 74
66 66 74
66 66 74
66 66 74
66 66 74
66 66 74
66 66 74
66 66 74
66 66 73
66 66 73
66 66 73
66 66 73
66 66 73
66 66 73
66 66 73
66 66 73
66 66 73
66 66 73
66 66 73
66 66 73
66 66 73
66 66 73
66 66 73
66 66 73
66 66 73
66 66 73
66 66 73
66 66 73
66 66 73
66 66 73
66 66 73
65 65 73
65 65 73
65 65 73
65 65 73
65 65 72
65 65 72
65 65 72
65 65 72
65 65 72
65 65 72
65 65 72
65 65 72
65 65 72
65 65 72
65 65 72
65 65 72
65 65 72
65 65 72
65 65 72
64 64 72
64 64 72
64 64 71
64 64 71
64 64 71
64 64 71
64 64 71
64 64 71
64 64 71
64 64 71
64 64 71
64 64 71
64 64 71
64 64 71
64 64 71
63 63 71
63 63 70
63 63 70
63 63 70
63 63 70
63 63 70
63 63 70
63 63 70
63 63 70
63 63 70
63 63 70
63 63 70
63 63 70
62 62 69
62 62 69
62 62 69
62 62 69
62 62 69
62 62 69
62 62 69
62 62 69
62 62 69
62 62 69
62 62 69
62 62 68
61 61 68
61 61 68
61 61 68
61 61 68
61 61 68
61 61 68
61 61 68
61 61 68
61 61 68
61 61 68
61 61 67
60 61 67
60 60 67
60 60 67
60 60 67
60 60 67
60 60 67
60 60 67
60 60 67
60 60 67
60 60 66
60 60 66
59 60 66
59 59 66
59 59 66
59 59 66
59 59 66
59 59 66
59 59 66
59 59 66
59 59 65
59 59 65
59 59 65
58 59 65
58 58 65
58 58 65
58 58 65
58 58 65
58 58 65
58 58 64
58 58 64
58 58 64
58 58 64
57 58 64
57 57 64
57 57 64
57 57 64
57 57 64
57 57 64
57 57 63
57 57 63
57 57 63
57 57 63
56 57 63
56 56 63
56 56 63
56 56 63
56 56 63
56 56 62
56 56 62
56 56 62
56 56 62
56 56 62
56 56 62
55 56 62
55 55 62
55 55 62
55 55 62
55 55 61
55 55 61
55 55 61
55 55 61
55 55 61
55 55 61
54 55 61
54 54 61
54 54 61
54 54 61
54 54 60
54 54 60
54 54 60
54 54 60
54 54 60
66 66 74
66 66 74
66 66 74
66 66 74
66 66 74
66 66 74
66 66 74
66 66 74
66 66 74
66 66 74
66 66 74
66 66 74
66 66 74
66 66 74
66 66 74
66 66 74
66 66 74
66 66 74
66 66 74
66 66 74
66 66 74
66 66 74
66 66 74
66 66 74
66 66 74
66 66 74
66 66 74
66 66 74
66 66 74
66 66 74
66 66 74
66 66 74
66 66 74
66 66 74
66 66 73
66 66 73
66 66 73
66 66 73
66 66 73
66 66 73
66 66 73
66 66 73
66 66 73
66 66 73
66 66 73
66 66 73
66 66 73
66 66 73
66 66 73
66 66 73
66 66 73
66 66 73
66 66 73
66 66 73
66 66 73
66 66 73
66 66 73
66 65 73
65 65 73
65 65 73
65 65 73
65 65 73
65 65 72
65 65 72
65 65 72
65 65 72
65 65 72
65 65 72
65 65 72
65 65 72
65 65 72
65 65 72
65 65 72
65 65 72
65 65 72
65 65 72
65 65 72
64 64 72
64 64 72
64 64 71
64 64 71
64 64 71
64 64 71
64 64 71
64 64 71
64 64 71
64 64 71
64 64 71
64 64 71
64 64 71
64 64 71
64 64 71
63 63 71
63 63 70
63 63 70
63 63 70
63 63 70
63 63 70
63 63 70
63 63 70
63 63 70
63 63 70
63 63 70
63 63 70
63 63 70
62 62 69
62 62 69
62 62 69
62 62 69
62 62 69
62 62 69
62 62 69
62 62 69
62 62 69
62 62 69
62 62 69
62 62 68
61 62 68
61 61 68
61 61 68
61 61 68
61 61 68
61 61 68
61 61 68
61 61 68
61 61 68
61 61 68
61 61 67
61 61 67
60 60 67
60 60 67
60 60 67
60 60 67
60 60 67
60 60 67
60 60 67
60 60 67
60 60 66
60 60 66
59 60 66
59 59 66
59 59 66
59 59 66
59 59 66
59 59 66
59 59 66
59 59 66
59 59 65
59 59 65
59 59 65
58 59 65
58 58 65
58 58 65
58 58 65
58 58 65
58 58 65
58 58 65
58 58 64
58 58 64
58 58 64
58 58 64
57 58 64
57 57 64
57 57 64
57 57 64
57 57 64
57 57 64
57 57 63
57 57 63
57 57 63
57 57 63
56 57 63
56 56 63
56 56 63
56 56 63
56 56 63
56 56 62
56 56 62
56 56 62
56 56 62
56 56 62
56 56 62
55 56 62
55 55 62
55 55 62
55 55 62
55 55 61
55 55 61
55 55 61
55 55 61
55 55 61
55 55 61
54 55 61
54 54 61
54 54 61
54 54 61
54 54 60
54 54 60
54 54 60
54 54 60
66 66 74
66 66 74
66 66 74
66 66 74
66 66 74
66 66 74
66 66 74
66 66 74
66 66 74
66 66 74
66 66 74
66 66 74
66 66 74
66 66 74
66 66 74
66 66 74
66 66 74
66 66 74
66 66 74
66 66 74
66 66 74
66 66 74
66 66 74
66 66 74
66 66 74
66 66 74
66 66 74
66 66 74
66 66 74
66 66 74
66 66 74
66 66 74
66 66 74
66 66 73
66 66 73
66 66 73
66 66 73
66 66 73
66 66 73
66 66 73
66 66 73
66 66 73
66 66 73
66 66 73
66 66 73
66 66 73
66 66 73
66 66 73
66 66 73
66 66 73
66 66 73
66 66 73
66 66 73
66 66 73
66 66 73
66 66 73
66 66 73
65 65 73
65 65 73
65 65 73
65 65 73
65 65 72
65 65 72
65 65 72
65 65 72
65 65 72
65 65 72
65 65 72
65 65 72
65 65 72
65 65 72
65 65 72
65 65 72
65 65 72
65 65 72
65 65 72
64 65 72
64 64 72
64 64 72
64 64 71
64 64 71
64 64 71
64 64 71
64 64 71
64 64 71
64 64 71
64 64 71
64 64 71
64 64 71
64 64 71
64 64 71
64 64 71
63 63 71
63 63 70
63 63 70
63 63 70
63 63 70
63 63 70
63 63 70
63 63 70
63 63 70
63 63 70
63 63 70
63 63 70
63 63 70
62 62 69
62 62 69
62 62 69
62 62 69
62 62 69
62 62 69
62 62 69
62 62 69
62 62 69
62 62 69
62 62 69
62 62 68
61 62 68
61 61 68
61 61 68
61 61 68
61 61 68
61 61 68
61 61 68
61 61 68
61 61 68
61 61 68
61 61 67
61 61 67
60 61 67
60 60 67
60 60 67
60 60 67
60 60 67
60 60 67
60 60 67
60 60 67
60 60 67
60 60 66
60 60 66
59 60 66
59 59 66
59 59 66
59 59 66
59 59 66
59 59 66
59 59 66
59 59 66
59 59 65
59 59 65
59 59 65
58 59 65
58 58 65
58 58 65
58 58 65
58 58 65
58 58 65
58 58 65
58 58 64
58 58 64
58 58 64
57 58 64
57 57 64
57 57 64
57 57 64
57 57 64
57 57 64
57 57 63
57 57 63
57 57 63
57 57 63
57 57 63
56 57 63
56 56 63
56 56 63
56 56 63
56 56 63
56 56 62
56 56 62
56 56 62
56 56 62
56 56 62
55 56 62
55 56 62
55 55 62
55 55 62
55 55 62
55 55 61
55 55 61
55 55 61
55 55 61
55 55 61
55 55 61
54 55 61
54 54 61
54 54 61
54 54 61
54 54 60
54 54 60
54 54 60
66 66 74
66 66 74
66 66 74
66 66 74
66 66 74
66 66 74
66 66 74
66 66 74
66 66 74
66 66 74
66 66 74
66 66 74
66 66 74
66 66 74
66 66 74
66 66 74
66 66 74
66 66 74
66 66 74
66 66 74
66 66 74
66 66 74
66 66 74
66 66 74
66 66 74
66 66 74
66 66 74
66 66 74
66 66 74
66 66 74
66 66 74
66 66 74
66 66 73
66 66 73
66 66 73
66 66 73
66 66 73
66 66 73
66 66 73
66 66 73
66 66 73
66 66 73
66 66 73
66 66 73
66 66 73
66 66 73
66 66 73
66 66 73
66 66 73
66 66 73
66 66 73
66 66 73
66 66 73
66 66 73
66 66 73
66 66 73
65 65 73
65 65 73
65 65 73
65 65 73
65 65 73
65 65 72
65 65 72
65 65 72
65 65 72
65 65 72
65 65 72
65 65 72
65 65 72
65 65 72
65 65 72
65 65 72
65 65 72
65 65 72
65 65 72
65 65 72
64 64 72
64 64 72
64 64 71
64 64 71
64 64 71
64 64 71
64 64 71
64 64 71
64 64 71
64 64 71
64 64 71
64 64 71
64 64 71
64 64 71
64 64 71
63 64 71
63 63 70
63 63 70
63 63 70
63 63 70
63 63 70
63 63 70
63 63 70
63 63 70
63 63 70
63 63 70
63 63 70
63 63 70
63 63 70
62 62 69
62 62 69
62 62 69
62 62 69
62 62 69
62 62 69
62 62 69
62 62 69
62 62 69
62 62 69
62 62 69
62 62 68
61 62 68
61 61 68
61 61 68
61 61 68
61 61 68
61 61 68
61 61 68
61 61 68
61 61 68
61 61 68
61 61 67
61 61 67
60 61 67
60 60 67
60 60 67
60 60 67
60 60 67
60 60 67
60 60 67
60 60 67
60 60 67
60 60 66
60 60 66
59 60 66
59 59 66
59 59 66
59 59 66
59 59 66
59 59 66
59 59 66
59 59 66
59 59 65
59 59 65
59 59 65
58 59 65
58 58 65
58 58 65
58 58 65
58 58 65
58 58 65
58 58 65
58 58 64
58 58 64
58 58 64
58 58 64
57 58 64
57 57 64
57 57 64
57 57 64
57 57 64
57 57 64
57 57 63
57 57 63
57 57 63
57 57 63
57 57 63
56 57 63
56 56 63
56 56 63
56 56 63
56 56 63
56 56 62
56 56 62
56 56 62
56 56 62
56 56 62
55 56 62
55 56 62
55 55 62
55 55 62
55 55 62
55 55 61
55 55 61
55 55 61
55 55 61
55 55 61
55 55 61
54 55 61
54 55 61
54 54 61
54 54 61
54 54 60
54 54 60
66 66 74
66 66 74
66 66 74
66 66 74
66 66 74
66 66 74
66 66 74
66 66 74
66 66 74
66 66 74
66 66 74
66 66 74
66 66 74
66 66 74
66 66 74
66 66 74
66 66 74
66 66 74
66 66 74
66 66 74
66 66 74
66 66 74
66 66 74
66 66 74
66 66 74
66 66 74
66 66 74
66 66 74
66 66 74
66 66 74
66 66 74
66 66 73
66 66 73
66 66 73
66 66 73
66 66 73
66 66 73
66 66 73
66 66 73
66 66 73
66 66 73
66 66 73
66 66 73
66 66 73
66 66 73
66 66 73
66 66 73
66 66 73
66 66 73
66 66 73
66 66 73
66 66 73
66 66 73
66 66 73
66 66 73
66 65 73
65 65 73
65 65 73
65 65 73
65 65 73
65 65 72
65 65 72
65 65 72
65 65 72
65 65 72
65 65 72
65 65 72
65 65 72
65 65 72
65 65 72
65 65 72
65 65 72
65 65 72
65 65 72
65 65 72
65 65 72
64 64 72
64 64 72
64 64 71
64 64 71
64 64 71
64 64 71
64 64 71
64 64 71
64 64 71
64 64 71
64 64 71
64 64 71
64 64 71
64 64 71
64 64 71
63 64 71
63 63 70
63 63 70
63 63 70
63 63 70
63 63 70
63 63 70
63 63 70
63 63 70
63 63 70
63 63 70
63 63 70
63 63 70
63 63 70
62 62 69
62 62 69
62 62 69
62 62 69
62 62 69
62 62 69
62 62 69
62 62 69
62 62 69
62 62 69
62 62 69
62 62 69
61 62 68
61 61 68
61 61 68
61 61 68
61 61 68
61 61 68
61 61 68
61 61 68
61 61 68
61 61 68
61 61 68
61 61 67
60 61 67
60 60 67
60 60 67
60 60 67
60 60 67
60 60 67
60 60 67
60 60 67
60 60 67
60 60 66
60 60 66
60 60 66
59 59 66
59 59 66
59 59 66
59 59 66
59 59 66
59 59 66
59 59 66
59 59 66
59 59 65
59 59 65
59 59 65
58 59 65
58 58 65
58 58 65
58 58 65
58 58 65
58 58 65
58 58 65
58 58 64
58 58 64
58 58 64
58 58 64
57 58 64
57 57 64
57 57 64
57 57 64
57 57 64
57 57 64
57 57 63
57 57 63
57 57 63
57 57 63
56 57 63
56 57 63
56 56 63
56 56 63
56 56 63
56 56 63
56 56 62
56 56 62
56 56 62
56 56 62
56 56 62
55 56 62
55 56 62
55 55 62
55 55 62
55 55 62
55 55 61
55 55 61
55 55 61
55 55 61
55 55 61
55 55 61
54 55 61
54 55 61
54 54 61
54 54 61
54 54 60
66 66 74
66 66 74
66 66 74
66 66 74
66 66 74
66 66 74
66 66 74
66 66 74
66 66 74
66 66 74
66 66 74
66 66 74
66 66 74
66 66 74
66 66 74
66 66 74
66 66 74
66 66 74
66 66 74
66 66 74
66 66 74
66 66 74
66 66 74
66 66 74
66 66 74
66 66 74
66 66 74
66 66 74
66 66 74
66 66 73
66 66 73
66 66 73
66 66 73
66 66 73
66 66 73
66 66 73
66 66 73
66 66 73
66 66 73
66 66 73
66 66 73
66 66 73
66 66 73
66 66 73
66 66 73
66 66 73
66 66 73
66 66 73
66 66 73
66 66 73
66 66 73
66 66 73
66 66 73
66 66 73
66 66 73
65 65 73
65 65 73
65 65 73
65 65 73
65 65 73
65 65 72
65 65 72
65 65 72
65 65 72
65 65 72
65 65 72
65 65 72
65 65 72
65 65 72
65 65 72
65 65 72
65 65 72
65 65 72
65 65 72
65 65 72
64 64 72
64 64 72
64 64 71
64 64 71
64 64 71
64 64 71
64 64 71
64 64 71
64 64 71
64 64 71
64 64 71
64 64 71
64 64 71
64 64 71
64 64 71
64 64 71
63 63 71
63 63 70
63 63 70
63 63 70
63 63 70
63 63 70
63 63 70
63 63 70
63 63 70
63 63 70
63 63 70
63 63 70
63 63 70
63 63 70
62 62 69
62 62 69
62 62 69
62 62 69
62 62 69
62 62 69
62 62 69
62 62 69
62 62 69
62 62 69
62 62 69
62 62 69
62 62 68
61 61 68
61 61 68
61 61 68
61 61 68
61 61 68
61 61 68
61 61 68
61 61 68
61 61 68
61 61 68
61 61 67
60 61 67
60 60 67
60 60 67
60 60 67
60 60 67
60 60 67
60 60 67
60 60 67
60 60 67
60 60 67
60 60 66
60 60 66
59 60 66
59 59 66
59 59 66
59 59 66
59 59 66
59 59 66
59 59 66
59 59 66
59 59 65
59 59 65
59 59 65
58 59 65
58 58 65
58 58 65
58 58 65
58 58 65
58 58 65
58 58 65
58 58 64
58 58 64
58 58 64
58 58 64
57 58 64
57 57 64
57 57 64
57 57 64
57 57 64
57 57 64
57 57 63
57 57 63
57 57 63
57 57 63
57 57 63
56 57 63
56 56 63
56 56 63
56 56 63
56 56 63
56 56 63
56 56 62
56 56 62
56 56 62
56 56 62
56 56 62
55 56 62
55 55 62
55 55 62
55 55 62
55 55 62
55 55 61
55 55 61
55 55 61
55 55 61
55 55 61
55 55 61
54 55 61
54 54 61
54 54 61
54 54 61
66 66 74
66 66 74
66 66 74
66 66 74
66 66 74
66 66 74
66 66 74
66 66 74
66 66 74
66 66 74
66 66 74
66 66 74
66 66 74
66 66 74
66 66 74
66 66 74
66 66 74
66 66 74
66 66 74
66 66 74
66 66 74
66 66 74
66 66 74
66 66 74
66 66 74
66 66 74
66 66 74
66 66 73
66 66 73
66 66 73
66 66 73
66 66 73
66 66 73
66 66 73
66 66 73
66 66 73
66 66 73
66 66 73
66 66 73
66 66 73
66 66 73
66 66 73
66 66 73
66 66 73
66 66 73
66 66 73
66 66 73
66 66 73
66 66 73
66 66 73
66 66 73
66 66 73
66 66 73
66 66 73
65 65 73
65 65 73
65 65 73
65 65 73
65 65 73
65 65 72
65 65 72
65 65 72
65 65 72
65 65 72
65 65 72
65 65 72
65 65 72
65 65 72
65 65 72
65 65 72
65 65 72
65 65 72
65 65 72
65 65 72
65 65 72
64 64 72
64 64 72
64 64 71
64 64 71
64 64 71
64 64 71
64 64 71
64 64 71
64 64 71
64 64 71
64 64 71
64 64 71
64 64 71
64 64 71
64 64 71
64 64 71
63 63 71
63 63 70
63 63 70
63 63 70
63 63 70
63 63 70
63 63 70
63 63 70
63 63 70
63 63 70
63 63 70
63 63 70
63 63 70
63 63 70
62 62 69
62 62 69
62 62 69
62 62 69
62 62 69
62 62 69
62 62 69
62 62 69
62 62 69
62 62 69
62 62 69
62 62 69
62 62 68
61 61 68
61 61 68
61 61 68
61 61 68
61 61 68
61 61 68
61 61 68
61 61 68
61 61 68
61 61 68
61 61 67
61 61 67
60 60 67
60 60 67
60 60 67
60 60 67
60 60 67
60 60 67
60 60 67
60 60 67
60 60 67
60 60 66
60 60 66
59 60 66
59 59 66
59 59 66
59 59 66
59 59 66
59 59 66
59 59 66
59 59 66
59 59 65
59 59 65
59 59 65
59 59 65
58 59 65
58 58 65
58 58 65
58 58 65
58 58 65
58 58 65
58 58 65
58 58 64
58 58 64
58 58 64
58 58 64
57 58 64
57 57 64
57 57 64
57 57 64
57 57 64
57 57 64
57 57 63
57 57 63
57 57 63
57 57 63
57 57 63
56 57 63
56 56 63
56 56 63
56 56 63
56 56 63
56 56 62
56 56 62
56 56 62
56 56 62
56 56 62
56 56 62
55 56 62
55 55 62
55 55 62
55 55 62
55 55 62
55 55 61
55 55 61
55 55 61
55 55 61
55 55 61
55 55 61
54 55 61
54 54 61
54 54 61
66 66 74
66 66 74
66 66 74
66 66 74
66 66 74
66 66 74
66 66 74
66 66 74
66 66 74
66 66 74
66 66 74
66 66 74
66 66 74
66 66 74
66 66 74
66 66 74
66 66 74
66 66 74
66 66 74
66 66 74
66 66 74
66 66 74
66 66 74
66 66 74
66 66 74
66 66 73
66 66 73
66 66 73
66 66 73
66 66 73
66 66 73
66 66 73
66 66 73
66 66 73
66 66 73
66 66 73
66 66 73
66 66 73
66 66 73
66 66 73
66 66 73
66 66 73
66 66 73
66 66 73
66 66 73
66 66 73
66 66 73
66 66 73
66 66 73
66 66 73
66 66 73
66 66 73
66 66 73
65 65 73
65 65 73
65 65 73
65 65 73
65 65 73
65 65 72
65 65 72
65 65 72
65 65 72
65 65 72
65 65 72
65 65 72
65 65 72
65 65 72
65 65 72
65 65 72
65 65 72
65 65 72
65 65 72
65 65 72
65 65 72
64 64 72
64 64 72
64 64 71
64 64 71
64 64 71
64 64 71
64 64 71
64 64 71
64 64 71
64 64 71
64 64 71
64 64 71
64 64 71
64 64 71
64 64 71
64 64 71
63 64 71
63 63 70
63 63 70
63 63 70
63 63 70
63 63 70
63 63 70
63 63 70
63 63 70
63 63 70
63 63 70
63 63 70
63 63 70
63 63 70
63 63 70
62 62 69
62 62 69
62 62 69
62 62 69
62 62 69
62 62 69
62 62 69
62 62 69
62 62 69
62 62 69
62 62 69
62 62 69
62 62 68
61 61 68
61 61 68
61 61 68
61 61 68
61 61 68
61 61 68
61 61 68
61 61 68
61 61 68
61 61 68
61 61 67
61 61 67
60 61 67
60 60 67
60 60 67
60 60 67
60 60 67
60 60 67
60 60 67
60 60 67
60 60 67
60 60 66
60 60 66
60 60 66
59 59 66
59 59 66
59 59 66
59 59 66
59 59 66
59 59 66
59 59 66
59 59 66
59 59 65
59 59 65
59 59 65
58 59 65
58 58 65
58 58 65
58 58 65
58 58 65
58 58 65
58 58 65
58 58 64
58 58 64
58 58 64
58 58 64
57 58 64
57 57 64
57 57 64
57 57 64
57 57 64
57 57 64
57 57 64
57 57 63
57 57 63
57 57 63
57 57 63
56 57 63
56 57 63
56 56 63
56 56 63
56 56 63
56 56 63
56 56 62
56 56 62
56 56 62
56 56 62
56 56 62
56 56 62
55 56 62
55 55 62
55 55 62
55 55 62
55 55 61
55 55 61
55 55 61
55 55 61
55 55 61
55 55 61
55 55 61
54 55 61
54 54 61
66 66 74
66 66 74
66 66 74
66 66 74
66 66 74
66 66 74
66 66 74
66 66 74
66 66 74
66 66 74
66 66 74
66 66 74
66 66 74
66 66 74
66 66 74
66 66 74
66 66 74
66 66 74
66 66 74
66 66 74
66 66 74
66 66 74
66 66 74
66 66 73
66 66 73
66 66 73
66 66 73
66 66 73
66 66 73
66 66 73
66 66 73
66 66 73
66 66 73
66 66 73
66 66 73
66 66 73
66 66 73
66 66 73
66 66 73
66 66 73
66 66 73
66 66 73
66 66 73
66 66 73
66 66 73
66 66 73
66 66 73
66 66 73
66 66 73
66 66 73
66 66 73
66 66 73
65 65 73
65 65 73
65 65 73
65 65 73
65 65 73
65 65 72
65 65 72
65 65 72
65 65 72
65 65 72
65 65 72
65 65 72
65 65 72
65 65 72
65 65 72
65 65 72
65 65 72
65 65 72
65 65 72
65 65 72
65 65 72
64 65 72
64 64 72
64 64 72
64 64 71
64 64 71
64 64 71
64 64 71
64 64 71
64 64 71
64 64 71
64 64 71
64 64 71
64 64 71
64 64 71
64 64 71
64 64 71
64 64 71
63 63 71
63 63 70
63 63 70
63 63 70
63 63 70
63 63 70
63 63 70
63 63 70
63 63 70
63 63 70
63 63 70
63 63 70
63 63 70
63 63 70
62 63 69
62 62 69
62 62 69
62 62 69
62 62 69
62 62 69
62 62 69
62 62 69
62 62 69
62 62 69
62 62 69
62 62 69
62 62 69
62 62 68
61 61 68
61 61 68
61 61 68
61 61 68
61 61 68
61 61 68
61 61 68
61 61 68
61 61 68
61 61 68
61 61 67
61 61 67
60 61 67
60 60 67
60 60 67
60 60 67
60 60 67
60 60 67
60 60 67
60 60 67
60 60 67
60 60 66
60 60 66
60 60 66
59 60 66
59 59 66
59 59 66
59 59 66
59 59 66
59 59 66
59 59 66
59 59 66
59 59 65
59 59 65
59 59 65
58 59 65
58 58 65
58 58 65
58 58 65
58 58 65
58 58 65
58 58 65
58 58 65
58 58 64
58 58 64
58 58 64
58 58 64
57 58 64
57 57 64
57 57 64
57 57 64
57 57 64
57 57 64
57 57 63
57 57 63
57 57 63
57 57 63
57 57 63
56 57 63
56 56 63
56 56 63
56 56 63
56 56 63
56 56 63
56 56 62
56 56 62
56 56 62
56 56 62
56 56 62
55 56 62
55 56 62
55 55 62
55 55 62
55 55 62
55 55 61
55 55 61
55 55 61
55 55 61
55 55 61
55 55 61
55 55 61
54 55 61
66 66 74
66 66 74
66 66 74
66 66 74
66 66 74
66 66 74
66 66 74
66 66 74
66 66 74
66 66 74
66 66 74
66 66 74
66 66 74
66 66 74
66 66 74
66 66 74
66 66 74
66 66 74
66 66 74
66 66 74
66 66 73
66 66 73
66 66 73
66 66 73
66 66 73
66 66 73
66 66 73
66 66 73
66 66 73
66 66 73
66 66 73
66 66 73
66 66 73
66 66 73
66 66 73
66 66 73
66 66 73
66 66 73
66 66 73
66 66 73
66 66 73
66 66 73
66 66 73
66 66 73
66 66 73
66 66 73
66 66 73
66 66 73
66 66 73
66 66 73
66 66 73
65 65 73
65 65 73
65 65 73
65 65 73
65 65 73
65 65 72
65 65 72
65 65 72
65 65 72
65 65 72
65 65 72
65 65 72
65 65 72
65 65 72
65 65 72
65 65 72
65 65 72
65 65 72
65 65 72
65 65 72
65 65 72
65 65 72
64 64 72
64 64 72
64 64 71
64 64 71
64 64 71
64 64 71
64 64 71
64 64 71
64 64 71
64 64 71
64 64 71
64 64 71
64 64 71
64 64 71
64 64 71
64 64 71
64 64 71
63 63 71
63 63 70
63 63 70
63 63 70
63 63 70
63 63 70
63 63 70
63 63 70
63 63 70
63 63 70
63 63 70
63 63 70
63 63 70
63 63 70
62 63 69
62 62 69
62 62 69
62 62 69
62 62 69
62 62 69
62 62 69
62 62 69
62 62 69
62 62 69
62 62 69
62 62 69
62 62 69
62 62 68
61 61 68
61 61 68
61 61 68
61 61 68
61 61 68
61 61 68
61 61 68
61 61 68
61 61 68
61 61 68
61 61 67
61 61 67
60 61 67
60 60 67
60 60 67
60 60 67
60 60 67
60 60 67
60 60 67
60 60 67
60 60 67
60 60 67
60 60 66
60 60 66
59 60 66
59 59 66
59 59 66
59 59 66
59 59 66
59 59 66
59 59 66
59 59 66
59 59 66
59 59 65
59 59 65
59 59 65
58 59 65
58 58 65
58 58 65
58 58 65
58 58 65
58 58 65
58 58 65
58 58 64
58 58 64
58 58 64
58 58 64
57 58 64
57 58 64
57 57 64
57 57 64
57 57 64
57 57 64
57 57 64
57 57 63
57 57 63
57 57 63
57 57 63
57 57 63
56 57 63
56 56 63
56 56 63
56 56 63
56 56 63
56 56 63
56 56 62
56 56 62
56 56 62
56 56 62
56 56 62
55 56 62
55 56 62
55 55 62
55 55 62
55 55 62
55 55 61
55 55 61
55 55 61
55 55 61
55 55 61
55 55 61
55 55 61
